(G-CODE GENERATED BY FLATCAM v8.994 - www.flatcam.org - Version Date: 2020/11/7)

(Name: encoder_diff_driver_board_COPPER-TOP.gbr_iso_combined_cnc)
(Type: G-code from Geometry)
(Units: MM)

(Created on Friday, 25 October 2024 at 20:46)

(This preprocessor is the default preprocessor used by FlatCAM.)
(It is made to work with MACH3 compatible motion controllers.)

(TOOL DIAMETER: 0.1 mm)
(Feedrate_XY: 120.0 mm/min)
(Feedrate_Z: 60.0 mm/min)
(Feedrate rapids 1500.0 mm/min)

(Z_Cut: -0.0 mm)
(Z_Move: 2.0 mm)
(Z Start: None mm)
(Z End: 15.0 mm)
(X,Y End: None mm)
(Steps per circle: 64)
(Preprocessor Geometry: default)

(X range:  -42.2101 ...   41.7850  mm)
(Y range:  -26.9701 ...   30.1451  mm)

(Spindle Speed: 0.0 RPM)
G21
G90
G94

G01 F120.00

M5
G00 Z15.0000
G00 X0.0000 Y0.0000
T1
M6    
(MSG, Change to Tool Dia = 0.1000)
M0
G00 Z15.0000

M03
G01 F120.00
G00 X-15.5950 Y0.5800
G01 F60.00
G01 Z-0.0000
G01 F120.00
G01 X-14.3950 Y0.5800
G01 X-14.3288 Y0.5832
G01 X-14.2584 Y0.5935
G01 X-14.1918 Y0.6101
G01 X-14.1271 Y0.6333
G01 X-14.0639 Y0.6632
G01 X-14.0061 Y0.6980
G01 X-13.9509 Y0.7389
G01 X-13.9000 Y0.7850
G01 X-13.8539 Y0.8359
G01 X-13.8130 Y0.8911
G01 X-13.7777 Y0.9500
G01 X-13.7483 Y1.0121
G01 X-13.7251 Y1.0768
G01 X-13.7085 Y1.1434
G01 X-13.6984 Y1.2114
G01 X-13.6950 Y1.2800
G01 X-13.6984 Y1.3486
G01 X-13.7085 Y1.4166
G01 X-13.7251 Y1.4832
G01 X-13.7483 Y1.5479
G01 X-13.7782 Y1.6111
G01 X-13.8144 Y1.6709
G01 X-13.8539 Y1.7241
G01 X-13.8983 Y1.7732
G01 X-13.9509 Y1.8211
G01 X-14.0061 Y1.8620
G01 X-14.0650 Y1.8973
G01 X-14.1294 Y1.9276
G01 X-14.1918 Y1.9499
G01 X-14.2560 Y1.9660
G01 X-14.3252 Y1.9765
G01 X-14.3950 Y1.9800
G01 X-15.5950 Y1.9800
G01 X-15.6612 Y1.9768
G01 X-15.7316 Y1.9665
G01 X-15.7982 Y1.9499
G01 X-15.8629 Y1.9267
G01 X-15.9261 Y1.8968
G01 X-15.9839 Y1.8620
G01 X-16.0391 Y1.8211
G01 X-16.0900 Y1.7750
G01 X-16.1345 Y1.7259
G01 X-16.1783 Y1.6668
G01 X-16.2123 Y1.6100
G01 X-16.2417 Y1.5479
G01 X-16.2649 Y1.4832
G01 X-16.2810 Y1.4190
G01 X-16.2918 Y1.3462
G01 X-16.2950 Y1.2800
G01 X-16.2916 Y1.2114
G01 X-16.2815 Y1.1434
G01 X-16.2655 Y1.0792
G01 X-16.2407 Y1.0099
G01 X-16.2123 Y0.9500
G01 X-16.1770 Y0.8911
G01 X-16.1361 Y0.8359
G01 X-16.0917 Y0.7868
G01 X-16.0371 Y0.7374
G01 X-15.9839 Y0.6980
G01 X-15.9250 Y0.6627
G01 X-15.8629 Y0.6333
G01 X-15.8005 Y0.6109
G01 X-15.7291 Y0.5930
G01 X-15.6636 Y0.5834
G01 X-15.5950 Y0.5800
G00 Z2.0000
G00 X-15.5950 Y6.9100
G01 F60.00
G01 Z-0.0000
G01 F120.00
G01 X-14.3950 Y6.9100
G01 X-14.3264 Y6.9134
G01 X-14.2572 Y6.9237
G01 X-14.1895 Y6.9409
G01 X-14.1271 Y6.9633
G01 X-14.0672 Y6.9916
G01 X-14.0061 Y7.0280
G01 X-13.9519 Y7.0681
G01 X-13.9000 Y7.1150
G01 X-13.8531 Y7.1669
G01 X-13.8123 Y7.2221
G01 X-13.7782 Y7.2789
G01 X-13.7635 Y7.3099
G01 X-6.3488 Y7.3099
G01 X-6.3206 Y7.3113
G01 X-6.2939 Y7.3152
G01 X-6.2629 Y7.3228
G01 X-6.2329 Y7.3337
G01 X-6.2085 Y7.3453
G01 X-6.1833 Y7.3605
G01 X-6.1577 Y7.3796
G01 X-6.1378 Y7.3978
G01 X-6.1180 Y7.4196
G01 X-6.0991 Y7.4453
G01 X-6.0853 Y7.4685
G01 X-6.0737 Y7.4929
G01 X-6.0628 Y7.5229
G01 X-6.0556 Y7.5514
G01 X-6.0513 Y7.5806
G01 X-6.0499 Y7.6100
G01 X-6.0499 Y25.5810
G01 X-6.0261 Y25.5897
G01 X-5.9513 Y25.6252
G01 X-5.8814 Y25.6672
G01 X-5.8158 Y25.7157
G01 X-5.7519 Y25.7738
G01 X-5.6980 Y25.8334
G01 X-5.6493 Y25.8989
G01 X-5.6050 Y25.9731
G01 X-5.5707 Y26.0457
G01 X-5.5428 Y26.1236
G01 X-5.5227 Y26.2039
G01 X-5.5109 Y26.2834
G01 X-5.5065 Y26.3685
G01 X-5.5065 Y26.9715
G01 X-5.5105 Y27.0530
G01 X-5.5232 Y27.1385
G01 X-5.5428 Y27.2164
G01 X-5.5703 Y27.2932
G01 X-5.6061 Y27.3691
G01 X-5.6487 Y27.4401
G01 X-5.6980 Y27.5066
G01 X-5.7536 Y27.5679
G01 X-5.8149 Y27.6235
G01 X-5.8814 Y27.6728
G01 X-5.9524 Y27.7154
G01 X-6.0250 Y27.7498
G01 X-6.1051 Y27.7787
G01 X-6.1879 Y27.7992
G01 X-6.2673 Y27.8109
G01 X-6.3475 Y27.8149
G01 X-6.4327 Y27.8109
G01 X-6.5170 Y27.7983
G01 X-6.5949 Y27.7787
G01 X-6.6705 Y27.7517
G01 X-6.7476 Y27.7154
G01 X-6.8186 Y27.6728
G01 X-6.8870 Y27.6219
G01 X-6.9464 Y27.5679
G01 X-7.0004 Y27.5085
G01 X-7.0513 Y27.4401
G01 X-7.0939 Y27.3691
G01 X-7.1293 Y27.2943
G01 X-7.1578 Y27.2140
G01 X-7.1773 Y27.1361
G01 X-7.1891 Y27.0566
G01 X-7.1935 Y26.9727
G01 X-7.1935 Y26.3685
G01 X-7.1895 Y26.2870
G01 X-7.1768 Y26.2015
G01 X-7.1572 Y26.1236
G01 X-7.1297 Y26.0468
G01 X-7.0939 Y25.9709
G01 X-7.0513 Y25.8999
G01 X-7.0020 Y25.8334
G01 X-6.9456 Y25.7712
G01 X-6.8851 Y25.7165
G01 X-6.8176 Y25.6665
G01 X-6.7465 Y25.6240
G01 X-6.6739 Y25.5897
G01 X-6.6501 Y25.5810
G01 X-6.6501 Y7.9101
G01 X-13.7635 Y7.9101
G01 X-13.7782 Y7.9411
G01 X-13.8123 Y7.9979
G01 X-13.8531 Y8.0531
G01 X-13.9000 Y8.1050
G01 X-13.9519 Y8.1519
G01 X-14.0082 Y8.1933
G01 X-14.0650 Y8.2273
G01 X-14.1249 Y8.2557
G01 X-14.1918 Y8.2799
G01 X-14.2584 Y8.2965
G01 X-14.3264 Y8.3066
G01 X-14.3950 Y8.3100
G01 X-15.5950 Y8.3100
G01 X-15.6648 Y8.3065
G01 X-15.7316 Y8.2965
G01 X-15.7982 Y8.2799
G01 X-15.8629 Y8.2567
G01 X-15.9250 Y8.2273
G01 X-15.9839 Y8.1920
G01 X-16.0391 Y8.1511
G01 X-16.0900 Y8.1050
G01 X-16.1361 Y8.0541
G01 X-16.1770 Y7.9989
G01 X-16.2123 Y7.9400
G01 X-16.2417 Y7.8779
G01 X-16.2649 Y7.8132
G01 X-16.2815 Y7.7466
G01 X-16.2916 Y7.6786
G01 X-16.2950 Y7.6100
G01 X-16.2918 Y7.5438
G01 X-16.2815 Y7.4734
G01 X-16.2655 Y7.4092
G01 X-16.2407 Y7.3399
G01 X-16.2123 Y7.2800
G01 X-16.1770 Y7.2211
G01 X-16.1361 Y7.1659
G01 X-16.0882 Y7.1133
G01 X-16.0391 Y7.0689
G01 X-15.9839 Y7.0280
G01 X-15.9250 Y6.9927
G01 X-15.8629 Y6.9633
G01 X-15.7982 Y6.9401
G01 X-15.7316 Y6.9235
G01 X-15.6636 Y6.9134
G01 X-15.5950 Y6.9100
G00 Z2.0000
G00 X-15.5950 Y14.5500
G01 F60.00
G01 Z-0.0000
G01 F120.00
G01 X-14.3950 Y14.5500
G01 X-14.3288 Y14.5532
G01 X-14.2584 Y14.5635
G01 X-14.1918 Y14.5801
G01 X-14.1271 Y14.6033
G01 X-14.0639 Y14.6332
G01 X-14.0061 Y14.6680
G01 X-13.9509 Y14.7089
G01 X-13.9000 Y14.7550
G01 X-13.8539 Y14.8059
G01 X-13.8130 Y14.8611
G01 X-13.7777 Y14.9200
G01 X-13.7483 Y14.9821
G01 X-13.7251 Y15.0468
G01 X-13.7085 Y15.1134
G01 X-13.6984 Y15.1814
G01 X-13.6950 Y15.2500
G01 X-13.6984 Y15.3186
G01 X-13.7085 Y15.3866
G01 X-13.7251 Y15.4532
G01 X-13.7483 Y15.5179
G01 X-13.7782 Y15.5811
G01 X-13.8144 Y15.6409
G01 X-13.8539 Y15.6941
G01 X-13.8983 Y15.7432
G01 X-13.9509 Y15.7911
G01 X-14.0061 Y15.8320
G01 X-14.0650 Y15.8673
G01 X-14.1294 Y15.8976
G01 X-14.1918 Y15.9199
G01 X-14.2560 Y15.9360
G01 X-14.3252 Y15.9465
G01 X-14.3950 Y15.9500
G01 X-15.5950 Y15.9500
G01 X-15.6612 Y15.9468
G01 X-15.7316 Y15.9365
G01 X-15.7982 Y15.9199
G01 X-15.8629 Y15.8967
G01 X-15.9261 Y15.8668
G01 X-15.9839 Y15.8320
G01 X-16.0391 Y15.7911
G01 X-16.0900 Y15.7450
G01 X-16.1345 Y15.6959
G01 X-16.1783 Y15.6368
G01 X-16.2123 Y15.5800
G01 X-16.2417 Y15.5179
G01 X-16.2649 Y15.4532
G01 X-16.2810 Y15.3890
G01 X-16.2918 Y15.3162
G01 X-16.2950 Y15.2500
G01 X-16.2916 Y15.1814
G01 X-16.2815 Y15.1134
G01 X-16.2655 Y15.0492
G01 X-16.2407 Y14.9799
G01 X-16.2123 Y14.9200
G01 X-16.1770 Y14.8611
G01 X-16.1361 Y14.8059
G01 X-16.0917 Y14.7568
G01 X-16.0371 Y14.7074
G01 X-15.9839 Y14.6680
G01 X-15.9250 Y14.6327
G01 X-15.8629 Y14.6033
G01 X-15.8005 Y14.5809
G01 X-15.7291 Y14.5630
G01 X-15.6636 Y14.5534
G01 X-15.5950 Y14.5500
G00 Z2.0000
G00 X-15.5950 Y-7.0600
G01 F60.00
G01 Z-0.0000
G01 F120.00
G01 X-14.3950 Y-7.0600
G01 X-14.3264 Y-7.0566
G01 X-14.2572 Y-7.0463
G01 X-14.1895 Y-7.0291
G01 X-14.1271 Y-7.0067
G01 X-14.0672 Y-6.9784
G01 X-14.0061 Y-6.9420
G01 X-13.9519 Y-6.9019
G01 X-13.9000 Y-6.8550
G01 X-13.8531 Y-6.8031
G01 X-13.8123 Y-6.7479
G01 X-13.7782 Y-6.6911
G01 X-13.7635 Y-6.6601
G01 X-3.8088 Y-6.6601
G01 X-3.7806 Y-6.6587
G01 X-3.7539 Y-6.6548
G01 X-3.7229 Y-6.6472
G01 X-3.6951 Y-6.6373
G01 X-3.6707 Y-6.6258
G01 X-3.6413 Y-6.6081
G01 X-3.6196 Y-6.5920
G01 X-3.5996 Y-6.5739
G01 X-3.5765 Y-6.5485
G01 X-3.5605 Y-6.5267
G01 X-3.5453 Y-6.5015
G01 X-3.5327 Y-6.4749
G01 X-3.5236 Y-6.4495
G01 X-3.5152 Y-6.4161
G01 X-3.5113 Y-6.3894
G01 X-3.5099 Y-6.3600
G01 X-3.5099 Y25.5810
G01 X-3.4861 Y25.5897
G01 X-3.4135 Y25.6240
G01 X-3.3424 Y25.6665
G01 X-3.2749 Y25.7165
G01 X-3.2144 Y25.7712
G01 X-3.1580 Y25.8334
G01 X-3.1087 Y25.8999
G01 X-3.0661 Y25.9709
G01 X-3.0303 Y26.0468
G01 X-3.0028 Y26.1236
G01 X-2.9832 Y26.2015
G01 X-2.9705 Y26.2870
G01 X-2.9665 Y26.3685
G01 X-2.9665 Y26.9715
G01 X-2.9709 Y27.0566
G01 X-2.9827 Y27.1361
G01 X-3.0028 Y27.2164
G01 X-3.0307 Y27.2943
G01 X-3.0650 Y27.3669
G01 X-3.1101 Y27.4421
G01 X-3.1580 Y27.5066
G01 X-3.2119 Y27.5662
G01 X-3.2768 Y27.6250
G01 X-3.3414 Y27.6728
G01 X-3.4124 Y27.7154
G01 X-3.4872 Y27.7508
G01 X-3.5628 Y27.7779
G01 X-3.6454 Y27.7988
G01 X-3.7273 Y27.8109
G01 X-3.8100 Y27.8150
G01 X-3.8951 Y27.8106
G01 X-3.9770 Y27.7983
G01 X-4.0549 Y27.7787
G01 X-4.1305 Y27.7517
G01 X-4.2076 Y27.7154
G01 X-4.2806 Y27.6714
G01 X-4.3470 Y27.6219
G01 X-4.4064 Y27.5679
G01 X-4.4604 Y27.5085
G01 X-4.5113 Y27.4401
G01 X-4.5539 Y27.3691
G01 X-4.5893 Y27.2943
G01 X-4.6178 Y27.2140
G01 X-4.6373 Y27.1361
G01 X-4.6491 Y27.0566
G01 X-4.6535 Y26.9727
G01 X-4.6535 Y26.3685
G01 X-4.6495 Y26.2870
G01 X-4.6368 Y26.2015
G01 X-4.6172 Y26.1236
G01 X-4.5897 Y26.0468
G01 X-4.5539 Y25.9709
G01 X-4.5113 Y25.8999
G01 X-4.4620 Y25.8334
G01 X-4.4056 Y25.7712
G01 X-4.3451 Y25.7165
G01 X-4.2776 Y25.6665
G01 X-4.2065 Y25.6240
G01 X-4.1339 Y25.5897
G01 X-4.1101 Y25.5810
G01 X-4.1101 Y-6.0599
G01 X-13.7635 Y-6.0599
G01 X-13.7782 Y-6.0289
G01 X-13.8123 Y-5.9721
G01 X-13.8531 Y-5.9169
G01 X-13.9000 Y-5.8650
G01 X-13.9519 Y-5.8181
G01 X-14.0082 Y-5.7767
G01 X-14.0650 Y-5.7427
G01 X-14.1249 Y-5.7143
G01 X-14.1918 Y-5.6901
G01 X-14.2584 Y-5.6735
G01 X-14.3264 Y-5.6634
G01 X-14.3950 Y-5.6600
G01 X-15.5950 Y-5.6600
G01 X-15.6636 Y-5.6634
G01 X-15.7316 Y-5.6735
G01 X-15.7982 Y-5.6901
G01 X-15.8629 Y-5.7133
G01 X-15.9250 Y-5.7427
G01 X-15.9839 Y-5.7780
G01 X-16.0391 Y-5.8189
G01 X-16.0900 Y-5.8650
G01 X-16.1361 Y-5.9159
G01 X-16.1770 Y-5.9711
G01 X-16.2123 Y-6.0300
G01 X-16.2417 Y-6.0921
G01 X-16.2649 Y-6.1568
G01 X-16.2815 Y-6.2234
G01 X-16.2916 Y-6.2914
G01 X-16.2950 Y-6.3600
G01 X-16.2918 Y-6.4262
G01 X-16.2815 Y-6.4966
G01 X-16.2655 Y-6.5608
G01 X-16.2407 Y-6.6301
G01 X-16.2123 Y-6.6900
G01 X-16.1770 Y-6.7489
G01 X-16.1361 Y-6.8041
G01 X-16.0882 Y-6.8567
G01 X-16.0391 Y-6.9011
G01 X-15.9839 Y-6.9420
G01 X-15.9250 Y-6.9773
G01 X-15.8629 Y-7.0067
G01 X-15.7982 Y-7.0299
G01 X-15.7316 Y-7.0465
G01 X-15.6636 Y-7.0566
G01 X-15.5950 Y-7.0600
G00 Z2.0000
G00 X-15.5950 Y-13.3900
G01 F60.00
G01 Z-0.0000
G01 F120.00
G01 X-14.3950 Y-13.3900
G01 X-14.3288 Y-13.3868
G01 X-14.2584 Y-13.3765
G01 X-14.1918 Y-13.3599
G01 X-14.1271 Y-13.3367
G01 X-14.0639 Y-13.3068
G01 X-14.0061 Y-13.2720
G01 X-13.9509 Y-13.2311
G01 X-13.9000 Y-13.1850
G01 X-13.8539 Y-13.1341
G01 X-13.8130 Y-13.0789
G01 X-13.7777 Y-13.0200
G01 X-13.7483 Y-12.9579
G01 X-13.7251 Y-12.8932
G01 X-13.7085 Y-12.8266
G01 X-13.6984 Y-12.7586
G01 X-13.6950 Y-12.6900
G01 X-13.6984 Y-12.6214
G01 X-13.7085 Y-12.5534
G01 X-13.7251 Y-12.4868
G01 X-13.7483 Y-12.4221
G01 X-13.7782 Y-12.3589
G01 X-13.8144 Y-12.2991
G01 X-13.8539 Y-12.2459
G01 X-13.8983 Y-12.1968
G01 X-13.9509 Y-12.1489
G01 X-14.0061 Y-12.1080
G01 X-14.0650 Y-12.0727
G01 X-14.1294 Y-12.0424
G01 X-14.1918 Y-12.0201
G01 X-14.2560 Y-12.0040
G01 X-14.3252 Y-11.9935
G01 X-14.3950 Y-11.9900
G01 X-15.5950 Y-11.9900
G01 X-15.6612 Y-11.9932
G01 X-15.7316 Y-12.0035
G01 X-15.7982 Y-12.0201
G01 X-15.8629 Y-12.0433
G01 X-15.9261 Y-12.0732
G01 X-15.9839 Y-12.1080
G01 X-16.0391 Y-12.1489
G01 X-16.0900 Y-12.1950
G01 X-16.1345 Y-12.2441
G01 X-16.1783 Y-12.3032
G01 X-16.2123 Y-12.3600
G01 X-16.2417 Y-12.4221
G01 X-16.2649 Y-12.4868
G01 X-16.2810 Y-12.5510
G01 X-16.2918 Y-12.6238
G01 X-16.2950 Y-12.6900
G01 X-16.2916 Y-12.7586
G01 X-16.2815 Y-12.8266
G01 X-16.2655 Y-12.8908
G01 X-16.2407 Y-12.9601
G01 X-16.2123 Y-13.0200
G01 X-16.1770 Y-13.0789
G01 X-16.1361 Y-13.1341
G01 X-16.0917 Y-13.1832
G01 X-16.0371 Y-13.2326
G01 X-15.9839 Y-13.2720
G01 X-15.9250 Y-13.3073
G01 X-15.8629 Y-13.3367
G01 X-15.8005 Y-13.3591
G01 X-15.7291 Y-13.3770
G01 X-15.6636 Y-13.3866
G01 X-15.5950 Y-13.3900
G00 Z2.0000
G00 X-15.5950 Y-21.0300
G01 F60.00
G01 Z-0.0000
G01 F120.00
G01 X-14.3950 Y-21.0300
G01 X-14.3264 Y-21.0266
G01 X-14.2572 Y-21.0163
G01 X-14.1918 Y-20.9999
G01 X-14.1249 Y-20.9757
G01 X-14.0650 Y-20.9473
G01 X-14.0082 Y-20.9133
G01 X-13.9519 Y-20.8719
G01 X-13.9000 Y-20.8250
G01 X-13.8531 Y-20.7731
G01 X-13.8123 Y-20.7179
G01 X-13.7782 Y-20.6611
G01 X-13.7635 Y-20.6301
G01 X10.1600 Y-20.6301
G01 X10.1919 Y-20.6284
G01 X10.2186 Y-20.6244
G01 X10.2448 Y-20.6179
G01 X10.2749 Y-20.6073
G01 X10.3036 Y-20.5935
G01 X10.3267 Y-20.5795
G01 X10.3485 Y-20.5635
G01 X10.3722 Y-20.5422
G01 X10.3935 Y-20.5185
G01 X10.4095 Y-20.4967
G01 X10.4247 Y-20.4715
G01 X10.4382 Y-20.4426
G01 X10.4472 Y-20.4171
G01 X10.4538 Y-20.3909
G01 X10.4587 Y-20.3594
G01 X10.4601 Y-20.3300
G01 X10.4601 Y25.5810
G01 X10.4839 Y25.5897
G01 X10.5587 Y25.6252
G01 X10.6286 Y25.6672
G01 X10.6942 Y25.7157
G01 X10.7581 Y25.7738
G01 X10.8120 Y25.8334
G01 X10.8607 Y25.8989
G01 X10.9050 Y25.9731
G01 X10.9393 Y26.0457
G01 X10.9672 Y26.1236
G01 X10.9873 Y26.2039
G01 X10.9991 Y26.2834
G01 X11.0035 Y26.3685
G01 X11.0034 Y26.9740
G01 X10.9994 Y27.0542
G01 X10.9877 Y27.1336
G01 X10.9668 Y27.2175
G01 X10.9393 Y27.2943
G01 X10.9039 Y27.3691
G01 X10.8613 Y27.4401
G01 X10.8120 Y27.5066
G01 X10.7564 Y27.5679
G01 X10.6951 Y27.6235
G01 X10.6286 Y27.6728
G01 X10.5576 Y27.7154
G01 X10.4805 Y27.7517
G01 X10.4049 Y27.7787
G01 X10.3270 Y27.7983
G01 X10.2427 Y27.8109
G01 X10.1600 Y27.8150
G01 X10.0749 Y27.8106
G01 X9.9954 Y27.7988
G01 X9.9175 Y27.7793
G01 X9.8372 Y27.7508
G01 X9.7602 Y27.7142
G01 X9.6914 Y27.6728
G01 X9.6268 Y27.6250
G01 X9.5636 Y27.5679
G01 X9.5065 Y27.5047
G01 X9.4587 Y27.4401
G01 X9.4173 Y27.3713
G01 X9.3807 Y27.2943
G01 X9.3522 Y27.2140
G01 X9.3327 Y27.1361
G01 X9.3209 Y27.0566
G01 X9.3165 Y26.9727
G01 X9.3165 Y26.3685
G01 X9.3205 Y26.2870
G01 X9.3332 Y26.2015
G01 X9.3528 Y26.1236
G01 X9.3803 Y26.0468
G01 X9.4161 Y25.9709
G01 X9.4587 Y25.8999
G01 X9.5080 Y25.8334
G01 X9.5644 Y25.7712
G01 X9.6249 Y25.7165
G01 X9.6924 Y25.6665
G01 X9.7635 Y25.6240
G01 X9.8361 Y25.5897
G01 X9.8599 Y25.5810
G01 X9.8599 Y-20.0299
G01 X-13.7635 Y-20.0299
G01 X-13.7782 Y-19.9989
G01 X-13.8123 Y-19.9421
G01 X-13.8531 Y-19.8869
G01 X-13.9000 Y-19.8350
G01 X-13.9519 Y-19.7881
G01 X-14.0061 Y-19.7480
G01 X-14.0672 Y-19.7116
G01 X-14.1271 Y-19.6833
G01 X-14.1895 Y-19.6609
G01 X-14.2572 Y-19.6437
G01 X-14.3264 Y-19.6334
G01 X-14.3950 Y-19.6300
G01 X-15.5975 Y-19.6301
G01 X-15.6636 Y-19.6334
G01 X-15.7316 Y-19.6435
G01 X-15.7982 Y-19.6601
G01 X-15.8629 Y-19.6833
G01 X-15.9250 Y-19.7127
G01 X-15.9839 Y-19.7480
G01 X-16.0391 Y-19.7889
G01 X-16.0900 Y-19.8350
G01 X-16.1361 Y-19.8859
G01 X-16.1770 Y-19.9411
G01 X-16.2123 Y-20.0000
G01 X-16.2417 Y-20.0621
G01 X-16.2649 Y-20.1268
G01 X-16.2815 Y-20.1934
G01 X-16.2916 Y-20.2614
G01 X-16.2950 Y-20.3300
G01 X-16.2916 Y-20.3986
G01 X-16.2815 Y-20.4666
G01 X-16.2649 Y-20.5332
G01 X-16.2417 Y-20.5979
G01 X-16.2123 Y-20.6600
G01 X-16.1770 Y-20.7189
G01 X-16.1361 Y-20.7741
G01 X-16.0900 Y-20.8250
G01 X-16.0391 Y-20.8711
G01 X-15.9839 Y-20.9120
G01 X-15.9250 Y-20.9473
G01 X-15.8629 Y-20.9767
G01 X-15.7982 Y-20.9999
G01 X-15.7316 Y-21.0165
G01 X-15.6636 Y-21.0266
G01 X-15.5950 Y-21.0300
G00 Z2.0000
G00 X-22.3450 Y-22.3200
G01 F60.00
G01 Z-0.0000
G01 F120.00
G01 X-21.2551 Y-22.3200
G01 X-21.2551 Y-24.7650
G01 X-21.2537 Y-24.7944
G01 X-21.2494 Y-24.8236
G01 X-21.2422 Y-24.8521
G01 X-21.2323 Y-24.8799
G01 X-21.2208 Y-24.9043
G01 X-21.2031 Y-24.9337
G01 X-21.1870 Y-24.9554
G01 X-21.1672 Y-24.9772
G01 X-21.1454 Y-24.9970
G01 X-21.1217 Y-25.0145
G01 X-21.0965 Y-25.0297
G01 X-21.0721 Y-25.0413
G01 X-21.0398 Y-25.0529
G01 X-21.0136 Y-25.0594
G01 X-20.9820 Y-25.0639
G01 X-20.9550 Y-25.0651
G01 X31.1150 Y-25.0651
G01 X31.1326 Y-25.0646
G01 X31.1444 Y-25.0637
G01 X31.1606 Y-25.0616
G01 X31.1748 Y-25.0591
G01 X31.1895 Y-25.0557
G01 X31.2021 Y-25.0522
G01 X31.2188 Y-25.0466
G01 X31.2299 Y-25.0423
G01 X31.2448 Y-25.0356
G01 X31.2565 Y-25.0297
G01 X31.2696 Y-25.0222
G01 X31.2828 Y-25.0139
G01 X31.2951 Y-25.0051
G01 X31.3054 Y-24.9970
G01 X31.3177 Y-24.9863
G01 X31.3263 Y-24.9781
G01 X31.3393 Y-24.9644
G01 X31.3470 Y-24.9554
G01 X31.3570 Y-24.9425
G01 X38.2521 Y-15.5401
G01 X39.5510 Y-15.5401
G01 X39.5597 Y-15.5639
G01 X39.5940 Y-15.6365
G01 X39.6365 Y-15.7076
G01 X39.6865 Y-15.7751
G01 X39.7412 Y-15.8356
G01 X39.8034 Y-15.8920
G01 X39.8699 Y-15.9413
G01 X39.9409 Y-15.9839
G01 X40.0168 Y-16.0197
G01 X40.0936 Y-16.0472
G01 X40.1715 Y-16.0668
G01 X40.2570 Y-16.0795
G01 X40.3385 Y-16.0835
G01 X40.9440 Y-16.0834
G01 X41.0242 Y-16.0794
G01 X41.1061 Y-16.0673
G01 X41.1864 Y-16.0472
G01 X41.2620 Y-16.0202
G01 X41.3413 Y-15.9827
G01 X41.4101 Y-15.9413
G01 X41.4766 Y-15.8920
G01 X41.5379 Y-15.8364
G01 X41.5935 Y-15.7751
G01 X41.6428 Y-15.7086
G01 X41.6842 Y-15.6398
G01 X41.7208 Y-15.5628
G01 X41.7479 Y-15.4872
G01 X41.7692 Y-15.4021
G01 X41.7809 Y-15.3227
G01 X41.7850 Y-15.2400
G01 X41.7809 Y-15.1573
G01 X41.7688 Y-15.0754
G01 X41.7487 Y-14.9951
G01 X41.7208 Y-14.9172
G01 X41.6854 Y-14.8424
G01 X41.6414 Y-14.7694
G01 X41.5935 Y-14.7049
G01 X41.5379 Y-14.6436
G01 X41.4766 Y-14.5880
G01 X41.4081 Y-14.5373
G01 X41.3391 Y-14.4961
G01 X41.2620 Y-14.4598
G01 X41.1840 Y-14.4322
G01 X41.1061 Y-14.4127
G01 X41.0266 Y-14.4009
G01 X40.9415 Y-14.3965
G01 X40.3385 Y-14.3965
G01 X40.2583 Y-14.4004
G01 X40.1715 Y-14.4132
G01 X40.0936 Y-14.4328
G01 X40.0180 Y-14.4598
G01 X39.9409 Y-14.4961
G01 X39.8699 Y-14.5387
G01 X39.8034 Y-14.5880
G01 X39.7412 Y-14.6444
G01 X39.6865 Y-14.7049
G01 X39.6365 Y-14.7724
G01 X39.5940 Y-14.8435
G01 X39.5597 Y-14.9161
G01 X39.5510 Y-14.9399
G01 X38.4001 Y-14.9399
G01 X38.4001 Y20.3200
G01 X38.3994 Y20.3403
G01 X38.3985 Y20.3506
G01 X38.3964 Y20.3672
G01 X38.3941 Y20.3798
G01 X38.3903 Y20.3960
G01 X38.3872 Y20.4071
G01 X38.3806 Y20.4264
G01 X38.3768 Y20.4360
G01 X38.3699 Y20.4512
G01 X38.3641 Y20.4626
G01 X38.3551 Y20.4780
G01 X38.3489 Y20.4878
G01 X38.3392 Y20.5013
G01 X38.3328 Y20.5094
G01 X38.3194 Y20.5248
G01 X29.4294 Y30.0498
G01 X29.4213 Y30.0581
G01 X29.4092 Y30.0695
G01 X29.4013 Y30.0762
G01 X29.3862 Y30.0879
G01 X29.3757 Y30.0952
G01 X29.3594 Y30.1053
G01 X29.3504 Y30.1103
G01 X29.3355 Y30.1176
G01 X29.3237 Y30.1227
G01 X29.3081 Y30.1286
G01 X29.2971 Y30.1322
G01 X29.2775 Y30.1374
G01 X29.2673 Y30.1396
G01 X29.2509 Y30.1423
G01 X29.2382 Y30.1438
G01 X29.2216 Y30.1449
G01 X29.2100 Y30.1451
G01 X7.6200 Y30.1451
G01 X7.5906 Y30.1437
G01 X7.5614 Y30.1394
G01 X7.5329 Y30.1322
G01 X7.5074 Y30.1232
G01 X7.4764 Y30.1085
G01 X7.4533 Y30.0945
G01 X7.4277 Y30.0754
G01 X7.4078 Y30.0572
G01 X7.3880 Y30.0354
G01 X7.3705 Y30.0117
G01 X7.3553 Y29.9865
G01 X7.3427 Y29.9599
G01 X7.3328 Y29.9321
G01 X7.3256 Y29.9036
G01 X7.3215 Y29.8756
G01 X7.3199 Y29.8450
G01 X7.3199 Y27.8150
G01 X6.8216 Y27.8148
G01 X6.8120 Y27.8128
G01 X6.8040 Y27.8097
G01 X6.7967 Y27.8052
G01 X6.7903 Y27.7995
G01 X6.7849 Y27.7928
G01 X6.7808 Y27.7853
G01 X6.7777 Y27.7760
G01 X6.7766 Y27.7675
G01 X6.7765 Y25.5750
G01 X6.7772 Y25.5665
G01 X6.7794 Y25.5582
G01 X6.7830 Y25.5504
G01 X6.7871 Y25.5442
G01 X6.7929 Y25.5380
G01 X6.7987 Y25.5334
G01 X6.8062 Y25.5293
G01 X6.8144 Y25.5265
G01 X6.8228 Y25.5251
G01 X7.3199 Y25.5250
G01 X7.3199 Y24.4301
G01 X-2.2399 Y24.4301
G01 X-2.2399 Y28.5762
G01 X-2.2416 Y28.6069
G01 X-2.2456 Y28.6336
G01 X-2.2521 Y28.6598
G01 X-2.2627 Y28.6899
G01 X-2.2753 Y28.7165
G01 X-2.2905 Y28.7417
G01 X-2.3096 Y28.7673
G01 X-2.3278 Y28.7872
G01 X-2.3477 Y28.8054
G01 X-2.3733 Y28.8245
G01 X-2.4007 Y28.8408
G01 X-2.4251 Y28.8523
G01 X-2.4529 Y28.8622
G01 X-2.4814 Y28.8694
G01 X-2.5081 Y28.8734
G01 X-2.5400 Y28.8751
G01 X-8.8900 Y28.8751
G01 X-8.9194 Y28.8737
G01 X-8.9461 Y28.8698
G01 X-8.9795 Y28.8614
G01 X-9.0049 Y28.8523
G01 X-9.0315 Y28.8397
G01 X-9.0567 Y28.8245
G01 X-9.0785 Y28.8085
G01 X-9.1022 Y28.7872
G01 X-9.1235 Y28.7635
G01 X-9.1395 Y28.7417
G01 X-9.1547 Y28.7165
G01 X-9.1682 Y28.6876
G01 X-9.1772 Y28.6621
G01 X-9.1841 Y28.6348
G01 X-9.1887 Y28.6044
G01 X-9.1901 Y28.5750
G01 X-9.1901 Y27.7590
G01 X-9.2139 Y27.7503
G01 X-9.2887 Y27.7148
G01 X-9.3586 Y27.6728
G01 X-9.4242 Y27.6243
G01 X-9.4881 Y27.5662
G01 X-9.5420 Y27.5066
G01 X-9.5907 Y27.4411
G01 X-9.6350 Y27.3669
G01 X-9.6693 Y27.2943
G01 X-9.6972 Y27.2164
G01 X-9.7173 Y27.1361
G01 X-9.7291 Y27.0566
G01 X-9.7335 Y26.9701
G01 X-12.0662 Y26.9701
G01 X-12.0944 Y26.9687
G01 X-12.1211 Y26.9648
G01 X-12.1545 Y26.9564
G01 X-12.1799 Y26.9473
G01 X-12.2065 Y26.9347
G01 X-12.2317 Y26.9195
G01 X-12.2535 Y26.9035
G01 X-12.2772 Y26.8822
G01 X-19.3794 Y19.7800
G01 X-22.3450 Y19.7800
G01 X-22.3523 Y19.7795
G01 X-22.3595 Y19.7778
G01 X-22.3675 Y19.7747
G01 X-22.3738 Y19.7709
G01 X-22.3786 Y19.7670
G01 X-22.3829 Y19.7627
G01 X-22.3866 Y19.7578
G01 X-22.3897 Y19.7525
G01 X-22.3921 Y19.7468
G01 X-22.3938 Y19.7410
G01 X-22.3948 Y19.7349
G01 X-22.3950 Y19.7300
G01 X-22.3950 Y16.7300
G01 X-22.3940 Y16.7202
G01 X-22.3912 Y16.7109
G01 X-22.3866 Y16.7022
G01 X-22.3804 Y16.6946
G01 X-22.3728 Y16.6884
G01 X-22.3641 Y16.6838
G01 X-22.3548 Y16.6810
G01 X-22.3450 Y16.6800
G01 X-19.3450 Y16.6800
G01 X-19.3377 Y16.6805
G01 X-19.3305 Y16.6822
G01 X-19.3247 Y16.6843
G01 X-19.3183 Y16.6878
G01 X-19.3133 Y16.6913
G01 X-19.3088 Y16.6955
G01 X-19.3048 Y16.7002
G01 X-19.3015 Y16.7054
G01 X-19.2984 Y16.7120
G01 X-19.2965 Y16.7179
G01 X-19.2954 Y16.7239
G01 X-19.2950 Y16.7300
G01 X-19.2950 Y19.0156
G01 X-11.9407 Y26.3699
G01 X-9.7335 Y26.3699
G01 X-9.7291 Y26.2834
G01 X-9.7173 Y26.2039
G01 X-9.6972 Y26.1236
G01 X-9.6693 Y26.0457
G01 X-9.6350 Y25.9731
G01 X-9.5913 Y25.8999
G01 X-9.5420 Y25.8334
G01 X-9.4881 Y25.7738
G01 X-9.4251 Y25.7165
G01 X-9.3586 Y25.6672
G01 X-9.2898 Y25.6258
G01 X-9.2128 Y25.5892
G01 X-9.1349 Y25.5613
G01 X-9.0570 Y25.5417
G01 X-8.9727 Y25.5291
G01 X-8.8875 Y25.5251
G01 X-8.8073 Y25.5291
G01 X-8.7254 Y25.5412
G01 X-8.6451 Y25.5613
G01 X-8.5695 Y25.5883
G01 X-8.4924 Y25.6246
G01 X-8.4214 Y25.6672
G01 X-8.3568 Y25.7150
G01 X-8.2919 Y25.7738
G01 X-8.2380 Y25.8334
G01 X-8.1901 Y25.8979
G01 X-8.1461 Y25.9709
G01 X-8.1098 Y26.0480
G01 X-8.0828 Y26.1236
G01 X-8.0627 Y26.2039
G01 X-8.0506 Y26.2858
G01 X-8.0465 Y26.3673
G01 X-8.0465 Y26.9715
G01 X-8.0507 Y27.0554
G01 X-8.0627 Y27.1361
G01 X-8.0822 Y27.2140
G01 X-8.1107 Y27.2943
G01 X-8.1473 Y27.3713
G01 X-8.1887 Y27.4401
G01 X-8.2372 Y27.5057
G01 X-8.2953 Y27.5696
G01 X-8.3549 Y27.6235
G01 X-8.4204 Y27.6722
G01 X-8.4935 Y27.7160
G01 X-8.5661 Y27.7503
G01 X-8.5899 Y27.7590
G01 X-8.5899 Y28.2749
G01 X-2.8401 Y28.2749
G01 X-2.8401 Y24.1275
G01 X-2.8387 Y24.1006
G01 X-2.8348 Y24.0739
G01 X-2.8264 Y24.0405
G01 X-2.8173 Y24.0151
G01 X-2.8047 Y23.9885
G01 X-2.7895 Y23.9633
G01 X-2.7735 Y23.9415
G01 X-2.7504 Y23.9161
G01 X-2.7304 Y23.8980
G01 X-2.7067 Y23.8805
G01 X-2.6815 Y23.8653
G01 X-2.6571 Y23.8537
G01 X-2.6259 Y23.8425
G01 X-2.5986 Y23.8356
G01 X-2.5719 Y23.8316
G01 X-2.5400 Y23.8299
G01 X7.6200 Y23.8299
G01 X7.6494 Y23.8313
G01 X7.6761 Y23.8352
G01 X7.7083 Y23.8432
G01 X7.7349 Y23.8527
G01 X7.7593 Y23.8642
G01 X7.7867 Y23.8805
G01 X7.8123 Y23.8996
G01 X7.8322 Y23.9178
G01 X7.8520 Y23.9396
G01 X7.8695 Y23.9633
G01 X7.8835 Y23.9864
G01 X7.8973 Y24.0151
G01 X7.9079 Y24.0452
G01 X7.9144 Y24.0714
G01 X7.9185 Y24.0994
G01 X7.9201 Y24.1300
G01 X7.9201 Y25.5250
G01 X8.4184 Y25.5252
G01 X8.4280 Y25.5272
G01 X8.4360 Y25.5303
G01 X8.4433 Y25.5348
G01 X8.4497 Y25.5405
G01 X8.4551 Y25.5472
G01 X8.4597 Y25.5559
G01 X8.4623 Y25.5640
G01 X8.4634 Y25.5725
G01 X8.4635 Y27.7650
G01 X8.4630 Y27.7723
G01 X8.4610 Y27.7807
G01 X8.4576 Y27.7886
G01 X8.4529 Y27.7958
G01 X8.4471 Y27.8020
G01 X8.4413 Y27.8066
G01 X8.4338 Y27.8107
G01 X8.4256 Y27.8135
G01 X8.4172 Y27.8149
G01 X7.9201 Y27.8150
G01 X7.9201 Y29.5449
G01 X29.0796 Y29.5449
G01 X37.7999 Y20.2017
G01 X37.7999 Y12.3651
G01 X34.1090 Y12.3651
G01 X34.1003 Y12.3889
G01 X34.0660 Y12.4615
G01 X34.0235 Y12.5326
G01 X33.9735 Y12.6001
G01 X33.9171 Y12.6623
G01 X33.8547 Y12.7185
G01 X33.7901 Y12.7663
G01 X33.7213 Y12.8077
G01 X33.6443 Y12.8443
G01 X33.5652 Y12.8725
G01 X33.4836 Y12.8927
G01 X33.4042 Y12.9044
G01 X33.3240 Y12.9084
G01 X32.7173 Y12.9085
G01 X32.6358 Y12.9044
G01 X32.5539 Y12.8923
G01 X32.4736 Y12.8722
G01 X32.3980 Y12.8452
G01 X32.3209 Y12.8089
G01 X32.2479 Y12.7649
G01 X32.1834 Y12.7170
G01 X32.1238 Y12.6631
G01 X32.0665 Y12.6001
G01 X32.0158 Y12.5316
G01 X31.9746 Y12.4626
G01 X31.9402 Y12.3900
G01 X31.9113 Y12.3099
G01 X31.8910 Y12.2284
G01 X31.8789 Y12.1452
G01 X31.8750 Y12.0650
G01 X31.8789 Y11.9848
G01 X31.8912 Y11.9004
G01 X31.9117 Y11.8190
G01 X31.9392 Y11.7422
G01 X31.9735 Y11.6696
G01 X32.0165 Y11.5974
G01 X32.0673 Y11.5290
G01 X32.1212 Y11.4694
G01 X32.1431 Y11.4494
G01 X30.2560 Y9.0905
G01 X29.7207 Y8.5551
G01 X26.6700 Y8.5551
G01 X26.6406 Y8.5537
G01 X26.6127 Y8.5496
G01 X26.5805 Y8.5414
G01 X26.5551 Y8.5323
G01 X26.5285 Y8.5197
G01 X26.5013 Y8.5031
G01 X26.4796 Y8.4870
G01 X26.4578 Y8.4672
G01 X26.4365 Y8.4435
G01 X26.4205 Y8.4217
G01 X26.4053 Y8.3965
G01 X26.3927 Y8.3699
G01 X26.3836 Y8.3445
G01 X26.3762 Y8.3159
G01 X26.3751 Y8.3100
G01 X25.8250 Y8.3100
G01 X25.7564 Y8.3066
G01 X25.6884 Y8.2965
G01 X25.6218 Y8.2799
G01 X25.5571 Y8.2567
G01 X25.4950 Y8.2273
G01 X25.4361 Y8.1920
G01 X25.3791 Y8.1495
G01 X25.3300 Y8.1050
G01 X25.2855 Y8.0559
G01 X25.2444 Y8.0009
G01 X25.2077 Y7.9400
G01 X25.1783 Y7.8779
G01 X25.1551 Y7.8132
G01 X25.1380 Y7.7441
G01 X25.1284 Y7.6786
G01 X25.1250 Y7.6100
G01 X25.1284 Y7.5414
G01 X25.1380 Y7.4759
G01 X25.1559 Y7.4045
G01 X25.1783 Y7.3421
G01 X25.2077 Y7.2800
G01 X25.2430 Y7.2211
G01 X25.2839 Y7.1659
G01 X25.3300 Y7.1150
G01 X25.3791 Y7.0705
G01 X25.4382 Y7.0267
G01 X25.4950 Y6.9927
G01 X25.5583 Y6.9628
G01 X25.6218 Y6.9401
G01 X25.6884 Y6.9235
G01 X25.7564 Y6.9134
G01 X25.8238 Y6.9100
G01 X27.0262 Y6.9100
G01 X27.0936 Y6.9134
G01 X27.1591 Y6.9230
G01 X27.2294 Y6.9405
G01 X27.2929 Y6.9633
G01 X27.3571 Y6.9939
G01 X27.4159 Y7.0294
G01 X27.4691 Y7.0689
G01 X27.5182 Y7.1133
G01 X27.5661 Y7.1659
G01 X27.6070 Y7.2211
G01 X27.6423 Y7.2800
G01 X27.6722 Y7.3433
G01 X27.6949 Y7.4068
G01 X27.7120 Y7.4759
G01 X27.7216 Y7.5414
G01 X27.7249 Y7.6075
G01 X27.7217 Y7.6774
G01 X27.7115 Y7.7466
G01 X27.6945 Y7.8144
G01 X27.6712 Y7.8790
G01 X27.6429 Y7.9389
G01 X27.6335 Y7.9549
G01 X29.8462 Y7.9549
G01 X29.8744 Y7.9563
G01 X29.9011 Y7.9602
G01 X29.9345 Y7.9686
G01 X29.9599 Y7.9777
G01 X29.9865 Y7.9903
G01 X30.0117 Y8.0055
G01 X30.0344 Y8.0222
G01 X30.0572 Y8.0428
G01 X30.6922 Y8.6778
G01 X30.7112 Y8.6987
G01 X32.7295 Y11.2215
G01 X33.3215 Y11.2215
G01 X33.4030 Y11.2255
G01 X33.4885 Y11.2382
G01 X33.5664 Y11.2578
G01 X33.6432 Y11.2853
G01 X33.7191 Y11.3211
G01 X33.7901 Y11.3637
G01 X33.8566 Y11.4130
G01 X33.9188 Y11.4694
G01 X33.9735 Y11.5299
G01 X34.0235 Y11.5974
G01 X34.0660 Y11.6685
G01 X34.1003 Y11.7411
G01 X34.1090 Y11.7649
G01 X37.7999 Y11.7649
G01 X37.7999 Y3.4751
G01 X31.1150 Y3.4751
G01 X31.0856 Y3.4737
G01 X31.0589 Y3.4698
G01 X31.0255 Y3.4614
G01 X31.0001 Y3.4523
G01 X30.9735 Y3.4397
G01 X30.9483 Y3.4245
G01 X30.9256 Y3.4078
G01 X30.9028 Y3.3872
G01 X30.8830 Y3.3654
G01 X30.8655 Y3.3417
G01 X30.8492 Y3.3143
G01 X30.8377 Y3.2899
G01 X30.8286 Y3.2645
G01 X30.8212 Y3.2359
G01 X30.8163 Y3.2044
G01 X30.8149 Y3.1750
G01 X30.8149 Y-6.0499
G01 X27.6518 Y-6.0499
G01 X27.6418 Y-6.0289
G01 X27.6077 Y-5.9721
G01 X27.5669 Y-5.9169
G01 X27.5200 Y-5.8650
G01 X27.4681 Y-5.8181
G01 X27.4139 Y-5.7780
G01 X27.3528 Y-5.7416
G01 X27.2929 Y-5.7133
G01 X27.2305 Y-5.6909
G01 X27.1628 Y-5.6737
G01 X27.0936 Y-5.6634
G01 X27.0250 Y-5.6600
G01 X25.8238 Y-5.6600
G01 X25.7564 Y-5.6634
G01 X25.6884 Y-5.6735
G01 X25.6218 Y-5.6901
G01 X25.5594 Y-5.7124
G01 X25.4929 Y-5.7439
G01 X25.4361 Y-5.7780
G01 X25.3809 Y-5.8189
G01 X25.3300 Y-5.8650
G01 X25.2855 Y-5.9141
G01 X25.2417 Y-5.9732
G01 X25.2077 Y-6.0300
G01 X25.1783 Y-6.0921
G01 X25.1551 Y-6.1568
G01 X25.1385 Y-6.2234
G01 X25.1284 Y-6.2914
G01 X25.1250 Y-6.3600
G01 X25.1284 Y-6.4286
G01 X25.1390 Y-6.4990
G01 X25.1551 Y-6.5632
G01 X25.1793 Y-6.6301
G01 X25.2089 Y-6.6921
G01 X25.2430 Y-6.7489
G01 X25.2824 Y-6.8021
G01 X25.3300 Y-6.8550
G01 X25.3809 Y-6.9011
G01 X25.4361 Y-6.9420
G01 X25.4950 Y-6.9773
G01 X25.5571 Y-7.0067
G01 X25.6218 Y-7.0299
G01 X25.6884 Y-7.0465
G01 X25.7588 Y-7.0568
G01 X25.8250 Y-7.0600
G01 X27.0250 Y-7.0600
G01 X27.0936 Y-7.0566
G01 X27.1628 Y-7.0463
G01 X27.2305 Y-7.0291
G01 X27.2929 Y-7.0067
G01 X27.3528 Y-6.9784
G01 X27.4139 Y-6.9420
G01 X27.4681 Y-6.9019
G01 X27.5200 Y-6.8550
G01 X27.5669 Y-6.8031
G01 X27.6077 Y-6.7479
G01 X27.6423 Y-6.6900
G01 X27.6613 Y-6.6501
G01 X31.1162 Y-6.6501
G01 X31.1444 Y-6.6487
G01 X31.1711 Y-6.6448
G01 X31.2021 Y-6.6372
G01 X31.2299 Y-6.6273
G01 X31.2543 Y-6.6158
G01 X31.2828 Y-6.5989
G01 X31.3073 Y-6.5804
G01 X31.3272 Y-6.5622
G01 X31.3454 Y-6.5423
G01 X31.3645 Y-6.5167
G01 X31.3797 Y-6.4915
G01 X31.3923 Y-6.4649
G01 X31.4029 Y-6.4348
G01 X31.4094 Y-6.4086
G01 X31.4134 Y-6.3819
G01 X31.4151 Y-6.3512
G01 X31.4151 Y2.8749
G01 X37.7999 Y2.8749
G01 X37.7999 Y-15.1417
G01 X30.9629 Y-24.4649
G01 X26.7251 Y-24.4649
G01 X26.7251 Y-21.0300
G01 X27.0262 Y-21.0300
G01 X27.0936 Y-21.0266
G01 X27.1604 Y-21.0168
G01 X27.2282 Y-20.9999
G01 X27.2929 Y-20.9767
G01 X27.3550 Y-20.9473
G01 X27.4129 Y-20.9127
G01 X27.4691 Y-20.8711
G01 X27.5200 Y-20.8250
G01 X27.5661 Y-20.7741
G01 X27.6083 Y-20.7168
G01 X27.6423 Y-20.6600
G01 X27.6707 Y-20.6001
G01 X27.6941 Y-20.5355
G01 X27.7115 Y-20.4666
G01 X27.7217 Y-20.3974
G01 X27.7250 Y-20.3300
G01 X27.7216 Y-20.2614
G01 X27.7115 Y-20.1934
G01 X27.6949 Y-20.1268
G01 X27.6717 Y-20.0621
G01 X27.6423 Y-20.0000
G01 X27.6070 Y-19.9411
G01 X27.5645 Y-19.8841
G01 X27.5200 Y-19.8350
G01 X27.4671 Y-19.7874
G01 X27.4139 Y-19.7480
G01 X27.3571 Y-19.7139
G01 X27.2951 Y-19.6843
G01 X27.2282 Y-19.6601
G01 X27.1616 Y-19.6435
G01 X27.0936 Y-19.6334
G01 X27.0275 Y-19.6301
G01 X25.8238 Y-19.6300
G01 X25.7564 Y-19.6334
G01 X25.6909 Y-19.6430
G01 X25.6218 Y-19.6601
G01 X25.5549 Y-19.6843
G01 X25.4950 Y-19.7127
G01 X25.4382 Y-19.7467
G01 X25.3809 Y-19.7889
G01 X25.3283 Y-19.8368
G01 X25.2839 Y-19.8859
G01 X25.2444 Y-19.9391
G01 X25.2077 Y-20.0000
G01 X25.1774 Y-20.0644
G01 X25.1551 Y-20.1268
G01 X25.1385 Y-20.1934
G01 X25.1282 Y-20.2638
G01 X25.1250 Y-20.3300
G01 X25.1282 Y-20.3962
G01 X25.1385 Y-20.4666
G01 X25.1559 Y-20.5355
G01 X25.1783 Y-20.5979
G01 X25.2066 Y-20.6578
G01 X25.2430 Y-20.7189
G01 X25.2855 Y-20.7759
G01 X25.3300 Y-20.8250
G01 X25.3800 Y-20.8703
G01 X25.4361 Y-20.9120
G01 X25.4972 Y-20.9484
G01 X25.5571 Y-20.9767
G01 X25.6195 Y-20.9991
G01 X25.6872 Y-21.0163
G01 X25.7564 Y-21.0266
G01 X25.8238 Y-21.0300
G01 X26.1249 Y-21.0300
G01 X26.1249 Y-24.4649
G01 X-20.6549 Y-24.4649
G01 X-20.6549 Y-22.3200
G01 X-19.3438 Y-22.3200
G01 X-19.3352 Y-22.3190
G01 X-19.3282 Y-22.3171
G01 X-19.3204 Y-22.3135
G01 X-19.3142 Y-22.3094
G01 X-19.3080 Y-22.3036
G01 X-19.3028 Y-22.2967
G01 X-19.2993 Y-22.2903
G01 X-19.2965 Y-22.2821
G01 X-19.2954 Y-22.2761
G01 X-19.2950 Y-22.2700
G01 X-19.2950 Y-19.2688
G01 X-19.2962 Y-19.2590
G01 X-19.2993 Y-19.2497
G01 X-19.3041 Y-19.2412
G01 X-19.3096 Y-19.2346
G01 X-19.3162 Y-19.2291
G01 X-19.3247 Y-19.2243
G01 X-19.3340 Y-19.2212
G01 X-19.3425 Y-19.2201
G01 X-22.3450 Y-19.2200
G01 X-22.3548 Y-19.2210
G01 X-22.3607 Y-19.2225
G01 X-22.3653 Y-19.2243
G01 X-22.3738 Y-19.2291
G01 X-22.3812 Y-19.2355
G01 X-22.3872 Y-19.2433
G01 X-22.3916 Y-19.2520
G01 X-22.3940 Y-19.2602
G01 X-22.3950 Y-19.2700
G01 X-22.3950 Y-22.2700
G01 X-22.3940 Y-22.2798
G01 X-22.3912 Y-22.2891
G01 X-22.3866 Y-22.2978
G01 X-22.3804 Y-22.3054
G01 X-22.3728 Y-22.3116
G01 X-22.3641 Y-22.3162
G01 X-22.3548 Y-22.3190
G01 X-22.3450 Y-22.3200
G00 Z2.0000
G00 X-40.3450 Y16.6800
G01 F60.00
G01 Z-0.0000
G01 F120.00
G01 X-37.3450 Y16.6800
G01 X-37.3352 Y16.6810
G01 X-37.3259 Y16.6838
G01 X-37.3193 Y16.6871
G01 X-37.3133 Y16.6913
G01 X-37.3080 Y16.6964
G01 X-37.3034 Y16.7022
G01 X-37.2998 Y16.7086
G01 X-37.2972 Y16.7155
G01 X-37.2955 Y16.7227
G01 X-37.2950 Y16.7288
G01 X-37.2950 Y17.9299
G01 X-28.8751 Y17.9299
G01 X-28.8751 Y-15.8750
G01 X-28.8734 Y-15.9069
G01 X-28.8694 Y-15.9336
G01 X-28.8625 Y-15.9609
G01 X-28.8513 Y-15.9921
G01 X-28.8397 Y-16.0165
G01 X-28.8245 Y-16.0417
G01 X-28.8070 Y-16.0654
G01 X-28.7889 Y-16.0854
G01 X-28.7635 Y-16.1085
G01 X-28.7417 Y-16.1245
G01 X-28.7165 Y-16.1397
G01 X-28.6899 Y-16.1523
G01 X-28.6645 Y-16.1614
G01 X-28.6311 Y-16.1698
G01 X-28.6044 Y-16.1737
G01 X-28.5762 Y-16.1751
G01 X-18.0801 Y-16.1751
G01 X-18.0801 Y-22.8612
G01 X-18.0787 Y-22.8894
G01 X-18.0748 Y-22.9161
G01 X-18.0672 Y-22.9471
G01 X-18.0563 Y-22.9771
G01 X-18.0447 Y-23.0015
G01 X-18.0295 Y-23.0267
G01 X-18.0104 Y-23.0523
G01 X-17.9922 Y-23.0722
G01 X-17.9704 Y-23.0920
G01 X-17.9447 Y-23.1109
G01 X-17.9215 Y-23.1247
G01 X-17.8960 Y-23.1368
G01 X-17.8671 Y-23.1472
G01 X-17.8386 Y-23.1544
G01 X-17.8094 Y-23.1587
G01 X-17.7800 Y-23.1601
G01 X21.5900 Y-23.1601
G01 X21.6194 Y-23.1587
G01 X21.6498 Y-23.1541
G01 X21.6771 Y-23.1472
G01 X21.7049 Y-23.1373
G01 X21.7315 Y-23.1247
G01 X21.7547 Y-23.1109
G01 X21.7823 Y-23.0904
G01 X21.8022 Y-23.0722
G01 X21.8220 Y-23.0504
G01 X21.8395 Y-23.0267
G01 X21.8535 Y-23.0036
G01 X21.8682 Y-22.9726
G01 X21.8772 Y-22.9471
G01 X21.8844 Y-22.9186
G01 X21.8887 Y-22.8894
G01 X21.8901 Y-22.8612
G01 X21.8901 Y-13.0001
G01 X22.2262 Y-13.0001
G01 X22.2556 Y-12.9985
G01 X22.2836 Y-12.9944
G01 X22.3007 Y-12.9901
G01 X25.1935 Y-12.9901
G01 X25.2082 Y-13.0211
G01 X25.2423 Y-13.0779
G01 X25.2831 Y-13.1331
G01 X25.3300 Y-13.1850
G01 X25.3819 Y-13.2319
G01 X25.4361 Y-13.2720
G01 X25.4972 Y-13.3084
G01 X25.5571 Y-13.3367
G01 X25.6195 Y-13.3591
G01 X25.6872 Y-13.3763
G01 X25.7564 Y-13.3866
G01 X25.8250 Y-13.3900
G01 X27.0250 Y-13.3900
G01 X27.0960 Y-13.3863
G01 X27.1616 Y-13.3765
G01 X27.2282 Y-13.3599
G01 X27.2929 Y-13.3367
G01 X27.3528 Y-13.3084
G01 X27.4139 Y-13.2720
G01 X27.4691 Y-13.2311
G01 X27.5182 Y-13.1867
G01 X27.5661 Y-13.1341
G01 X27.6083 Y-13.0768
G01 X27.6423 Y-13.0200
G01 X27.6712 Y-12.9590
G01 X27.6949 Y-12.8932
G01 X27.7120 Y-12.8241
G01 X27.7216 Y-12.7586
G01 X27.7249 Y-12.6925
G01 X27.7218 Y-12.6238
G01 X27.7115 Y-12.5534
G01 X27.6949 Y-12.4868
G01 X27.6717 Y-12.4221
G01 X27.6411 Y-12.3579
G01 X27.6070 Y-12.3011
G01 X27.5676 Y-12.2479
G01 X27.5217 Y-12.1968
G01 X27.4691 Y-12.1489
G01 X27.4139 Y-12.1080
G01 X27.3550 Y-12.0727
G01 X27.2906 Y-12.0424
G01 X27.2282 Y-12.0201
G01 X27.1640 Y-12.0040
G01 X27.0936 Y-11.9934
G01 X27.0250 Y-11.9900
G01 X25.8250 Y-11.9900
G01 X25.7564 Y-11.9934
G01 X25.6884 Y-12.0035
G01 X25.6218 Y-12.0201
G01 X25.5549 Y-12.0443
G01 X25.4950 Y-12.0727
G01 X25.4382 Y-12.1067
G01 X25.3819 Y-12.1481
G01 X25.3300 Y-12.1950
G01 X25.2831 Y-12.2469
G01 X25.2423 Y-12.3021
G01 X25.2082 Y-12.3589
G01 X25.1935 Y-12.3899
G01 X22.2250 Y-12.3899
G01 X22.1944 Y-12.3915
G01 X22.1664 Y-12.3956
G01 X22.1493 Y-12.3999
G01 X21.8901 Y-12.3999
G01 X21.8901 Y0.9799
G01 X25.1935 Y0.9799
G01 X25.2082 Y0.9489
G01 X25.2423 Y0.8921
G01 X25.2831 Y0.8369
G01 X25.3300 Y0.7850
G01 X25.3819 Y0.7381
G01 X25.4382 Y0.6967
G01 X25.4950 Y0.6627
G01 X25.5549 Y0.6343
G01 X25.6218 Y0.6101
G01 X25.6884 Y0.5935
G01 X25.7564 Y0.5834
G01 X25.8250 Y0.5800
G01 X27.0250 Y0.5800
G01 X27.0912 Y0.5832
G01 X27.1616 Y0.5935
G01 X27.2282 Y0.6101
G01 X27.2929 Y0.6333
G01 X27.3528 Y0.6616
G01 X27.4159 Y0.6994
G01 X27.4691 Y0.7389
G01 X27.5217 Y0.7868
G01 X27.5661 Y0.8359
G01 X27.6070 Y0.8911
G01 X27.6423 Y0.9500
G01 X27.6717 Y1.0121
G01 X27.6949 Y1.0768
G01 X27.7115 Y1.1434
G01 X27.7216 Y1.2114
G01 X27.7250 Y1.2800
G01 X27.7216 Y1.3486
G01 X27.7115 Y1.4166
G01 X27.6949 Y1.4832
G01 X27.6717 Y1.5479
G01 X27.6423 Y1.6100
G01 X27.6070 Y1.6689
G01 X27.5661 Y1.7241
G01 X27.5217 Y1.7732
G01 X27.4691 Y1.8211
G01 X27.4159 Y1.8606
G01 X27.3528 Y1.8984
G01 X27.2929 Y1.9267
G01 X27.2282 Y1.9499
G01 X27.1616 Y1.9665
G01 X27.0912 Y1.9768
G01 X27.0250 Y1.9800
G01 X25.8250 Y1.9800
G01 X25.7564 Y1.9766
G01 X25.6884 Y1.9665
G01 X25.6218 Y1.9499
G01 X25.5549 Y1.9257
G01 X25.4950 Y1.8973
G01 X25.4382 Y1.8633
G01 X25.3819 Y1.8219
G01 X25.3300 Y1.7750
G01 X25.2831 Y1.7231
G01 X25.2423 Y1.6679
G01 X25.2082 Y1.6111
G01 X25.1935 Y1.5801
G01 X21.8901 Y1.5801
G01 X21.8901 Y14.9499
G01 X25.1935 Y14.9499
G01 X25.2082 Y14.9189
G01 X25.2423 Y14.8621
G01 X25.2831 Y14.8069
G01 X25.3300 Y14.7550
G01 X25.3819 Y14.7081
G01 X25.4382 Y14.6667
G01 X25.4950 Y14.6327
G01 X25.5549 Y14.6043
G01 X25.6218 Y14.5801
G01 X25.6884 Y14.5635
G01 X25.7564 Y14.5534
G01 X25.8250 Y14.5500
G01 X27.0250 Y14.5500
G01 X27.0912 Y14.5532
G01 X27.1640 Y14.5640
G01 X27.2282 Y14.5801
G01 X27.2951 Y14.6043
G01 X27.3550 Y14.6327
G01 X27.4139 Y14.6680
G01 X27.4691 Y14.7089
G01 X27.5217 Y14.7568
G01 X27.5661 Y14.8059
G01 X27.6070 Y14.8611
G01 X27.6423 Y14.9200
G01 X27.6717 Y14.9821
G01 X27.6949 Y15.0468
G01 X27.7115 Y15.1134
G01 X27.7216 Y15.1814
G01 X27.7250 Y15.2500
G01 X27.7216 Y15.3186
G01 X27.7115 Y15.3866
G01 X27.6949 Y15.4532
G01 X27.6717 Y15.5179
G01 X27.6423 Y15.5800
G01 X27.6070 Y15.6389
G01 X27.5661 Y15.6941
G01 X27.5217 Y15.7432
G01 X27.4691 Y15.7911
G01 X27.4159 Y15.8306
G01 X27.3528 Y15.8684
G01 X27.2929 Y15.8967
G01 X27.2282 Y15.9199
G01 X27.1616 Y15.9365
G01 X27.0912 Y15.9468
G01 X27.0250 Y15.9500
G01 X25.8250 Y15.9500
G01 X25.7564 Y15.9466
G01 X25.6884 Y15.9365
G01 X25.6218 Y15.9199
G01 X25.5549 Y15.8957
G01 X25.4950 Y15.8673
G01 X25.4382 Y15.8333
G01 X25.3819 Y15.7919
G01 X25.3300 Y15.7450
G01 X25.2831 Y15.6931
G01 X25.2423 Y15.6379
G01 X25.2082 Y15.5811
G01 X25.1935 Y15.5501
G01 X21.8901 Y15.5501
G01 X21.8901 Y26.6712
G01 X21.8887 Y26.6994
G01 X21.8848 Y26.7261
G01 X21.8772 Y26.7571
G01 X21.8663 Y26.7871
G01 X21.8547 Y26.8115
G01 X21.8395 Y26.8367
G01 X21.8204 Y26.8623
G01 X21.8022 Y26.8822
G01 X21.7804 Y26.9020
G01 X21.7547 Y26.9209
G01 X21.7315 Y26.9347
G01 X21.7060 Y26.9468
G01 X21.6771 Y26.9572
G01 X21.6486 Y26.9644
G01 X21.6194 Y26.9687
G01 X21.5900 Y26.9701
G01 X13.5435 Y26.9701
G01 X13.5394 Y27.0542
G01 X13.5273 Y27.1361
G01 X13.5072 Y27.2164
G01 X13.4793 Y27.2943
G01 X13.4439 Y27.3691
G01 X13.4013 Y27.4401
G01 X13.3520 Y27.5066
G01 X13.2964 Y27.5679
G01 X13.2351 Y27.6235
G01 X13.1686 Y27.6728
G01 X13.0976 Y27.7154
G01 X13.0228 Y27.7508
G01 X12.9449 Y27.7787
G01 X12.8646 Y27.7988
G01 X12.7827 Y27.8109
G01 X12.7000 Y27.8150
G01 X12.6173 Y27.8109
G01 X12.5354 Y27.7988
G01 X12.4551 Y27.7787
G01 X12.3772 Y27.7508
G01 X12.3024 Y27.7154
G01 X12.2314 Y27.6728
G01 X12.1649 Y27.6235
G01 X12.1036 Y27.5679
G01 X12.0480 Y27.5066
G01 X11.9987 Y27.4401
G01 X11.9561 Y27.3691
G01 X11.9207 Y27.2943
G01 X11.8928 Y27.2164
G01 X11.8727 Y27.1361
G01 X11.8606 Y27.0542
G01 X11.8565 Y26.9715
G01 X11.8565 Y26.3685
G01 X11.8606 Y26.2858
G01 X11.8727 Y26.2039
G01 X11.8928 Y26.1236
G01 X11.9207 Y26.0457
G01 X11.9561 Y25.9709
G01 X12.0001 Y25.8979
G01 X12.0480 Y25.8334
G01 X12.1019 Y25.7738
G01 X12.1649 Y25.7165
G01 X12.2314 Y25.6672
G01 X12.3046 Y25.6235
G01 X12.3772 Y25.5892
G01 X12.4528 Y25.5621
G01 X12.5354 Y25.5412
G01 X12.6185 Y25.5290
G01 X12.7000 Y25.5250
G01 X12.7827 Y25.5291
G01 X12.8646 Y25.5412
G01 X12.9472 Y25.5621
G01 X13.0228 Y25.5892
G01 X13.0998 Y25.6258
G01 X13.1686 Y25.6672
G01 X13.2332 Y25.7150
G01 X13.2947 Y25.7704
G01 X13.3520 Y25.8334
G01 X13.4013 Y25.8999
G01 X13.4439 Y25.9709
G01 X13.4793 Y26.0457
G01 X13.5072 Y26.1236
G01 X13.5273 Y26.2039
G01 X13.5394 Y26.2858
G01 X13.5435 Y26.3699
G01 X21.2899 Y26.3699
G01 X21.2899 Y-22.5599
G01 X-17.4799 Y-22.5599
G01 X-17.4799 Y-16.1751
G01 X-15.2951 Y-16.1751
G01 X-15.2951 Y-17.0700
G01 X-15.5950 Y-17.0700
G01 X-15.6612 Y-17.0732
G01 X-15.7316 Y-17.0835
G01 X-15.7982 Y-17.1001
G01 X-15.8651 Y-17.1243
G01 X-15.9250 Y-17.1527
G01 X-15.9839 Y-17.1880
G01 X-16.0409 Y-17.2305
G01 X-16.0900 Y-17.2750
G01 X-16.1345 Y-17.3241
G01 X-16.1783 Y-17.3832
G01 X-16.2123 Y-17.4400
G01 X-16.2417 Y-17.5021
G01 X-16.2649 Y-17.5668
G01 X-16.2810 Y-17.6310
G01 X-16.2916 Y-17.7014
G01 X-16.2950 Y-17.7700
G01 X-16.2918 Y-17.8362
G01 X-16.2815 Y-17.9066
G01 X-16.2641 Y-17.9755
G01 X-16.2417 Y-18.0379
G01 X-16.2134 Y-18.0978
G01 X-16.1770 Y-18.1589
G01 X-16.1361 Y-18.2141
G01 X-16.0900 Y-18.2650
G01 X-16.0371 Y-18.3126
G01 X-15.9839 Y-18.3520
G01 X-15.9271 Y-18.3861
G01 X-15.8651 Y-18.4157
G01 X-15.7982 Y-18.4399
G01 X-15.7304 Y-18.4568
G01 X-15.6636 Y-18.4666
G01 X-15.5950 Y-18.4700
G01 X-14.3950 Y-18.4700
G01 X-14.3264 Y-18.4666
G01 X-14.2609 Y-18.4570
G01 X-14.1906 Y-18.4395
G01 X-14.1271 Y-18.4167
G01 X-14.0650 Y-18.3873
G01 X-14.0061 Y-18.3520
G01 X-13.9509 Y-18.3111
G01 X-13.9000 Y-18.2650
G01 X-13.8539 Y-18.2141
G01 X-13.8130 Y-18.1589
G01 X-13.7789 Y-18.1021
G01 X-13.7483 Y-18.0379
G01 X-13.7259 Y-17.9755
G01 X-13.7080 Y-17.9041
G01 X-13.6984 Y-17.8386
G01 X-13.6950 Y-17.7700
G01 X-13.6984 Y-17.7014
G01 X-13.7085 Y-17.6334
G01 X-13.7251 Y-17.5668
G01 X-13.7483 Y-17.5021
G01 X-13.7777 Y-17.4400
G01 X-13.8144 Y-17.3791
G01 X-13.8555 Y-17.3241
G01 X-13.9000 Y-17.2750
G01 X-13.9491 Y-17.2305
G01 X-14.0061 Y-17.1880
G01 X-14.0639 Y-17.1532
G01 X-14.1271 Y-17.1233
G01 X-14.1918 Y-17.1001
G01 X-14.2584 Y-17.0835
G01 X-14.3252 Y-17.0735
G01 X-14.3950 Y-17.0700
G01 X-14.6949 Y-17.0700
G01 X-14.6949 Y-15.9500
G01 X-14.3950 Y-15.9500
G01 X-14.3288 Y-15.9468
G01 X-14.2584 Y-15.9365
G01 X-14.1918 Y-15.9199
G01 X-14.1249 Y-15.8957
G01 X-14.0650 Y-15.8673
G01 X-14.0061 Y-15.8320
G01 X-13.9491 Y-15.7895
G01 X-13.9000 Y-15.7450
G01 X-13.8555 Y-15.6959
G01 X-13.8117 Y-15.6368
G01 X-13.7777 Y-15.5800
G01 X-13.7483 Y-15.5179
G01 X-13.7245 Y-15.4508
G01 X-13.7085 Y-15.3866
G01 X-13.6984 Y-15.3186
G01 X-13.6951 Y-15.2475
G01 X-13.6984 Y-15.1814
G01 X-13.7085 Y-15.1134
G01 X-13.7251 Y-15.0468
G01 X-13.7474 Y-14.9844
G01 X-13.7782 Y-14.9189
G01 X-13.8130 Y-14.8611
G01 X-13.8555 Y-14.8041
G01 X-13.9018 Y-14.7533
G01 X-13.9509 Y-14.7089
G01 X-14.0041 Y-14.6694
G01 X-14.0650 Y-14.6327
G01 X-14.1271 Y-14.6033
G01 X-14.1918 Y-14.5801
G01 X-14.2596 Y-14.5632
G01 X-14.3264 Y-14.5534
G01 X-14.3950 Y-14.5500
G01 X-15.5950 Y-14.5500
G01 X-15.6660 Y-14.5537
G01 X-15.7316 Y-14.5635
G01 X-15.7970 Y-14.5798
G01 X-15.8629 Y-14.6033
G01 X-15.9250 Y-14.6327
G01 X-15.9839 Y-14.6680
G01 X-16.0409 Y-14.7105
G01 X-16.0900 Y-14.7550
G01 X-16.1345 Y-14.8041
G01 X-16.1756 Y-14.8591
G01 X-16.2123 Y-14.9200
G01 X-16.2417 Y-14.9821
G01 X-16.2649 Y-15.0468
G01 X-16.2815 Y-15.1134
G01 X-16.2916 Y-15.1814
G01 X-16.2949 Y-15.2525
G01 X-16.2916 Y-15.3186
G01 X-16.2810 Y-15.3890
G01 X-16.2641 Y-15.4555
G01 X-16.2417 Y-15.5179
G01 X-16.2148 Y-15.5749
G01 X-28.2749 Y-15.5749
G01 X-28.2749 Y-3.4751
G01 X-16.2148 Y-3.4751
G01 X-16.2417 Y-3.5321
G01 X-16.2649 Y-3.5968
G01 X-16.2815 Y-3.6634
G01 X-16.2916 Y-3.7314
G01 X-16.2950 Y-3.8000
G01 X-16.2916 Y-3.8686
G01 X-16.2815 Y-3.9366
G01 X-16.2649 Y-4.0032
G01 X-16.2417 Y-4.0679
G01 X-16.2123 Y-4.1300
G01 X-16.1770 Y-4.1889
G01 X-16.1361 Y-4.2441
G01 X-16.0900 Y-4.2950
G01 X-16.0391 Y-4.3411
G01 X-15.9839 Y-4.3820
G01 X-15.9239 Y-4.4179
G01 X-15.8629 Y-4.4467
G01 X-15.7958 Y-4.4705
G01 X-15.7316 Y-4.4865
G01 X-15.6660 Y-4.4963
G01 X-15.5975 Y-4.4999
G01 X-14.3950 Y-4.5000
G01 X-14.3264 Y-4.4966
G01 X-14.2596 Y-4.4868
G01 X-14.1918 Y-4.4699
G01 X-14.1271 Y-4.4467
G01 X-14.0650 Y-4.4173
G01 X-14.0061 Y-4.3820
G01 X-13.9509 Y-4.3411
G01 X-13.9000 Y-4.2950
G01 X-13.8539 Y-4.2441
G01 X-13.8130 Y-4.1889
G01 X-13.7777 Y-4.1300
G01 X-13.7483 Y-4.0679
G01 X-13.7251 Y-4.0032
G01 X-13.7085 Y-3.9366
G01 X-13.6984 Y-3.8686
G01 X-13.6950 Y-3.8000
G01 X-13.6984 Y-3.7314
G01 X-13.7082 Y-3.6646
G01 X-13.7251 Y-3.5968
G01 X-13.7483 Y-3.5321
G01 X-13.7777 Y-3.4700
G01 X-13.8144 Y-3.4091
G01 X-13.8539 Y-3.3559
G01 X-13.8983 Y-3.3068
G01 X-13.9491 Y-3.2605
G01 X-14.0061 Y-3.2180
G01 X-14.0639 Y-3.1832
G01 X-14.1271 Y-3.1533
G01 X-14.1918 Y-3.1301
G01 X-14.2584 Y-3.1135
G01 X-14.3252 Y-3.1035
G01 X-14.3950 Y-3.1000
G01 X-14.6949 Y-3.1000
G01 X-14.6949 Y-1.9800
G01 X-14.3950 Y-1.9800
G01 X-14.3288 Y-1.9768
G01 X-14.2584 Y-1.9665
G01 X-14.1942 Y-1.9505
G01 X-14.1271 Y-1.9267
G01 X-14.0629 Y-1.8961
G01 X-14.0061 Y-1.8620
G01 X-13.9529 Y-1.8226
G01 X-13.9009 Y-1.7758
G01 X-13.8524 Y-1.7221
G01 X-13.8130 Y-1.6689
G01 X-13.7777 Y-1.6100
G01 X-13.7474 Y-1.5456
G01 X-13.7251 Y-1.4832
G01 X-13.7090 Y-1.4190
G01 X-13.6984 Y-1.3486
G01 X-13.6951 Y-1.2775
G01 X-13.6984 Y-1.2114
G01 X-13.7080 Y-1.1459
G01 X-13.7255 Y-1.0756
G01 X-13.7483 Y-1.0121
G01 X-13.7766 Y-0.9522
G01 X-13.8130 Y-0.8911
G01 X-13.8555 Y-0.8341
G01 X-13.9000 Y-0.7850
G01 X-13.9509 Y-0.7389
G01 X-14.0082 Y-0.6967
G01 X-14.0650 Y-0.6627
G01 X-14.1271 Y-0.6333
G01 X-14.1942 Y-0.6095
G01 X-14.2584 Y-0.5935
G01 X-14.3264 Y-0.5834
G01 X-14.3950 Y-0.5800
G01 X-15.5950 Y-0.5800
G01 X-15.6660 Y-0.5837
G01 X-15.7316 Y-0.5935
G01 X-15.7982 Y-0.6101
G01 X-15.8629 Y-0.6333
G01 X-15.9250 Y-0.6627
G01 X-15.9839 Y-0.6980
G01 X-16.0391 Y-0.7389
G01 X-16.0900 Y-0.7850
G01 X-16.1353 Y-0.8350
G01 X-16.1783 Y-0.8932
G01 X-16.2123 Y-0.9500
G01 X-16.2407 Y-1.0099
G01 X-16.2649 Y-1.0768
G01 X-16.2820 Y-1.1459
G01 X-16.2916 Y-1.2114
G01 X-16.2949 Y-1.2775
G01 X-16.2916 Y-1.3486
G01 X-16.2815 Y-1.4166
G01 X-16.2655 Y-1.4808
G01 X-16.2417 Y-1.5479
G01 X-16.2123 Y-1.6100
G01 X-16.1770 Y-1.6689
G01 X-16.1361 Y-1.7241
G01 X-16.0900 Y-1.7750
G01 X-16.0391 Y-1.8211
G01 X-15.9839 Y-1.8620
G01 X-15.9250 Y-1.8973
G01 X-15.8640 Y-1.9262
G01 X-15.7958 Y-1.9505
G01 X-15.7316 Y-1.9665
G01 X-15.6636 Y-1.9766
G01 X-15.5950 Y-1.9800
G01 X-15.2951 Y-1.9800
G01 X-15.2951 Y-2.8749
G01 X-28.2749 Y-2.8749
G01 X-28.2749 Y9.8599
G01 X-16.2218 Y9.8599
G01 X-16.2118 Y9.8389
G01 X-16.1777 Y9.7821
G01 X-16.1369 Y9.7269
G01 X-16.0900 Y9.6750
G01 X-16.0381 Y9.6281
G01 X-15.9818 Y9.5867
G01 X-15.9250 Y9.5527
G01 X-15.8651 Y9.5243
G01 X-15.7982 Y9.5001
G01 X-15.7316 Y9.4835
G01 X-15.6636 Y9.4734
G01 X-15.5950 Y9.4700
G01 X-14.3950 Y9.4700
G01 X-14.3264 Y9.4734
G01 X-14.2572 Y9.4837
G01 X-14.1918 Y9.5001
G01 X-14.1271 Y9.5233
G01 X-14.0650 Y9.5527
G01 X-14.0061 Y9.5880
G01 X-13.9509 Y9.6289
G01 X-13.9000 Y9.6750
G01 X-13.8539 Y9.7259
G01 X-13.8130 Y9.7811
G01 X-13.7777 Y9.8400
G01 X-13.7483 Y9.9021
G01 X-13.7251 Y9.9668
G01 X-13.7085 Y10.0334
G01 X-13.6984 Y10.1014
G01 X-13.6950 Y10.1700
G01 X-13.6984 Y10.2386
G01 X-13.7082 Y10.3054
G01 X-13.7251 Y10.3732
G01 X-13.7483 Y10.4379
G01 X-13.7777 Y10.5000
G01 X-13.8144 Y10.5609
G01 X-13.8539 Y10.6141
G01 X-13.8983 Y10.6632
G01 X-13.9491 Y10.7095
G01 X-14.0061 Y10.7520
G01 X-14.0639 Y10.7868
G01 X-14.1271 Y10.8167
G01 X-14.1918 Y10.8399
G01 X-14.2584 Y10.8565
G01 X-14.3252 Y10.8665
G01 X-14.3950 Y10.8700
G01 X-14.6949 Y10.8700
G01 X-14.6949 Y11.9900
G01 X-14.3950 Y11.9900
G01 X-14.3288 Y11.9932
G01 X-14.2584 Y12.0035
G01 X-14.1918 Y12.0201
G01 X-14.1249 Y12.0443
G01 X-14.0650 Y12.0727
G01 X-14.0061 Y12.1080
G01 X-13.9491 Y12.1505
G01 X-13.9000 Y12.1950
G01 X-13.8555 Y12.2441
G01 X-13.8117 Y12.3032
G01 X-13.7777 Y12.3600
G01 X-13.7483 Y12.4221
G01 X-13.7245 Y12.4892
G01 X-13.7085 Y12.5534
G01 X-13.6984 Y12.6214
G01 X-13.6951 Y12.6925
G01 X-13.6984 Y12.7586
G01 X-13.7085 Y12.8266
G01 X-13.7251 Y12.8932
G01 X-13.7474 Y12.9556
G01 X-13.7782 Y13.0211
G01 X-13.8144 Y13.0809
G01 X-13.8539 Y13.1341
G01 X-13.8983 Y13.1832
G01 X-13.9509 Y13.2311
G01 X-14.0061 Y13.2720
G01 X-14.0672 Y13.3084
G01 X-14.1271 Y13.3367
G01 X-14.1895 Y13.3591
G01 X-14.2584 Y13.3765
G01 X-14.3276 Y13.3867
G01 X-14.3950 Y13.3900
G01 X-15.5950 Y13.3900
G01 X-15.6648 Y13.3865
G01 X-15.7316 Y13.3765
G01 X-15.7982 Y13.3599
G01 X-15.8629 Y13.3367
G01 X-15.9228 Y13.3084
G01 X-15.9859 Y13.2706
G01 X-16.0391 Y13.2311
G01 X-16.0908 Y13.1841
G01 X-16.1361 Y13.1341
G01 X-16.1756 Y13.0809
G01 X-16.2123 Y13.0200
G01 X-16.2426 Y12.9556
G01 X-16.2649 Y12.8932
G01 X-16.2810 Y12.8290
G01 X-16.2916 Y12.7586
G01 X-16.2949 Y12.6875
G01 X-16.2916 Y12.6214
G01 X-16.2820 Y12.5559
G01 X-16.2645 Y12.4856
G01 X-16.2417 Y12.4221
G01 X-16.2123 Y12.3600
G01 X-16.1770 Y12.3011
G01 X-16.1361 Y12.2459
G01 X-16.0900 Y12.1950
G01 X-16.0391 Y12.1489
G01 X-15.9839 Y12.1080
G01 X-15.9239 Y12.0721
G01 X-15.8629 Y12.0433
G01 X-15.7982 Y12.0201
G01 X-15.7316 Y12.0035
G01 X-15.6648 Y11.9935
G01 X-15.5950 Y11.9900
G01 X-15.2951 Y11.9900
G01 X-15.2951 Y10.8700
G01 X-15.5950 Y10.8700
G01 X-15.6636 Y10.8666
G01 X-15.7316 Y10.8565
G01 X-15.7958 Y10.8405
G01 X-15.8640 Y10.8162
G01 X-15.9250 Y10.7873
G01 X-15.9839 Y10.7520
G01 X-16.0391 Y10.7111
G01 X-16.0891 Y10.6658
G01 X-16.1361 Y10.6141
G01 X-16.1763 Y10.5599
G01 X-16.2118 Y10.5011
G01 X-16.2313 Y10.4601
G01 X-28.2749 Y10.4601
G01 X-28.2749 Y18.2312
G01 X-28.2763 Y18.2594
G01 X-28.2802 Y18.2861
G01 X-28.2878 Y18.3171
G01 X-28.2987 Y18.3471
G01 X-28.3103 Y18.3715
G01 X-28.3241 Y18.3947
G01 X-28.3430 Y18.4204
G01 X-28.3646 Y18.4439
G01 X-28.3846 Y18.4620
G01 X-28.4063 Y18.4781
G01 X-28.4346 Y18.4953
G01 X-28.4624 Y18.5082
G01 X-28.4879 Y18.5172
G01 X-28.5141 Y18.5238
G01 X-28.5456 Y18.5287
G01 X-28.5750 Y18.5301
G01 X-37.2950 Y18.5301
G01 X-37.2950 Y19.7312
G01 X-37.2957 Y19.7385
G01 X-37.2975 Y19.7457
G01 X-37.3003 Y19.7525
G01 X-37.3034 Y19.7578
G01 X-37.3080 Y19.7636
G01 X-37.3133 Y19.7687
G01 X-37.3193 Y19.7729
G01 X-37.3259 Y19.7762
G01 X-37.3352 Y19.7790
G01 X-37.3450 Y19.7800
G01 X-40.3450 Y19.7800
G01 X-40.3523 Y19.7795
G01 X-40.3607 Y19.7775
G01 X-40.3686 Y19.7741
G01 X-40.3758 Y19.7694
G01 X-40.3820 Y19.7636
G01 X-40.3872 Y19.7567
G01 X-40.3912 Y19.7491
G01 X-40.3940 Y19.7398
G01 X-40.3950 Y19.7312
G01 X-40.3950 Y16.7300
G01 X-40.3940 Y16.7202
G01 X-40.3912 Y16.7109
G01 X-40.3866 Y16.7022
G01 X-40.3804 Y16.6946
G01 X-40.3728 Y16.6884
G01 X-40.3641 Y16.6838
G01 X-40.3548 Y16.6810
G01 X-40.3450 Y16.6800
G00 Z2.0000
G00 X-42.2101 Y20.9550
G01 F60.00
G01 Z-0.0000
G01 F120.00
G01 X-42.2101 Y-17.7825
G01 X-42.2087 Y-17.8094
G01 X-42.2044 Y-17.8386
G01 X-42.1972 Y-17.8671
G01 X-42.1887 Y-17.8912
G01 X-42.1863 Y-17.8971
G01 X-42.1735 Y-17.9236
G01 X-42.1595 Y-17.9467
G01 X-42.1444 Y-17.9673
G01 X-42.1404 Y-17.9723
G01 X-42.1232 Y-17.9912
G01 X-42.1034 Y-18.0095
G01 X-40.3950 Y-19.4253
G01 X-40.3950 Y-22.2700
G01 X-40.3945 Y-22.2773
G01 X-40.3932 Y-22.2833
G01 X-40.3907 Y-22.2903
G01 X-40.3872 Y-22.2967
G01 X-40.3829 Y-22.3027
G01 X-40.3777 Y-22.3079
G01 X-40.3717 Y-22.3122
G01 X-40.3664 Y-22.3152
G01 X-40.3618 Y-22.3171
G01 X-40.3560 Y-22.3188
G01 X-40.3511 Y-22.3196
G01 X-40.3450 Y-22.3200
G01 X-37.7493 Y-22.3200
G01 X-35.7722 Y-24.3422
G01 X-35.7530 Y-24.3598
G01 X-35.7306 Y-24.3769
G01 X-35.7066 Y-24.3918
G01 X-35.6993 Y-24.3958
G01 X-35.6749 Y-24.4073
G01 X-35.6471 Y-24.4172
G01 X-35.6219 Y-24.4237
G01 X-35.5940 Y-24.4282
G01 X-35.5870 Y-24.4289
G01 X-35.5600 Y-24.4301
G01 X-24.4301 Y-24.4301
G01 X-24.4301 Y-26.6700
G01 X-24.4287 Y-26.6994
G01 X-24.4244 Y-26.7286
G01 X-24.4172 Y-26.7571
G01 X-24.4073 Y-26.7849
G01 X-24.3958 Y-26.8093
G01 X-24.3781 Y-26.8387
G01 X-24.3620 Y-26.8604
G01 X-24.3422 Y-26.8822
G01 X-24.3204 Y-26.9020
G01 X-24.2967 Y-26.9195
G01 X-24.2715 Y-26.9347
G01 X-24.2471 Y-26.9463
G01 X-24.2148 Y-26.9579
G01 X-24.1886 Y-26.9644
G01 X-24.1582 Y-26.9688
G01 X-24.1300 Y-26.9701
G01 X34.2900 Y-26.9701
G01 X34.3089 Y-26.9695
G01 X34.3206 Y-26.9685
G01 X34.3393 Y-26.9660
G01 X34.3498 Y-26.9641
G01 X34.3693 Y-26.9594
G01 X34.3783 Y-26.9568
G01 X34.3950 Y-26.9511
G01 X34.4049 Y-26.9473
G01 X34.4220 Y-26.9395
G01 X34.4326 Y-26.9341
G01 X34.4478 Y-26.9253
G01 X34.4578 Y-26.9189
G01 X34.4740 Y-26.9071
G01 X34.4813 Y-26.9012
G01 X34.4946 Y-26.8896
G01 X34.5031 Y-26.8813
G01 X34.5159 Y-26.8675
G01 X34.5228 Y-26.8594
G01 X34.5342 Y-26.8444
G01 X40.4063 Y-18.6235
G01 X41.7362 Y-18.6235
G01 X41.7423 Y-18.6230
G01 X41.7495 Y-18.6213
G01 X41.7553 Y-18.6192
G01 X41.7617 Y-18.6157
G01 X41.7667 Y-18.6122
G01 X41.7720 Y-18.6071
G01 X41.7766 Y-18.6013
G01 X41.7802 Y-18.5949
G01 X41.7825 Y-18.5892
G01 X41.7838 Y-18.5845
G01 X41.7846 Y-18.5796
G01 X41.7850 Y-18.5735
G01 X41.7850 Y-16.9865
G01 X41.7846 Y-16.9804
G01 X41.7835 Y-16.9744
G01 X41.7821 Y-16.9697
G01 X41.7797 Y-16.9640
G01 X41.7766 Y-16.9587
G01 X41.7737 Y-16.9548
G01 X41.7695 Y-16.9503
G01 X41.7648 Y-16.9463
G01 X41.7575 Y-16.9418
G01 X41.7507 Y-16.9390
G01 X41.7423 Y-16.9370
G01 X41.7350 Y-16.9365
G01 X39.5450 Y-16.9365
G01 X39.5352 Y-16.9375
G01 X39.5259 Y-16.9403
G01 X39.5172 Y-16.9449
G01 X39.5096 Y-16.9511
G01 X39.5034 Y-16.9587
G01 X39.4988 Y-16.9674
G01 X39.4960 Y-16.9767
G01 X39.4950 Y-16.9865
G01 X39.4952 Y-18.5784
G01 X39.4965 Y-18.5856
G01 X39.4988 Y-18.5926
G01 X39.5028 Y-18.6002
G01 X39.5071 Y-18.6062
G01 X39.5123 Y-18.6114
G01 X39.5193 Y-18.6164
G01 X39.5259 Y-18.6197
G01 X39.5329 Y-18.6220
G01 X39.5389 Y-18.6231
G01 X39.5450 Y-18.6235
G01 X39.6687 Y-18.6235
G01 X34.1356 Y-26.3699
G01 X-23.8299 Y-26.3699
G01 X-23.8299 Y-24.1300
G01 X-23.8313 Y-24.1006
G01 X-23.8362 Y-24.0691
G01 X-23.8428 Y-24.0429
G01 X-23.8527 Y-24.0151
G01 X-23.8653 Y-23.9885
G01 X-23.8791 Y-23.9653
G01 X-23.8996 Y-23.9377
G01 X-23.9178 Y-23.9178
G01 X-23.9396 Y-23.8980
G01 X-23.9633 Y-23.8805
G01 X-23.9864 Y-23.8665
G01 X-24.0174 Y-23.8518
G01 X-24.0429 Y-23.8428
G01 X-24.0702 Y-23.8359
G01 X-24.1006 Y-23.8313
G01 X-24.1300 Y-23.8299
G01 X-35.4337 Y-23.8299
G01 X-37.2950 Y-21.9261
G01 X-37.2950 Y-19.2700
G01 X-37.2960 Y-19.2602
G01 X-37.2988 Y-19.2509
G01 X-37.3034 Y-19.2422
G01 X-37.3096 Y-19.2346
G01 X-37.3172 Y-19.2284
G01 X-37.3259 Y-19.2238
G01 X-37.3352 Y-19.2210
G01 X-37.3450 Y-19.2200
G01 X-39.7020 Y-19.2200
G01 X-41.6099 Y-17.6389
G01 X-41.6099 Y20.8307
G01 X-40.5157 Y21.9249
G01 X-20.3200 Y21.9249
G01 X-20.3012 Y21.9255
G01 X-20.2906 Y21.9263
G01 X-20.2731 Y21.9286
G01 X-20.2602 Y21.9309
G01 X-20.2443 Y21.9346
G01 X-20.2329 Y21.9378
G01 X-20.2150 Y21.9438
G01 X-20.2051 Y21.9477
G01 X-20.1891 Y21.9549
G01 X-20.1774 Y21.9609
G01 X-20.1632 Y21.9691
G01 X-20.1543 Y21.9748
G01 X-20.1389 Y21.9857
G01 X-20.1287 Y21.9938
G01 X-20.1163 Y22.0046
G01 X-20.1087 Y22.0119
G01 X-20.0957 Y22.0256
G01 X-15.0215 Y27.7340
G01 X-13.2107 Y29.5449
G01 X-1.5701 Y29.5449
G01 X-1.5701 Y27.8150
G01 X-2.0672 Y27.8149
G01 X-2.0756 Y27.8135
G01 X-2.0838 Y27.8107
G01 X-2.0913 Y27.8066
G01 X-2.0980 Y27.8012
G01 X-2.1037 Y27.7948
G01 X-2.1082 Y27.7875
G01 X-2.1113 Y27.7795
G01 X-2.1131 Y27.7711
G01 X-2.1135 Y27.7650
G01 X-2.1135 Y25.5738
G01 X-2.1125 Y25.5652
G01 X-2.1101 Y25.5570
G01 X-2.1064 Y25.5493
G01 X-2.1014 Y25.5423
G01 X-2.0943 Y25.5356
G01 X-2.0871 Y25.5309
G01 X-2.0792 Y25.5275
G01 X-2.0708 Y25.5255
G01 X-2.0635 Y25.5250
G01 X-0.4765 Y25.5250
G01 X-0.4704 Y25.5254
G01 X-0.4655 Y25.5262
G01 X-0.4597 Y25.5279
G01 X-0.4540 Y25.5303
G01 X-0.4487 Y25.5334
G01 X-0.4438 Y25.5371
G01 X-0.4403 Y25.5405
G01 X-0.4363 Y25.5452
G01 X-0.4324 Y25.5514
G01 X-0.4290 Y25.5593
G01 X-0.4272 Y25.5665
G01 X-0.4265 Y25.5750
G01 X-0.4265 Y27.7650
G01 X-0.4272 Y27.7735
G01 X-0.4290 Y27.7807
G01 X-0.4324 Y27.7886
G01 X-0.4371 Y27.7958
G01 X-0.4429 Y27.8020
G01 X-0.4487 Y27.8066
G01 X-0.4562 Y27.8107
G01 X-0.4644 Y27.8135
G01 X-0.4728 Y27.8149
G01 X-0.9699 Y27.8150
G01 X-0.9699 Y29.8450
G01 X-0.9713 Y29.8744
G01 X-0.9756 Y29.9036
G01 X-0.9821 Y29.9298
G01 X-0.9937 Y29.9621
G01 X-1.0053 Y29.9865
G01 X-1.0205 Y30.0117
G01 X-1.0380 Y30.0354
G01 X-1.0561 Y30.0554
G01 X-1.0815 Y30.0785
G01 X-1.1033 Y30.0945
G01 X-1.1285 Y30.1097
G01 X-1.1551 Y30.1223
G01 X-1.1805 Y30.1314
G01 X-1.2127 Y30.1396
G01 X-1.2406 Y30.1437
G01 X-1.2700 Y30.1451
G01 X-13.3350 Y30.1451
G01 X-13.3644 Y30.1437
G01 X-13.3923 Y30.1396
G01 X-13.4245 Y30.1314
G01 X-13.4499 Y30.1223
G01 X-13.4765 Y30.1097
G01 X-13.5037 Y30.0931
G01 X-13.5254 Y30.0770
G01 X-13.5463 Y30.0581
G01 X-15.4522 Y28.1522
G01 X-15.4635 Y28.1403
G01 X-20.4548 Y22.5251
G01 X-40.6400 Y22.5251
G01 X-40.6682 Y22.5238
G01 X-40.6986 Y22.5194
G01 X-40.7248 Y22.5129
G01 X-40.7571 Y22.5013
G01 X-40.7815 Y22.4897
G01 X-40.8067 Y22.4745
G01 X-40.8304 Y22.4570
G01 X-40.8513 Y22.4381
G01 X-42.1222 Y21.1672
G01 X-42.1420 Y21.1454
G01 X-42.1595 Y21.1217
G01 X-42.1747 Y21.0965
G01 X-42.1873 Y21.0699
G01 X-42.1972 Y21.0421
G01 X-42.2044 Y21.0136
G01 X-42.2087 Y20.9844
G01 X-42.2101 Y20.9550
G00 Z2.0000
G00 X25.8250 Y12.0100
G01 F60.00
G01 Z-0.0000
G01 F120.00
G01 X27.0250 Y12.0100
G01 X27.0936 Y12.0134
G01 X27.1604 Y12.0232
G01 X27.2282 Y12.0401
G01 X27.2951 Y12.0643
G01 X27.3550 Y12.0927
G01 X27.4118 Y12.1267
G01 X27.4681 Y12.1681
G01 X27.5200 Y12.2150
G01 X27.5669 Y12.2669
G01 X27.6077 Y12.3221
G01 X27.6418 Y12.3789
G01 X27.6565 Y12.4099
G01 X28.5750 Y12.4099
G01 X28.6056 Y12.4115
G01 X28.6336 Y12.4156
G01 X28.6645 Y12.4236
G01 X28.6899 Y12.4327
G01 X28.7143 Y12.4442
G01 X28.7397 Y12.4591
G01 X28.7654 Y12.4780
G01 X28.7872 Y12.4978
G01 X28.8070 Y12.5196
G01 X28.8252 Y12.5443
G01 X28.8397 Y12.5685
G01 X28.8513 Y12.5929
G01 X28.8622 Y12.6229
G01 X28.8694 Y12.6514
G01 X28.8734 Y12.6781
G01 X28.8751 Y12.7100
G01 X28.8751 Y16.8449
G01 X31.8750 Y16.8449
G01 X31.8751 Y16.3478
G01 X31.8762 Y16.3405
G01 X31.8784 Y16.3335
G01 X31.8821 Y16.3258
G01 X31.8863 Y16.3198
G01 X31.8914 Y16.3145
G01 X31.8983 Y16.3093
G01 X31.9059 Y16.3053
G01 X31.9129 Y16.3030
G01 X31.9189 Y16.3019
G01 X31.9250 Y16.3015
G01 X34.1150 Y16.3015
G01 X34.1199 Y16.3017
G01 X34.1260 Y16.3027
G01 X34.1341 Y16.3053
G01 X34.1407 Y16.3086
G01 X34.1477 Y16.3136
G01 X34.1537 Y16.3198
G01 X34.1585 Y16.3269
G01 X34.1616 Y16.3335
G01 X34.1640 Y16.3417
G01 X34.1650 Y16.3503
G01 X34.1650 Y17.9385
G01 X34.1643 Y17.9470
G01 X34.1625 Y17.9542
G01 X34.1597 Y17.9610
G01 X34.1559 Y17.9673
G01 X34.1520 Y17.9721
G01 X34.1477 Y17.9764
G01 X34.1428 Y17.9801
G01 X34.1375 Y17.9832
G01 X34.1330 Y17.9851
G01 X34.1271 Y17.9870
G01 X34.1211 Y17.9881
G01 X34.1150 Y17.9885
G01 X31.9250 Y17.9885
G01 X31.9201 Y17.9883
G01 X31.9140 Y17.9873
G01 X31.9070 Y17.9851
G01 X31.8993 Y17.9814
G01 X31.8923 Y17.9764
G01 X31.8871 Y17.9712
G01 X31.8821 Y17.9642
G01 X31.8788 Y17.9576
G01 X31.8765 Y17.9506
G01 X31.8751 Y17.9422
G01 X31.8750 Y17.4451
G01 X28.5738 Y17.4451
G01 X28.5456 Y17.4437
G01 X28.5189 Y17.4398
G01 X28.4879 Y17.4322
G01 X28.4601 Y17.4223
G01 X28.4357 Y17.4108
G01 X28.4072 Y17.3939
G01 X28.3827 Y17.3754
G01 X28.3628 Y17.3572
G01 X28.3446 Y17.3373
G01 X28.3255 Y17.3117
G01 X28.3103 Y17.2865
G01 X28.2977 Y17.2599
G01 X28.2871 Y17.2298
G01 X28.2806 Y17.2036
G01 X28.2766 Y17.1769
G01 X28.2749 Y17.1462
G01 X28.2749 Y13.0101
G01 X27.6565 Y13.0101
G01 X27.6418 Y13.0411
G01 X27.6077 Y13.0979
G01 X27.5653 Y13.1550
G01 X27.5182 Y13.2067
G01 X27.4691 Y13.2511
G01 X27.4149 Y13.2913
G01 X27.3550 Y13.3273
G01 X27.2906 Y13.3576
G01 X27.2282 Y13.3799
G01 X27.1640 Y13.3960
G01 X27.0948 Y13.4065
G01 X27.0250 Y13.4100
G01 X25.8238 Y13.4100
G01 X25.7564 Y13.4066
G01 X25.6884 Y13.3965
G01 X25.6218 Y13.3799
G01 X25.5571 Y13.3567
G01 X25.4950 Y13.3273
G01 X25.4361 Y13.2920
G01 X25.3809 Y13.2511
G01 X25.3318 Y13.2067
G01 X25.2824 Y13.1521
G01 X25.2430 Y13.0989
G01 X25.2077 Y13.0400
G01 X25.1783 Y12.9779
G01 X25.1559 Y12.9155
G01 X25.1380 Y12.8441
G01 X25.1284 Y12.7786
G01 X25.1250 Y12.7100
G01 X25.1284 Y12.6414
G01 X25.1385 Y12.5734
G01 X25.1551 Y12.5068
G01 X25.1783 Y12.4421
G01 X25.2077 Y12.3800
G01 X25.2417 Y12.3232
G01 X25.2855 Y12.2641
G01 X25.3300 Y12.2150
G01 X25.3809 Y12.1689
G01 X25.4361 Y12.1280
G01 X25.4950 Y12.0927
G01 X25.5571 Y12.0633
G01 X25.6195 Y12.0409
G01 X25.6909 Y12.0230
G01 X25.7564 Y12.0134
G01 X25.8250 Y12.0100
G00 Z2.0000
G00 X25.8250 Y9.4500
G01 F60.00
G01 Z-0.0000
G01 F120.00
G01 X27.0250 Y9.4500
G01 X27.0936 Y9.4534
G01 X27.1628 Y9.4637
G01 X27.2305 Y9.4809
G01 X27.2929 Y9.5033
G01 X27.3528 Y9.5316
G01 X27.4139 Y9.5680
G01 X27.4681 Y9.6081
G01 X27.5200 Y9.6550
G01 X27.5669 Y9.7069
G01 X27.6077 Y9.7621
G01 X27.6418 Y9.8189
G01 X27.6565 Y9.8499
G01 X29.8462 Y9.8499
G01 X29.8744 Y9.8513
G01 X29.9011 Y9.8552
G01 X29.9321 Y9.8628
G01 X29.9599 Y9.8727
G01 X29.9843 Y9.8842
G01 X30.0128 Y9.9011
G01 X30.0373 Y9.9196
G01 X30.0572 Y9.9378
G01 X30.0754 Y9.9577
G01 X30.0945 Y9.9833
G01 X30.1097 Y10.0085
G01 X30.1223 Y10.0351
G01 X30.1329 Y10.0652
G01 X30.1394 Y10.0914
G01 X30.1434 Y10.1181
G01 X30.1451 Y10.1488
G01 X30.1451 Y14.3049
G01 X31.9310 Y14.3049
G01 X31.9397 Y14.2811
G01 X31.9740 Y14.2085
G01 X32.0165 Y14.1374
G01 X32.0665 Y14.0699
G01 X32.1229 Y14.0077
G01 X32.1834 Y13.9530
G01 X32.2519 Y13.9023
G01 X32.3209 Y13.8611
G01 X32.3935 Y13.8267
G01 X32.4725 Y13.7982
G01 X32.5564 Y13.7773
G01 X32.6358 Y13.7656
G01 X32.7173 Y13.7615
G01 X33.3227 Y13.7615
G01 X33.4042 Y13.7656
G01 X33.4861 Y13.7777
G01 X33.5664 Y13.7978
G01 X33.6465 Y13.8267
G01 X33.7191 Y13.8611
G01 X33.7881 Y13.9023
G01 X33.8566 Y13.9530
G01 X33.9179 Y14.0086
G01 X33.9750 Y14.0718
G01 X34.0228 Y14.1364
G01 X34.0642 Y14.2052
G01 X34.1008 Y14.2822
G01 X34.1293 Y14.3625
G01 X34.1488 Y14.4404
G01 X34.1606 Y14.5199
G01 X34.1650 Y14.6050
G01 X34.1609 Y14.6877
G01 X34.1483 Y14.7720
G01 X34.1287 Y14.8499
G01 X34.1017 Y14.9255
G01 X34.0654 Y15.0026
G01 X34.0222 Y15.0746
G01 X33.9735 Y15.1401
G01 X33.9179 Y15.2014
G01 X33.8566 Y15.2570
G01 X33.7921 Y15.3049
G01 X33.7169 Y15.3500
G01 X33.6443 Y15.3843
G01 X33.5652 Y15.4125
G01 X33.4861 Y15.4323
G01 X33.4066 Y15.4441
G01 X33.3227 Y15.4485
G01 X32.7185 Y15.4485
G01 X32.6383 Y15.4446
G01 X32.5515 Y15.4318
G01 X32.4736 Y15.4122
G01 X32.3957 Y15.3843
G01 X32.3187 Y15.3477
G01 X32.2499 Y15.3063
G01 X32.1843 Y15.2578
G01 X32.1204 Y15.1997
G01 X32.0665 Y15.1401
G01 X32.0178 Y15.0746
G01 X31.9740 Y15.0015
G01 X31.9397 Y14.9289
G01 X31.9310 Y14.9051
G01 X29.8438 Y14.9051
G01 X29.8156 Y14.9037
G01 X29.7889 Y14.8998
G01 X29.7579 Y14.8922
G01 X29.7301 Y14.8823
G01 X29.7057 Y14.8708
G01 X29.6772 Y14.8539
G01 X29.6527 Y14.8354
G01 X29.6328 Y14.8172
G01 X29.6146 Y14.7973
G01 X29.5955 Y14.7717
G01 X29.5803 Y14.7465
G01 X29.5677 Y14.7199
G01 X29.5571 Y14.6898
G01 X29.5506 Y14.6636
G01 X29.5466 Y14.6369
G01 X29.5449 Y14.6062
G01 X29.5449 Y10.4501
G01 X27.6565 Y10.4501
G01 X27.6418 Y10.4811
G01 X27.6077 Y10.5379
G01 X27.5669 Y10.5931
G01 X27.5200 Y10.6450
G01 X27.4681 Y10.6919
G01 X27.4118 Y10.7333
G01 X27.3550 Y10.7673
G01 X27.2951 Y10.7957
G01 X27.2282 Y10.8199
G01 X27.1604 Y10.8368
G01 X27.0936 Y10.8466
G01 X27.0250 Y10.8500
G01 X25.8250 Y10.8500
G01 X25.7540 Y10.8463
G01 X25.6884 Y10.8365
G01 X25.6230 Y10.8202
G01 X25.5571 Y10.7967
G01 X25.4972 Y10.7684
G01 X25.4341 Y10.7306
G01 X25.3809 Y10.6911
G01 X25.3300 Y10.6450
G01 X25.2839 Y10.5941
G01 X25.2430 Y10.5389
G01 X25.2077 Y10.4800
G01 X25.1783 Y10.4179
G01 X25.1551 Y10.3532
G01 X25.1390 Y10.2890
G01 X25.1282 Y10.2162
G01 X25.1250 Y10.1500
G01 X25.1287 Y10.0790
G01 X25.1385 Y10.0134
G01 X25.1551 Y9.9468
G01 X25.1783 Y9.8821
G01 X25.2077 Y9.8200
G01 X25.2430 Y9.7611
G01 X25.2839 Y9.7059
G01 X25.3300 Y9.6550
G01 X25.3791 Y9.6105
G01 X25.4361 Y9.5680
G01 X25.4929 Y9.5339
G01 X25.5594 Y9.5024
G01 X25.6218 Y9.4801
G01 X25.6884 Y9.4635
G01 X25.7564 Y9.4534
G01 X25.8250 Y9.4500
G00 Z2.0000
G00 X32.7185 Y3.6015
G01 F60.00
G01 Z-0.0000
G01 F120.00
G01 X33.3240 Y3.6016
G01 X33.4042 Y3.6056
G01 X33.4836 Y3.6173
G01 X33.5652 Y3.6375
G01 X33.6443 Y3.6657
G01 X33.7169 Y3.7000
G01 X33.7921 Y3.7451
G01 X33.8566 Y3.7930
G01 X33.9179 Y3.8486
G01 X33.9735 Y3.9099
G01 X34.0222 Y3.9754
G01 X34.0654 Y4.0474
G01 X34.1008 Y4.1222
G01 X34.1287 Y4.2001
G01 X34.1488 Y4.2804
G01 X34.1609 Y4.3623
G01 X34.1650 Y4.4450
G01 X34.1609 Y4.5277
G01 X34.1488 Y4.6096
G01 X34.1287 Y4.6899
G01 X34.1008 Y4.7678
G01 X34.0654 Y4.8426
G01 X34.0228 Y4.9136
G01 X33.9735 Y4.9801
G01 X33.9179 Y5.0414
G01 X33.8566 Y5.0970
G01 X33.7911 Y5.1457
G01 X33.7191 Y5.1889
G01 X33.6420 Y5.2252
G01 X33.5664 Y5.2522
G01 X33.4885 Y5.2718
G01 X33.4054 Y5.2843
G01 X33.3215 Y5.2885
G01 X32.7185 Y5.2885
G01 X32.6346 Y5.2843
G01 X32.5539 Y5.2723
G01 X32.4736 Y5.2522
G01 X32.3957 Y5.2243
G01 X32.3187 Y5.1877
G01 X32.2499 Y5.1463
G01 X32.1853 Y5.0985
G01 X32.1238 Y5.0431
G01 X32.0665 Y4.9801
G01 X32.0178 Y4.9146
G01 X31.9735 Y4.8404
G01 X31.9392 Y4.7678
G01 X31.9121 Y4.6922
G01 X31.8912 Y4.6096
G01 X31.8789 Y4.5252
G01 X31.8750 Y4.4450
G01 X31.8789 Y4.3648
G01 X31.8912 Y4.2804
G01 X31.9121 Y4.1978
G01 X31.9392 Y4.1222
G01 X31.9746 Y4.0474
G01 X32.0186 Y3.9744
G01 X32.0665 Y3.9099
G01 X32.1221 Y3.8486
G01 X32.1853 Y3.7915
G01 X32.2499 Y3.7437
G01 X32.3187 Y3.7023
G01 X32.3957 Y3.6657
G01 X32.4760 Y3.6372
G01 X32.5539 Y3.6177
G01 X32.6334 Y3.6059
G01 X32.7185 Y3.6015
G00 Z2.0000
G00 X25.8250 Y-1.9600
G01 F60.00
G01 Z-0.0000
G01 F120.00
G01 X27.0250 Y-1.9600
G01 X27.0936 Y-1.9566
G01 X27.1616 Y-1.9465
G01 X27.2282 Y-1.9299
G01 X27.2951 Y-1.9057
G01 X27.3550 Y-1.8773
G01 X27.4118 Y-1.8433
G01 X27.4681 Y-1.8019
G01 X27.5200 Y-1.7550
G01 X27.5669 Y-1.7031
G01 X27.6077 Y-1.6479
G01 X27.6418 Y-1.5911
G01 X27.6565 Y-1.5601
G01 X28.4993 Y-1.5601
G01 X28.5164 Y-1.5644
G01 X28.5444 Y-1.5685
G01 X28.5750 Y-1.5701
G01 X28.6044 Y-1.5687
G01 X28.6323 Y-1.5646
G01 X28.6645 Y-1.5564
G01 X28.6899 Y-1.5473
G01 X28.7143 Y-1.5358
G01 X28.7417 Y-1.5195
G01 X28.7673 Y-1.5004
G01 X28.7872 Y-1.4822
G01 X28.8054 Y-1.4623
G01 X28.8245 Y-1.4367
G01 X28.8408 Y-1.4093
G01 X28.8523 Y-1.3849
G01 X28.8614 Y-1.3595
G01 X28.8698 Y-1.3261
G01 X28.8737 Y-1.2994
G01 X28.8751 Y-1.2700
G01 X28.8751 Y6.6849
G01 X31.9310 Y6.6849
G01 X31.9397 Y6.6611
G01 X31.9740 Y6.5885
G01 X32.0165 Y6.5174
G01 X32.0665 Y6.4499
G01 X32.1229 Y6.3877
G01 X32.1834 Y6.3330
G01 X32.2519 Y6.2823
G01 X32.3209 Y6.2411
G01 X32.3935 Y6.2067
G01 X32.4725 Y6.1782
G01 X32.5564 Y6.1573
G01 X32.6358 Y6.1456
G01 X32.7173 Y6.1415
G01 X33.3227 Y6.1415
G01 X33.4042 Y6.1456
G01 X33.4861 Y6.1577
G01 X33.5687 Y6.1786
G01 X33.6443 Y6.2057
G01 X33.7191 Y6.2411
G01 X33.7901 Y6.2837
G01 X33.8547 Y6.3315
G01 X33.9179 Y6.3886
G01 X33.9750 Y6.4518
G01 X34.0228 Y6.5164
G01 X34.0654 Y6.5874
G01 X34.1017 Y6.6645
G01 X34.1287 Y6.7401
G01 X34.1483 Y6.8180
G01 X34.1611 Y6.9048
G01 X34.1650 Y6.9850
G01 X34.1611 Y7.0652
G01 X34.1488 Y7.1496
G01 X34.1279 Y7.2322
G01 X34.1008 Y7.3078
G01 X34.0665 Y7.3804
G01 X34.0228 Y7.4536
G01 X33.9719 Y7.5220
G01 X33.9179 Y7.5814
G01 X33.8566 Y7.6370
G01 X33.7881 Y7.6877
G01 X33.7191 Y7.7289
G01 X33.6465 Y7.7633
G01 X33.5664 Y7.7922
G01 X33.4836 Y7.8127
G01 X33.4042 Y7.8244
G01 X33.3227 Y7.8285
G01 X32.7185 Y7.8285
G01 X32.6370 Y7.8245
G01 X32.5515 Y7.8118
G01 X32.4736 Y7.7922
G01 X32.3957 Y7.7643
G01 X32.3187 Y7.7277
G01 X32.2499 Y7.6863
G01 X32.1843 Y7.6378
G01 X32.1204 Y7.5797
G01 X32.0665 Y7.5201
G01 X32.0178 Y7.4546
G01 X31.9740 Y7.3815
G01 X31.9397 Y7.3089
G01 X31.9310 Y7.2851
G01 X28.5738 Y7.2851
G01 X28.5456 Y7.2837
G01 X28.5141 Y7.2788
G01 X28.4855 Y7.2714
G01 X28.4601 Y7.2623
G01 X28.4357 Y7.2508
G01 X28.4083 Y7.2345
G01 X28.3846 Y7.2170
G01 X28.3628 Y7.1972
G01 X28.3430 Y7.1754
G01 X28.3255 Y7.1517
G01 X28.3103 Y7.1265
G01 X28.2977 Y7.0999
G01 X28.2886 Y7.0745
G01 X28.2802 Y7.0411
G01 X28.2763 Y7.0144
G01 X28.2749 Y6.9850
G01 X28.2749 Y-0.9599
G01 X27.6565 Y-0.9599
G01 X27.6418 Y-0.9289
G01 X27.6077 Y-0.8721
G01 X27.5653 Y-0.8150
G01 X27.5182 Y-0.7633
G01 X27.4691 Y-0.7189
G01 X27.4149 Y-0.6787
G01 X27.3550 Y-0.6427
G01 X27.2906 Y-0.6124
G01 X27.2282 Y-0.5901
G01 X27.1640 Y-0.5740
G01 X27.0948 Y-0.5635
G01 X27.0250 Y-0.5600
G01 X25.8238 Y-0.5600
G01 X25.7564 Y-0.5634
G01 X25.6884 Y-0.5735
G01 X25.6218 Y-0.5901
G01 X25.5571 Y-0.6133
G01 X25.4950 Y-0.6427
G01 X25.4361 Y-0.6780
G01 X25.3809 Y-0.7189
G01 X25.3318 Y-0.7633
G01 X25.2824 Y-0.8179
G01 X25.2430 Y-0.8711
G01 X25.2077 Y-0.9300
G01 X25.1783 Y-0.9921
G01 X25.1559 Y-1.0545
G01 X25.1380 Y-1.1259
G01 X25.1284 Y-1.1914
G01 X25.1250 Y-1.2600
G01 X25.1284 Y-1.3286
G01 X25.1385 Y-1.3966
G01 X25.1551 Y-1.4632
G01 X25.1783 Y-1.5279
G01 X25.2077 Y-1.5900
G01 X25.2417 Y-1.6468
G01 X25.2855 Y-1.7059
G01 X25.3300 Y-1.7550
G01 X25.3809 Y-1.8011
G01 X25.4361 Y-1.8420
G01 X25.4950 Y-1.8773
G01 X25.5571 Y-1.9067
G01 X25.6195 Y-1.9291
G01 X25.6909 Y-1.9470
G01 X25.7564 Y-1.9566
G01 X25.8250 Y-1.9600
G00 Z2.0000
G00 X25.8250 Y-4.5200
G01 F60.00
G01 Z-0.0000
G01 F120.00
G01 X27.0250 Y-4.5200
G01 X27.0936 Y-4.5166
G01 X27.1628 Y-4.5063
G01 X27.2305 Y-4.4891
G01 X27.2929 Y-4.4667
G01 X27.3528 Y-4.4384
G01 X27.4139 Y-4.4020
G01 X27.4681 Y-4.3619
G01 X27.5200 Y-4.3150
G01 X27.5669 Y-4.2631
G01 X27.6077 Y-4.2079
G01 X27.6418 Y-4.1511
G01 X27.6565 Y-4.1201
G01 X29.8450 Y-4.1201
G01 X29.8720 Y-4.1189
G01 X29.9036 Y-4.1144
G01 X29.9321 Y-4.1072
G01 X29.9599 Y-4.0973
G01 X29.9886 Y-4.0835
G01 X30.0137 Y-4.0681
G01 X30.0354 Y-4.0520
G01 X30.0554 Y-4.0339
G01 X30.0770 Y-4.0104
G01 X30.0939 Y-3.9878
G01 X30.1108 Y-3.9593
G01 X30.1223 Y-3.9349
G01 X30.1322 Y-3.9071
G01 X30.1394 Y-3.8786
G01 X30.1434 Y-3.8519
G01 X30.1451 Y-3.8200
G01 X30.1451 Y5.4149
G01 X35.5600 Y5.4149
G01 X35.5894 Y5.4163
G01 X35.6161 Y5.4202
G01 X35.6495 Y5.4286
G01 X35.6749 Y5.4377
G01 X35.7015 Y5.4503
G01 X35.7267 Y5.4655
G01 X35.7494 Y5.4822
G01 X35.7722 Y5.5028
G01 X35.7920 Y5.5246
G01 X35.8095 Y5.5483
G01 X35.8258 Y5.5757
G01 X35.8373 Y5.6001
G01 X35.8464 Y5.6255
G01 X35.8538 Y5.6541
G01 X35.8587 Y5.6856
G01 X35.8601 Y5.7138
G01 X35.8601 Y9.5250
G01 X35.8587 Y9.5544
G01 X35.8538 Y9.5859
G01 X35.8472 Y9.6121
G01 X35.8382 Y9.6376
G01 X35.8247 Y9.6665
G01 X35.8095 Y9.6917
G01 X35.7904 Y9.7173
G01 X35.7722 Y9.7372
G01 X35.7523 Y9.7554
G01 X35.7278 Y9.7739
G01 X35.6993 Y9.7908
G01 X35.6749 Y9.8023
G01 X35.6471 Y9.8122
G01 X35.6161 Y9.8198
G01 X35.5894 Y9.8237
G01 X35.5612 Y9.8251
G01 X34.1090 Y9.8251
G01 X34.1003 Y9.8489
G01 X34.0660 Y9.9215
G01 X34.0222 Y9.9946
G01 X33.9735 Y10.0601
G01 X33.9196 Y10.1197
G01 X33.8557 Y10.1778
G01 X33.7901 Y10.2263
G01 X33.7213 Y10.2677
G01 X33.6443 Y10.3043
G01 X33.5664 Y10.3322
G01 X33.4885 Y10.3518
G01 X33.4017 Y10.3646
G01 X33.3215 Y10.3685
G01 X32.7173 Y10.3685
G01 X32.6334 Y10.3641
G01 X32.5539 Y10.3523
G01 X32.4748 Y10.3325
G01 X32.3957 Y10.3043
G01 X32.3231 Y10.2700
G01 X32.2479 Y10.2249
G01 X32.1834 Y10.1770
G01 X32.1221 Y10.1214
G01 X32.0665 Y10.0601
G01 X32.0178 Y9.9946
G01 X31.9746 Y9.9226
G01 X31.9383 Y9.8455
G01 X31.9113 Y9.7699
G01 X31.8917 Y9.6920
G01 X31.8791 Y9.6077
G01 X31.8750 Y9.5250
G01 X31.8794 Y9.4399
G01 X31.8912 Y9.3604
G01 X31.9107 Y9.2825
G01 X31.9392 Y9.2022
G01 X31.9746 Y9.1274
G01 X32.0186 Y9.0544
G01 X32.0665 Y8.9899
G01 X32.1204 Y8.9303
G01 X32.1834 Y8.8730
G01 X32.2499 Y8.8237
G01 X32.3231 Y8.7800
G01 X32.3957 Y8.7457
G01 X32.4713 Y8.7186
G01 X32.5527 Y8.6980
G01 X32.6358 Y8.6856
G01 X32.7173 Y8.6815
G01 X33.3227 Y8.6815
G01 X33.4042 Y8.6856
G01 X33.4836 Y8.6973
G01 X33.5675 Y8.7182
G01 X33.6465 Y8.7467
G01 X33.7191 Y8.7811
G01 X33.7881 Y8.8223
G01 X33.8566 Y8.8730
G01 X33.9171 Y8.9277
G01 X33.9735 Y8.9899
G01 X34.0235 Y9.0574
G01 X34.0660 Y9.1285
G01 X34.1003 Y9.2011
G01 X34.1090 Y9.2249
G01 X35.2599 Y9.2249
G01 X35.2599 Y6.0151
G01 X29.8438 Y6.0151
G01 X29.8156 Y6.0137
G01 X29.7864 Y6.0094
G01 X29.7579 Y6.0022
G01 X29.7279 Y5.9913
G01 X29.7035 Y5.9797
G01 X29.6763 Y5.9631
G01 X29.6527 Y5.9454
G01 X29.6328 Y5.9272
G01 X29.6146 Y5.9073
G01 X29.5941 Y5.8797
G01 X29.5803 Y5.8565
G01 X29.5668 Y5.8276
G01 X29.5578 Y5.8021
G01 X29.5506 Y5.7736
G01 X29.5463 Y5.7444
G01 X29.5449 Y5.7150
G01 X29.5449 Y-3.5199
G01 X27.6565 Y-3.5199
G01 X27.6418 Y-3.4889
G01 X27.6077 Y-3.4321
G01 X27.5669 Y-3.3769
G01 X27.5200 Y-3.3250
G01 X27.4681 Y-3.2781
G01 X27.4118 Y-3.2367
G01 X27.3550 Y-3.2027
G01 X27.2951 Y-3.1743
G01 X27.2282 Y-3.1501
G01 X27.1604 Y-3.1332
G01 X27.0936 Y-3.1234
G01 X27.0250 Y-3.1200
G01 X25.8250 Y-3.1200
G01 X25.7540 Y-3.1237
G01 X25.6884 Y-3.1335
G01 X25.6230 Y-3.1498
G01 X25.5571 Y-3.1733
G01 X25.4972 Y-3.2016
G01 X25.4341 Y-3.2394
G01 X25.3809 Y-3.2789
G01 X25.3300 Y-3.3250
G01 X25.2839 Y-3.3759
G01 X25.2430 Y-3.4311
G01 X25.2077 Y-3.4900
G01 X25.1783 Y-3.5521
G01 X25.1551 Y-3.6168
G01 X25.1390 Y-3.6810
G01 X25.1282 Y-3.7538
G01 X25.1250 Y-3.8200
G01 X25.1287 Y-3.8910
G01 X25.1385 Y-3.9566
G01 X25.1551 Y-4.0232
G01 X25.1783 Y-4.0879
G01 X25.2077 Y-4.1500
G01 X25.2430 Y-4.2089
G01 X25.2839 Y-4.2641
G01 X25.3300 Y-4.3150
G01 X25.3791 Y-4.3595
G01 X25.4361 Y-4.4020
G01 X25.4929 Y-4.4361
G01 X25.5594 Y-4.4676
G01 X25.6218 Y-4.4899
G01 X25.6884 Y-4.5065
G01 X25.7564 Y-4.5166
G01 X25.8250 Y-4.5200
G00 Z2.0000
G00 X25.8250 Y-15.9300
G01 F60.00
G01 Z-0.0000
G01 F120.00
G01 X27.0250 Y-15.9300
G01 X27.0936 Y-15.9266
G01 X27.1628 Y-15.9163
G01 X27.2305 Y-15.8991
G01 X27.2929 Y-15.8767
G01 X27.3528 Y-15.8484
G01 X27.4139 Y-15.8120
G01 X27.4681 Y-15.7719
G01 X27.5200 Y-15.7250
G01 X27.5669 Y-15.6731
G01 X27.6077 Y-15.6179
G01 X27.6418 Y-15.5611
G01 X27.6518 Y-15.5401
G01 X29.2112 Y-15.5401
G01 X29.2318 Y-15.5393
G01 X29.2394 Y-15.5387
G01 X29.2610 Y-15.5357
G01 X29.2698 Y-15.5341
G01 X29.2898 Y-15.5293
G01 X29.2971 Y-15.5272
G01 X29.3189 Y-15.5197
G01 X29.3260 Y-15.5168
G01 X29.3447 Y-15.5082
G01 X29.3526 Y-15.5041
G01 X29.3703 Y-15.4937
G01 X29.3767 Y-15.4895
G01 X29.3954 Y-15.4760
G01 X29.4158 Y-15.4584
G01 X29.4231 Y-15.4513
G01 X29.4379 Y-15.4353
G01 X33.2479 Y-10.9903
G01 X33.2535 Y-10.9835
G01 X33.2695 Y-10.9617
G01 X33.2810 Y-10.9432
G01 X33.2853 Y-10.9354
G01 X33.2943 Y-10.9169
G01 X33.2982 Y-10.9076
G01 X33.3072 Y-10.8821
G01 X33.3128 Y-10.8610
G01 X33.3146 Y-10.8523
G01 X33.3180 Y-10.8308
G01 X33.3189 Y-10.8220
G01 X33.3201 Y-10.7950
G01 X33.3201 Y-1.4785
G01 X33.4042 Y-1.4744
G01 X33.4861 Y-1.4623
G01 X33.5664 Y-1.4422
G01 X33.6443 Y-1.4143
G01 X33.7191 Y-1.3789
G01 X33.7901 Y-1.3363
G01 X33.8566 Y-1.2870
G01 X33.9179 Y-1.2314
G01 X33.9735 Y-1.1701
G01 X34.0228 Y-1.1036
G01 X34.0654 Y-1.0326
G01 X34.1008 Y-0.9578
G01 X34.1287 Y-0.8799
G01 X34.1488 Y-0.7996
G01 X34.1609 Y-0.7177
G01 X34.1649 Y-0.6375
G01 X34.1609 Y-0.5523
G01 X34.1483 Y-0.4680
G01 X34.1287 Y-0.3901
G01 X34.1017 Y-0.3145
G01 X34.0642 Y-0.2352
G01 X34.0228 Y-0.1664
G01 X33.9750 Y-0.1018
G01 X33.9179 Y-0.0386
G01 X33.8566 Y0.0170
G01 X33.7921 Y0.0649
G01 X33.7180 Y0.1095
G01 X33.6420 Y0.1452
G01 X33.5664 Y0.1722
G01 X33.4885 Y0.1918
G01 X33.4042 Y0.2044
G01 X33.3227 Y0.2085
G01 X32.7185 Y0.2085
G01 X32.6370 Y0.2045
G01 X32.5515 Y0.1918
G01 X32.4736 Y0.1722
G01 X32.3980 Y0.1452
G01 X32.3209 Y0.1089
G01 X32.2479 Y0.0649
G01 X32.1834 Y0.0170
G01 X32.1238 Y-0.0369
G01 X32.0650 Y-0.1018
G01 X32.0172 Y-0.1664
G01 X31.9758 Y-0.2352
G01 X31.9392 Y-0.3122
G01 X31.9113 Y-0.3901
G01 X31.8917 Y-0.4680
G01 X31.8791 Y-0.5523
G01 X31.8750 Y-0.6350
G01 X31.8791 Y-0.7177
G01 X31.8912 Y-0.7996
G01 X31.9121 Y-0.8822
G01 X31.9392 Y-0.9578
G01 X31.9758 Y-1.0348
G01 X32.0186 Y-1.1056
G01 X32.0665 Y-1.1701
G01 X32.1204 Y-1.2297
G01 X32.1834 Y-1.2870
G01 X32.2499 Y-1.3363
G01 X32.3209 Y-1.3789
G01 X32.3957 Y-1.4143
G01 X32.4736 Y-1.4422
G01 X32.5539 Y-1.4623
G01 X32.6358 Y-1.4744
G01 X32.7199 Y-1.4785
G01 X32.7199 Y-10.6840
G01 X29.0720 Y-14.9399
G01 X27.6613 Y-14.9399
G01 X27.6423 Y-14.9000
G01 X27.6077 Y-14.8421
G01 X27.5653 Y-14.7850
G01 X27.5182 Y-14.7333
G01 X27.4691 Y-14.6889
G01 X27.4149 Y-14.6487
G01 X27.3550 Y-14.6127
G01 X27.2906 Y-14.5824
G01 X27.2282 Y-14.5601
G01 X27.1640 Y-14.5440
G01 X27.0924 Y-14.5333
G01 X27.0250 Y-14.5300
G01 X25.8250 Y-14.5300
G01 X25.7564 Y-14.5334
G01 X25.6884 Y-14.5435
G01 X25.6242 Y-14.5595
G01 X25.5571 Y-14.5833
G01 X25.4929 Y-14.6139
G01 X25.4361 Y-14.6480
G01 X25.3819 Y-14.6881
G01 X25.3283 Y-14.7368
G01 X25.2839 Y-14.7859
G01 X25.2430 Y-14.8411
G01 X25.2066 Y-14.9022
G01 X25.1783 Y-14.9621
G01 X25.1551 Y-15.0268
G01 X25.1385 Y-15.0934
G01 X25.1287 Y-15.1590
G01 X25.1250 Y-15.2300
G01 X25.1284 Y-15.2986
G01 X25.1380 Y-15.3641
G01 X25.1559 Y-15.4355
G01 X25.1783 Y-15.4979
G01 X25.2077 Y-15.5600
G01 X25.2430 Y-15.6189
G01 X25.2824 Y-15.6721
G01 X25.3318 Y-15.7267
G01 X25.3809 Y-15.7711
G01 X25.4341 Y-15.8106
G01 X25.4972 Y-15.8484
G01 X25.5571 Y-15.8767
G01 X25.6218 Y-15.8999
G01 X25.6884 Y-15.9165
G01 X25.7540 Y-15.9263
G01 X25.8250 Y-15.9300
G00 Z2.0000
G00 X25.8250 Y-18.4900
G01 F60.00
G01 Z-0.0000
G01 F120.00
G01 X27.0250 Y-18.4900
G01 X27.0936 Y-18.4866
G01 X27.1628 Y-18.4763
G01 X27.2305 Y-18.4591
G01 X27.2929 Y-18.4367
G01 X27.3528 Y-18.4084
G01 X27.4139 Y-18.3720
G01 X27.4681 Y-18.3319
G01 X27.5200 Y-18.2850
G01 X27.5669 Y-18.2331
G01 X27.6077 Y-18.1779
G01 X27.6423 Y-18.1200
G01 X27.6613 Y-18.0801
G01 X29.2100 Y-18.0801
G01 X29.2230 Y-18.0798
G01 X29.2406 Y-18.0785
G01 X29.2536 Y-18.0769
G01 X29.2686 Y-18.0744
G01 X29.2837 Y-18.0709
G01 X29.2971 Y-18.0672
G01 X29.3107 Y-18.0627
G01 X29.3260 Y-18.0568
G01 X29.3379 Y-18.0515
G01 X29.3515 Y-18.0447
G01 X29.3650 Y-18.0370
G01 X29.3767 Y-18.0295
G01 X29.3884 Y-18.0213
G01 X29.4004 Y-18.0120
G01 X29.4112 Y-18.0027
G01 X29.4222 Y-17.9922
G01 X29.4321 Y-17.9819
G01 X35.7821 Y-10.9969
G01 X35.7928 Y-10.9844
G01 X35.8008 Y-10.9741
G01 X35.8095 Y-10.9617
G01 X35.8178 Y-10.9486
G01 X35.8247 Y-10.9365
G01 X35.8311 Y-10.9237
G01 X35.8373 Y-10.9099
G01 X35.8428 Y-10.8954
G01 X35.8475 Y-10.8809
G01 X35.8510 Y-10.8684
G01 X35.8541 Y-10.8548
G01 X35.8568 Y-10.8395
G01 X35.8587 Y-10.8244
G01 X35.8597 Y-10.8102
G01 X35.8601 Y-10.7950
G01 X35.8601 Y1.9050
G01 X35.8584 Y1.9369
G01 X35.8544 Y1.9636
G01 X35.8472 Y1.9921
G01 X35.8363 Y2.0221
G01 X35.8247 Y2.0465
G01 X35.8109 Y2.0697
G01 X35.7904 Y2.0973
G01 X35.7722 Y2.1172
G01 X35.7523 Y2.1354
G01 X35.7267 Y2.1545
G01 X35.6993 Y2.1708
G01 X35.6726 Y2.1832
G01 X35.6471 Y2.1922
G01 X35.6209 Y2.1988
G01 X35.5894 Y2.2037
G01 X35.5612 Y2.2051
G01 X34.1090 Y2.2051
G01 X34.1003 Y2.2289
G01 X34.0660 Y2.3015
G01 X34.0235 Y2.3726
G01 X33.9735 Y2.4401
G01 X33.9188 Y2.5006
G01 X33.8566 Y2.5570
G01 X33.7901 Y2.6063
G01 X33.7191 Y2.6489
G01 X33.6420 Y2.6852
G01 X33.5664 Y2.7122
G01 X33.4885 Y2.7318
G01 X33.4017 Y2.7446
G01 X33.3215 Y2.7485
G01 X32.7185 Y2.7485
G01 X32.6370 Y2.7445
G01 X32.5539 Y2.7323
G01 X32.4736 Y2.7122
G01 X32.3957 Y2.6843
G01 X32.3231 Y2.6500
G01 X32.2479 Y2.6049
G01 X32.1834 Y2.5570
G01 X32.1204 Y2.4997
G01 X32.0665 Y2.4401
G01 X32.0172 Y2.3736
G01 X31.9746 Y2.3026
G01 X31.9392 Y2.2278
G01 X31.9113 Y2.1499
G01 X31.8912 Y2.0696
G01 X31.8791 Y1.9877
G01 X31.8750 Y1.9062
G01 X31.8791 Y1.8223
G01 X31.8912 Y1.7404
G01 X31.9113 Y1.6601
G01 X31.9383 Y1.5845
G01 X31.9758 Y1.5052
G01 X32.0172 Y1.4364
G01 X32.0681 Y1.3680
G01 X32.1221 Y1.3086
G01 X32.1834 Y1.2530
G01 X32.2499 Y1.2037
G01 X32.3209 Y1.1611
G01 X32.3957 Y1.1257
G01 X32.4736 Y1.0978
G01 X32.5539 Y1.0777
G01 X32.6358 Y1.0656
G01 X32.7185 Y1.0615
G01 X33.3215 Y1.0615
G01 X33.4017 Y1.0654
G01 X33.4885 Y1.0782
G01 X33.5664 Y1.0978
G01 X33.6420 Y1.1248
G01 X33.7191 Y1.1611
G01 X33.7901 Y1.2037
G01 X33.8566 Y1.2530
G01 X33.9188 Y1.3094
G01 X33.9735 Y1.3699
G01 X34.0235 Y1.4374
G01 X34.0660 Y1.5085
G01 X34.1003 Y1.5811
G01 X34.1090 Y1.6049
G01 X35.2599 Y1.6049
G01 X35.2599 Y-10.6790
G01 X29.0772 Y-17.4799
G01 X27.6518 Y-17.4799
G01 X27.6418 Y-17.4589
G01 X27.6077 Y-17.4021
G01 X27.5653 Y-17.3450
G01 X27.5200 Y-17.2950
G01 X27.4709 Y-17.2505
G01 X27.4149 Y-17.2087
G01 X27.3550 Y-17.1727
G01 X27.2906 Y-17.1424
G01 X27.2282 Y-17.1201
G01 X27.1640 Y-17.1040
G01 X27.0936 Y-17.0934
G01 X27.0250 Y-17.0900
G01 X25.8238 Y-17.0900
G01 X25.7564 Y-17.0934
G01 X25.6909 Y-17.1030
G01 X25.6218 Y-17.1201
G01 X25.5571 Y-17.1433
G01 X25.4950 Y-17.1727
G01 X25.4361 Y-17.2080
G01 X25.3829 Y-17.2474
G01 X25.3300 Y-17.2950
G01 X25.2855 Y-17.3441
G01 X25.2417 Y-17.4032
G01 X25.2077 Y-17.4600
G01 X25.1783 Y-17.5221
G01 X25.1551 Y-17.5868
G01 X25.1385 Y-17.6534
G01 X25.1284 Y-17.7214
G01 X25.1250 Y-17.7900
G01 X25.1284 Y-17.8586
G01 X25.1380 Y-17.9241
G01 X25.1551 Y-17.9932
G01 X25.1774 Y-18.0556
G01 X25.2089 Y-18.1221
G01 X25.2430 Y-18.1789
G01 X25.2839 Y-18.2341
G01 X25.3300 Y-18.2850
G01 X25.3809 Y-18.3311
G01 X25.4361 Y-18.3720
G01 X25.4950 Y-18.4073
G01 X25.5571 Y-18.4367
G01 X25.6195 Y-18.4591
G01 X25.6909 Y-18.4770
G01 X25.7564 Y-18.4866
G01 X25.8250 Y-18.4900
G00 Z2.0000
M05
G00 Z2.0000
G00 Z15.00


