N0010 (Filename: encoder_diff_driver_board_DRILLS-NPTH.ngc)
N0020 (Post processor: LinuxCNC.scpost)
N0030 (Date: 25/10/2024)
N0040 G21 (Units: Metric)
N0050 G64 P0.001 G40 G90
N0060 F1
N0070 (Part: encoder_diff_driver_board_COPPER-TOP.gbr_iso_combined_cnc)
N0080 (Operation: No Offset, Tool 1 -2.000000 deep, T3: chamfer mill - V cutter, 2 mm diameter, 0.1 mm Deep)
N0090 M6 T3  (chamfer mill - V cutter, 2 mm diameter)
N0100 G43 H3
N0110 G00 Z40.0000
N0120 M03 S12000
N0130 X-40.5157 Y21.9249
N0140 Z1.0000
N0150 G01 Z-0.1000 F1000
N0160 X-20.3012 Y21.9255 F2000
N0170 G03 X-20.0957 Y22.0256 I-0.0185 J0.2990 F2000.0
N0180 G01 X-15.0215 Y27.7340 F2000
N0190 X-13.2107 Y29.5449
N0200 X-1.5701
N0210 Y27.8150
N0220 X-2.0756 Y27.8135
N0230 G03 X-2.1135 Y27.7650 I0.0122 J-0.0486 F2000.0
N0240 G01 X-2.1125 Y25.5652 F2000
N0250 G03 X-2.0635 Y25.5250 I0.0489 J0.0097 F2000.0
N0260 G01 X-0.4704 Y25.5254 F2000
N0270 G03 X-0.4265 Y25.5750 I-0.0060 J0.0495 F2000.0
N0280 G01 X-0.4272 Y27.7735 F2000
N0290 G03 X-0.4728 Y27.8149 I-0.0495 J-0.0087 F2000.0
N0300 G01 X-0.9699 Y27.8150 F2000
N0310 X-0.9713 Y29.8744
N0320 G03 X-1.2700 Y30.1451 I-0.2986 J-0.0293 F2000.0
N0330 G01 X-13.3644 Y30.1437 F2000
N0340 G03 X-13.5463 Y30.0581 I0.0297 J-0.2991 F2000.0
N0350 G01 X-15.4635 Y28.1403 F2000
N0360 X-20.4548 Y22.5251
N0370 X-40.6682 Y22.5238
N0380 G03 X-40.8513 Y22.4381 I0.0278 J-0.2978 F2000.0
N0390 G01 X-42.1420 Y21.1454 F2000
N0400 G03 X-42.2101 Y20.9550 I0.2325 J-0.1905 F2000.0
N0410 G01 X-42.1972 Y-17.8671 F2000
N0420 X-42.1034 Y-18.0095
N0430 X-40.3950 Y-19.4253
N0440 X-40.3945 Y-22.2773
N0450 G03 X-40.3450 Y-22.3200 I0.0502 J0.0081 F2000.0
N0460 G01 X-37.7493 F2000
N0470 X-35.7066 Y-24.3918
N0480 X-35.5600 Y-24.4301
N0490 X-24.4301
N0500 X-24.4287 Y-26.6994
N0510 G03 X-24.1300 Y-26.9701 I0.2986 J0.0293 F2000.0
N0520 G01 X34.3089 Y-26.9695 F2000
N0530 G03 X34.5342 Y-26.8444 I-0.0217 J0.3044 F2000.0
N0540 G01 X40.4063 Y-18.6235 F2000
N0550 X41.7423 Y-18.6230
N0560 G03 X41.7850 Y-18.5735 I-0.0081 J0.0502 F2000.0
N0570 G01 X41.7846 Y-16.9804 F2000
N0580 G03 X41.7350 Y-16.9365 I-0.0495 J-0.0060 F2000.0
N0590 G01 X39.5352 Y-16.9375 F2000
N0600 G03 X39.4950 Y-16.9865 I0.0098 J-0.0490 F2000.0
N0610 G01 X39.4965 Y-18.5856 F2000
N0620 G03 X39.5450 Y-18.6235 I0.0487 J0.0124 F2000.0
N0630 G01 X39.6687 F2000
N0640 X34.1356 Y-26.3699
N0650 X-23.8299
N0660 X-23.8313 Y-24.1006
N0670 G03 X-24.1300 Y-23.8299 I-0.2990 J-0.0297 F2000.0
N0680 G01 X-35.4337 F2000
N0690 X-37.2950 Y-21.9261
N0700 X-37.2960 Y-19.2602
N0710 G03 X-37.3450 Y-19.2200 I-0.0490 J-0.0098 F2000.0
N0720 G01 X-39.7020 F2000
N0730 X-41.6099 Y-17.6389
N0740 Y20.8307
N0750 X-40.5157 Y21.9249
N0760 G00 Z40.0000
N0770 X-37.2950 Y18.5301
N0780 Z1.0000
N0790 G01 Z-0.1000 F1000
N0800 X-37.2957 Y19.7385 F2000
N0810 G03 X-37.3450 Y19.7800 I-0.0494 J-0.0086 F2000.0
N0820 G01 X-40.3523 Y19.7795 F2000
N0830 G03 X-40.3950 Y19.7312 I0.0075 J-0.0497 F2000.0
N0840 G01 X-40.3940 Y16.7202 F2000
N0850 G03 X-40.3450 Y16.6800 I0.0490 J0.0098 F2000.0
N0860 G01 X-37.3352 Y16.6810 F2000
N0870 G03 X-37.2950 Y16.7288 I-0.0098 J0.0490 F2000.0
N0880 G01 Y17.9299 F2000
N0890 X-28.8751
N0900 X-28.8734 Y-15.9069
N0910 G03 X-28.5762 Y-16.1751 I0.2981 J0.0316 F2000.0
N0920 G01 X-18.0801 F2000
N0930 X-18.0787 Y-22.8894
N0940 G03 X-17.7800 Y-23.1601 I0.2988 J0.0296 F2000.0
N0950 G01 X21.6194 Y-23.1587 F2000
N0960 G03 X21.8901 Y-22.8612 I-0.0295 J0.2987 F2000.0
N0970 G01 Y-13.0001 F2000
N0980 X22.3007 Y-12.9901
N0990 X25.1935
N1000 G03 X25.8250 Y-13.3900 I0.6245 J0.2876 F2000.0
N1010 G01 X27.0960 Y-13.3863 F2000
N1020 G03 X27.0250 Y-11.9900 I-0.0711 J0.6963 F2000.0
N1030 G01 X25.7564 Y-11.9934 F2000
N1040 G03 X25.1935 Y-12.3899 I0.0600 J-0.6829 F2000.0
N1050 G01 X21.8901 Y-12.3999 F2000
N1060 Y0.9799
N1070 X25.1935
N1080 G03 X25.8250 Y0.5800 I0.6246 J0.2877 F2000.0
N1090 G01 X27.0912 Y0.5832 F2000
N1100 G03 X27.0250 Y1.9800 I-0.0662 J0.6968 F2000.0
N1110 G01 X25.7564 Y1.9766 F2000
N1120 G03 X25.1935 Y1.5801 I0.0600 J-0.6829 F2000.0
N1130 G01 X21.8901 F2000
N1140 Y14.9499
N1150 X25.1935
N1160 G03 X25.8250 Y14.5500 I0.6246 J0.2877 F2000.0
N1170 G01 X27.0912 Y14.5532 F2000
N1180 G03 X27.0250 Y15.9500 I-0.0662 J0.6968 F2000.0
N1190 G01 X25.7564 Y15.9466 F2000
N1200 G03 X25.1935 Y15.5501 I0.0600 J-0.6829 F2000.0
N1210 G01 X21.8901 F2000
N1220 X21.8887 Y26.6994
N1230 G03 X21.5900 Y26.9701 I-0.2988 J-0.0296 F2000.0
N1240 G01 X13.5435 F2000
N1250 G03 X11.8565 Y26.9715 I-0.8435 J0.0014 F2000.0
N1260 G01 X11.8606 Y26.2858 F2000
N1270 G03 X13.5435 Y26.3699 I0.8394 J0.0828 F2000.0
N1280 G01 X21.2899 F2000
N1290 Y-22.5599
N1300 X-17.4799
N1310 Y-16.1751
N1320 X-15.2951
N1330 Y-17.0700
N1340 X-15.6612 Y-17.0732
N1350 G03 X-15.5950 Y-18.4700 I0.0663 J-0.6968 F2000.0
N1360 G01 X-14.3264 Y-18.4666 F2000
N1370 G03 X-14.3950 Y-17.0700 I-0.0687 J0.6966 F2000.0
N1380 G01 X-14.6949 F2000
N1390 Y-15.9500
N1400 X-14.3288 Y-15.9468
N1410 G03 X-14.3950 Y-14.5500 I-0.0663 J0.6968 F2000.0
N1420 G01 X-15.6660 Y-14.5537 F2000
N1430 G03 X-16.2148 Y-15.5749 I0.0703 J-0.6958 F2000.0
N1440 G01 X-28.2749 F2000
N1450 Y-3.4751
N1460 X-16.2148
N1470 G03 X-15.5975 Y-4.4999 I0.6192 J-0.3253 F2000.0
N1480 G01 X-14.3264 Y-4.4966 F2000
N1490 G03 X-14.3950 Y-3.1000 I-0.0686 J0.6966 F2000.0
N1500 G01 X-14.6949 F2000
N1510 Y-1.9800
N1520 X-14.3288 Y-1.9768
N1530 G03 X-14.3950 Y-0.5800 I-0.0663 J0.6968 F2000.0
N1540 G01 X-15.6660 Y-0.5837 F2000
N1550 G03 X-15.5950 Y-1.9800 I0.0711 J-0.6963 F2000.0
N1560 G01 X-15.2951 F2000
N1570 Y-2.8749
N1580 X-28.2749
N1590 Y9.8599
N1600 X-16.2218
N1610 X-16.1777 Y9.7821
N1620 G03 X-15.5950 Y9.4700 I0.5830 J0.3885 F2000.0
N1630 G01 X-14.3264 Y9.4734 F2000
N1640 G03 X-14.3950 Y10.8700 I-0.0686 J0.6966 F2000.0
N1650 G01 X-14.6949 F2000
N1660 Y11.9900
N1670 X-14.3288 Y11.9932
N1680 G03 X-14.3950 Y13.3900 I-0.0663 J0.6968 F2000.0
N1690 G01 X-15.6648 Y13.3865 F2000
N1700 G03 X-15.5950 Y11.9900 I0.0699 J-0.6965 F2000.0
N1710 G01 X-15.2951 F2000
N1720 Y10.8700
N1730 X-15.6636 Y10.8666
N1740 G03 X-16.2313 Y10.4601 I0.0632 J-0.6879 F2000.0
N1750 G01 X-28.2749 F2000
N1760 X-28.2763 Y18.2594
N1770 G03 X-28.5750 Y18.5301 I-0.2991 J-0.0299 F2000.0
N1780 G01 X-37.2950 F2000
N1790 G00 Z40.0000
N1800 X-19.3794 Y19.7800
N1810 Z1.0000
N1820 G01 Z-0.1000 F1000
N1830 X-22.3523 Y19.7795 F2000
N1840 G03 X-22.3950 Y19.7300 I0.0077 J-0.0498 F2000.0
N1850 G01 X-22.3940 Y16.7202 F2000
N1860 G03 X-22.3450 Y16.6800 I0.0490 J0.0098 F2000.0
N1870 G01 X-19.3377 Y16.6805 F2000
N1880 G03 X-19.2950 Y16.7300 I-0.0081 J0.0501 F2000.0
N1890 G01 Y19.0156 F2000
N1900 X-11.9407 Y26.3699
N1910 X-9.7335
N1920 G03 X-8.0465 Y26.3673 I0.8435 J-0.0015 F2000.0
N1930 G01 X-8.0507 Y27.0554 F2000
N1940 G03 X-8.5661 Y27.7503 I-0.8390 J-0.0837 F2000.0
N1950 G01 X-8.5899 Y27.7590 F2000
N1960 Y28.2749
N1970 X-2.8401
N1980 X-2.8387 Y24.1006
N1990 G03 X-2.5400 Y23.8299 I0.2991 J0.0298 F2000.0
N2000 G01 X7.6494 Y23.8313 F2000
N2010 G03 X7.9201 Y24.1300 I-0.0299 J0.2992 F2000.0
N2020 G01 Y25.5250 F2000
N2030 X8.4280 Y25.5272
N2040 G03 X8.4634 Y25.5725 I-0.0139 J0.0474 F2000.0
N2050 G01 X8.4630 Y27.7723 F2000
N2060 G03 X8.4172 Y27.8149 I-0.0497 J-0.0076 F2000.0
N2070 G01 X7.9201 Y27.8150 F2000
N2080 Y29.5449
N2090 X29.0796
N2100 X37.7999 Y20.2017
N2110 Y12.3651
N2120 X34.1090
N2130 G03 X33.3240 Y12.9084 I-0.7769 J-0.2837 F2000.0
N2140 G01 X32.6358 Y12.9044 F2000
N2150 G03 X32.1431 Y11.4494 I0.0779 J-0.8373 F2000.0
N2160 G01 X30.2560 Y9.0905 F2000
N2170 X29.7207 Y8.5551
N2180 X26.6406 Y8.5537
N2190 G03 X26.3762 Y8.3159 I0.0298 J-0.2990 F2000.0
N2200 G01 X26.3751 Y8.3100 F2000
N2210 X25.7564 Y8.3066
N2220 G03 X25.8238 Y6.9100 I0.0687 J-0.6966 F2000.0
N2230 G01 X27.0936 Y6.9134 F2000
N2240 G03 X27.6429 Y7.9389 I-0.0687 J0.6967 F2000.0
N2250 G01 X27.6335 Y7.9549 F2000
N2260 X29.8744 Y7.9563
N2270 G03 X30.0572 Y8.0428 I-0.0298 J0.2995 F2000.0
N2280 G01 X30.7112 Y8.6987 F2000
N2290 X32.7295 Y11.2215
N2300 X33.4030 Y11.2255
N2310 G03 X34.1003 Y11.7411 I-0.0811 J0.8389 F2000.0
N2320 G01 X34.1090 Y11.7649 F2000
N2330 X37.7999
N2340 Y3.4751
N2350 X31.0856 Y3.4737
N2360 G03 X30.8149 Y3.1750 I0.0296 J-0.2989 F2000.0
N2370 G01 Y-6.0499 F2000
N2380 X27.6518
N2390 X27.6077 Y-5.9721
N2400 G03 X27.0250 Y-5.6600 I-0.5829 J-0.3884 F2000.0
N2410 G01 X25.7564 Y-5.6634 F2000
N2420 G03 X25.8250 Y-7.0600 I0.0687 J-0.6966 F2000.0
N2430 G01 X27.0936 Y-7.0566 F2000
N2440 G03 X27.6613 Y-6.6501 I-0.0631 J0.6878 F2000.0
N2450 G01 X31.1444 Y-6.6487 F2000
N2460 G03 X31.4151 Y-6.3512 I-0.0299 J0.2991 F2000.0
N2470 G01 Y2.8749 F2000
N2480 X37.7999
N2490 Y-15.1417
N2500 X30.9629 Y-24.4649
N2510 X26.7251
N2520 Y-21.0300
N2530 X27.0936 Y-21.0266
N2540 G03 X27.0275 Y-19.6301 I-0.0687 J0.6966 F2000.0
N2550 G01 X25.7564 Y-19.6334 F2000
N2560 G03 X25.8238 Y-21.0300 I0.0688 J-0.6966 F2000.0
N2570 G01 X26.1249 F2000
N2580 Y-24.4649
N2590 X-20.6549
N2600 Y-22.3200
N2610 X-19.3352 Y-22.3190
N2620 G03 X-19.2950 Y-22.2700 I-0.0099 J0.0491 F2000.0
N2630 G01 X-19.2962 Y-19.2590 F2000
N2640 G03 X-19.3425 Y-19.2201 I-0.0486 J-0.0109 F2000.0
N2650 G01 X-22.3548 Y-19.2210 F2000
N2660 G03 X-22.3950 Y-19.2700 I0.0095 J-0.0488 F2000.0
N2670 G01 X-22.3940 Y-22.2798 F2000
N2680 G03 X-22.3450 Y-22.3200 I0.0490 J0.0098 F2000.0
N2690 G01 X-21.2551 F2000
N2700 X-21.2537 Y-24.7944
N2710 G03 X-20.9550 Y-25.0651 I0.2986 J0.0294 F2000.0
N2720 G01 X31.1326 Y-25.0646 F2000
N2730 G03 X31.3570 Y-24.9425 I-0.0183 J0.3009 F2000.0
N2740 G01 X38.2521 Y-15.5401 F2000
N2750 X39.5510
N2760 G03 X40.3385 Y-16.0835 I0.7775 J0.2844 F2000.0
N2770 G01 X41.0242 Y-16.0794 F2000
N2780 G03 X40.9415 Y-14.3965 I-0.0828 J0.8394 F2000.0
N2790 G01 X40.2583 Y-14.4004 F2000
N2800 G03 X39.5597 Y-14.9161 I0.0796 J-0.8389 F2000.0
N2810 G01 X39.5510 Y-14.9399 F2000
N2820 X38.4001
N2830 X38.3994 Y20.3403
N2840 G03 X38.3194 Y20.5248 I-0.3062 J-0.0232 F2000.0
N2850 G01 X29.4213 Y30.0581 F2000
N2860 G03 X29.2100 Y30.1451 I-0.2111 J-0.2126 F2000.0
N2870 G01 X7.5906 Y30.1437 F2000
N2880 G03 X7.3199 Y29.8450 I0.0297 J-0.2989 F2000.0
N2890 G01 Y27.8150 F2000
N2900 X6.8120 Y27.8128
N2910 G03 X6.7766 Y27.7675 I0.0139 J-0.0474 F2000.0
N2920 G01 X6.7772 Y25.5665 F2000
N2930 G03 X6.8228 Y25.5251 I0.0496 J0.0088 F2000.0
N2940 G01 X7.3199 Y25.5250 F2000
N2950 Y24.4301
N2960 X-2.2399
N2970 X-2.2416 Y28.6069
N2980 G03 X-2.5400 Y28.8751 I-0.2981 J-0.0316 F2000.0
N2990 G01 X-8.9194 Y28.8737 F2000
N3000 G03 X-9.1901 Y28.5750 I0.0297 J-0.2989 F2000.0
N3010 G01 Y27.7590 F2000
N3020 G03 X-9.7335 Y26.9701 I0.2849 J-0.7779 F2000.0
N3030 G01 X-12.0944 Y26.9687 F2000
N3040 G03 X-12.2772 Y26.8822 I0.0300 J-0.2998 F2000.0
N3050 G01 X-19.3794 Y19.7800 F2000
N3060 G00 Z40.0000
N3070 X-16.0781 Y14.7434
N3080 Z1.0000
N3090 G01 Z-0.1000 F1000
N3100 G03 X-15.5950 Y14.5500 I0.4831 J0.5065 F2000.0
N3110 G01 X-14.3288 Y14.5532 F2000
N3120 G03 X-14.3950 Y15.9500 I-0.0663 J0.6968 F2000.0
N3130 G01 X-15.6612 Y15.9468 F2000
N3140 G03 X-16.0781 Y14.7434 I0.0662 J-0.6968 F2000.0
N3150 G00 Z40.0000
N3160 X-16.0774 Y7.1028
N3170 Z1.0000
N3180 G01 Z-0.1000 F1000
N3190 G03 X-15.5950 Y6.9100 I0.4825 J0.5072 F2000.0
N3200 G01 X-14.3264 Y6.9134 F2000
N3210 G03 X-13.7635 Y7.3099 I-0.0597 J0.6825 F2000.0
N3220 G01 X-6.3206 Y7.3113 F2000
N3230 G03 X-6.0499 Y7.6100 I-0.0296 J0.2988 F2000.0
N3240 G01 Y25.5810 F2000
N3250 G03 X-5.5065 Y26.3685 I-0.2850 J0.7779 F2000.0
N3260 G01 X-5.5105 Y27.0530 F2000
N3270 G03 X-7.1935 Y26.9727 I-0.8395 J-0.0816 F2000.0
N3280 G01 X-7.1895 Y26.2870 F2000
N3290 G03 X-6.6739 Y25.5897 I0.8389 J0.0811 F2000.0
N3300 G01 X-6.6501 Y25.5810 F2000
N3310 Y7.9101
N3320 X-13.7635
N3330 G03 X-14.3950 Y8.3100 I-0.6246 J-0.2877 F2000.0
N3340 G01 X-15.6648 Y8.3065 F2000
N3350 G03 X-16.0774 Y7.1028 I0.0699 J-0.6965 F2000.0
N3360 G00 Z40.0000
N3370 X-16.1250 Y-5.9028
N3380 Z1.0000
N3390 G01 Z-0.1000 F1000
N3400 G03 X-15.5950 Y-7.0600 I0.5300 J-0.4572 F2000.0
N3410 G01 X-14.3264 Y-7.0566 F2000
N3420 G03 X-13.7635 Y-6.6601 I-0.0597 J0.6825 F2000.0
N3430 G01 X-3.7806 Y-6.6587 F2000
N3440 G03 X-3.5099 Y-6.3600 I-0.0296 J0.2988 F2000.0
N3450 G01 Y25.5810 F2000
N3460 G03 X-2.9665 Y26.3685 I-0.2844 J0.7775 F2000.0
N3470 G01 X-2.9709 Y27.0566 F2000
N3480 G03 X-4.6535 Y26.9727 I-0.8391 J-0.0852 F2000.0
N3490 G01 X-4.6495 Y26.2870 F2000
N3500 G03 X-4.1339 Y25.5897 I0.8389 J0.0811 F2000.0
N3510 G01 X-4.1101 Y25.5810 F2000
N3520 Y-6.0599
N3530 X-13.7635
N3540 G03 X-14.3950 Y-5.6600 I-0.6246 J-0.2877 F2000.0
N3550 G01 X-15.6636 Y-5.6634 F2000
N3560 G03 X-16.1250 Y-5.9028 I0.0686 J-0.6966 F2000.0
N3570 G00 Z40.0000
N3580 X-16.0781 Y-13.1966
N3590 Z1.0000
N3600 G01 Z-0.1000 F1000
N3610 G03 X-15.5950 Y-13.3900 I0.4831 J0.5065 F2000.0
N3620 G01 X-14.3288 Y-13.3868 F2000
N3630 G03 X-14.3950 Y-11.9900 I-0.0663 J0.6968 F2000.0
N3640 G01 X-15.6612 Y-11.9932 F2000
N3650 G03 X-16.0781 Y-13.1966 I0.0662 J-0.6968 F2000.0
N3660 G00 Z40.0000
N3670 X-16.0777 Y-20.8370
N3680 Z1.0000
N3690 G01 Z-0.1000 F1000
N3700 G03 X-15.5950 Y-21.0300 I0.4827 J0.5070 F2000.0
N3710 G01 X-14.3264 Y-21.0266 F2000
N3720 G03 X-13.7635 Y-20.6301 I-0.0597 J0.6826 F2000.0
N3730 G01 X10.1919 Y-20.6284 F2000
N3740 G03 X10.4601 Y-20.3300 I-0.0316 J0.2982 F2000.0
N3750 G01 Y25.5810 F2000
N3760 G03 X11.0035 Y26.3685 I-0.2850 J0.7779 F2000.0
N3770 G01 X10.9994 Y27.0542 F2000
N3780 G03 X9.3165 Y26.9727 I-0.8394 J-0.0828 F2000.0
N3790 G01 X9.3205 Y26.2870 F2000
N3800 G03 X9.8361 Y25.5897 I0.8389 J0.0811 F2000.0
N3810 G01 X9.8599 Y25.5810 F2000
N3820 Y-20.0299
N3830 X-13.7635
N3840 G03 X-14.3950 Y-19.6300 I-0.6245 J-0.2876 F2000.0
N3850 G01 X-15.6636 Y-19.6334 F2000
N3860 G03 X-16.0777 Y-20.8370 I0.0686 J-0.6966 F2000.0
N3870 G00 Z40.0000
N3880 X27.4326 Y-18.3604
N3890 Z1.0000
N3900 G01 Z-0.1000 F1000
N3910 G03 X27.6613 Y-18.0801 I-0.4021 J0.5616 F2000.0
N3920 G01 X29.2230 Y-18.0798 F2000
N3930 G03 X29.4321 Y-17.9819 I-0.0150 J0.3042 F2000.0
N3940 G01 X35.7928 Y-10.9844 F2000
N3950 G03 X35.8601 Y-10.7950 I-0.2365 J0.1907 F2000.0
N3960 G01 X35.8584 Y1.9369 F2000
N3970 G03 X35.5612 Y2.2051 I-0.2980 J-0.0314 F2000.0
N3980 G01 X34.1090 F2000
N3990 G03 X33.3215 Y2.7485 I-0.7776 J-0.2845 F2000.0
N4000 G01 X32.6370 Y2.7445 F2000
N4010 G03 X32.7185 Y1.0615 I0.0815 J-0.8395 F2000.0
N4020 G01 X33.4017 Y1.0654 F2000
N4030 G03 X34.1003 Y1.5811 I-0.0796 J0.8389 F2000.0
N4040 G01 X34.1090 Y1.6049 F2000
N4050 X35.2599
N4060 Y-10.6790
N4070 X29.0772 Y-17.4799
N4080 X27.6518
N4090 X27.6077 Y-17.4021
N4100 G03 X27.0250 Y-17.0900 I-0.5831 J-0.3887 F2000.0
N4110 G01 X25.7564 Y-17.0934 F2000
N4120 G03 X25.8250 Y-18.4900 I0.0687 J-0.6966 F2000.0
N4130 G01 X27.0936 Y-18.4866 F2000
N4140 G03 X27.4326 Y-18.3604 I-0.0631 J0.6878 F2000.0
N4150 G00 Z40.0000
N4160 X27.6518 Y-15.5401
N4170 Z1.0000
N4180 G01 Z-0.1000 F1000
N4190 X29.2318 Y-15.5393 F2000
N4200 G03 X29.4379 Y-15.4353 I-0.0222 J0.3003 F2000.0
N4210 G01 X33.2535 Y-10.9835 F2000
N4220 G03 X33.3201 Y-10.7950 I-0.2328 J0.1883 F2000.0
N4230 G01 Y-1.4785 F2000
N4240 G03 X33.3227 Y0.2085 I0.0014 J0.8435 F2000.0
N4250 G01 X32.6370 Y0.2045 F2000
N4260 G03 X32.7199 Y-1.4785 I0.0816 J-0.8395 F2000.0
N4270 G01 Y-10.6840 F2000
N4280 X29.0720 Y-14.9399
N4290 X27.6613
N4300 G03 X27.0250 Y-14.5300 I-0.6322 J-0.2825 F2000.0
N4310 G01 X25.7564 Y-14.5334 F2000
N4320 G03 X25.8250 Y-15.9300 I0.0687 J-0.6966 F2000.0
N4330 G01 X27.0936 Y-15.9266 F2000
N4340 G03 X27.6518 Y-15.5401 I-0.0572 J0.6790 F2000.0
N4350 G00 Z40.0000
N4360 X27.6565 Y-4.1201
N4370 Z1.0000
N4380 G01 Z-0.1000 F1000
N4390 X29.8720 Y-4.1189 F2000
N4400 G03 X30.1451 Y-3.8200 I-0.0272 J0.2990 F2000.0
N4410 G01 Y5.4149 F2000
N4420 X35.5894 Y5.4163
N4430 G03 X35.8601 Y5.7138 I-0.0296 J0.2989 F2000.0
N4440 G01 X35.8587 Y9.5544 F2000
N4450 G03 X35.5612 Y9.8251 I-0.2991 J-0.0298 F2000.0
N4460 G01 X34.1090 F2000
N4470 G03 X33.3215 Y10.3685 I-0.7776 J-0.2846 F2000.0
N4480 G01 X32.6334 Y10.3641 F2000
N4490 G03 X32.7173 Y8.6815 I0.0852 J-0.8391 F2000.0
N4500 G01 X33.4042 Y8.6856 F2000
N4510 G03 X34.1003 Y9.2011 I-0.0828 J0.8395 F2000.0
N4520 G01 X34.1090 Y9.2249 F2000
N4530 X35.2599
N4540 Y6.0151
N4550 X29.8156 Y6.0137
N4560 G03 X29.5449 Y5.7150 I0.0293 J-0.2985 F2000.0
N4570 G01 Y-3.5199 F2000
N4580 X27.6565
N4590 G03 X27.0250 Y-3.1200 I-0.6246 J-0.2877 F2000.0
N4600 G01 X25.7540 Y-3.1237 F2000
N4610 G03 X25.8250 Y-4.5200 I0.0710 J-0.6963 F2000.0
N4620 G01 X27.0936 Y-4.5166 F2000
N4630 G03 X27.6565 Y-4.1201 I-0.0597 J0.6825 F2000.0
N4640 G00 Z40.0000
N4650 Y-1.5601
N4660 Z1.0000
N4670 G01 Z-0.1000 F1000
N4680 X28.5164 Y-1.5644 F2000
N4690 G03 X28.8751 Y-1.2700 I0.0583 J0.2946 F2000.0
N4700 G01 Y6.6849 F2000
N4710 X31.9310
N4720 G03 X32.7173 Y6.1415 I0.7774 J0.2843 F2000.0
N4730 G01 X33.4042 Y6.1456 F2000
N4740 G03 X33.3227 Y7.8285 I-0.0828 J0.8394 F2000.0
N4750 G01 X32.6370 Y7.8245 F2000
N4760 G03 X31.9397 Y7.3089 I0.0811 J-0.8390 F2000.0
N4770 G01 X31.9310 Y7.2851 F2000
N4780 X28.5456 Y7.2837
N4790 G03 X28.2749 Y6.9850 I0.0297 J-0.2990 F2000.0
N4800 G01 Y-0.9599 F2000
N4810 X27.6565
N4820 G03 X27.0250 Y-0.5600 I-0.6244 J-0.2875 F2000.0
N4830 G01 X25.7564 Y-0.5634 F2000
N4840 G03 X25.8250 Y-1.9600 I0.0686 J-0.6966 F2000.0
N4850 G01 X27.0936 Y-1.9566 F2000
N4860 G03 X27.6565 Y-1.5601 I-0.0600 J0.6829 F2000.0
N4870 G00 Z40.0000
N4880 Y9.8499
N4890 Z1.0000
N4900 G01 Z-0.1000 F1000
N4910 X29.8744 Y9.8513 F2000
N4920 G03 X30.1451 Y10.1488 I-0.0299 J0.2991 F2000.0
N4930 G01 Y14.3049 F2000
N4940 X31.9310
N4950 G03 X32.7173 Y13.7615 I0.7774 J0.2843 F2000.0
N4960 G01 X33.4042 Y13.7656 F2000
N4970 G03 X33.3227 Y15.4485 I-0.0828 J0.8394 F2000.0
N4980 G01 X32.6383 Y15.4446 F2000
N4990 G03 X31.9397 Y14.9289 I0.0796 J-0.8389 F2000.0
N5000 G01 X31.9310 Y14.9051 F2000
N5010 X29.8156 Y14.9037
N5020 G03 X29.5449 Y14.6062 I0.0299 J-0.2991 F2000.0
N5030 G01 Y10.4501 F2000
N5040 X27.6565
N5050 G03 X27.0250 Y10.8500 I-0.6246 J-0.2877 F2000.0
N5060 G01 X25.7540 Y10.8463 F2000
N5070 G03 X25.8250 Y9.4500 I0.0710 J-0.6963 F2000.0
N5080 G01 X27.0936 Y9.4534 F2000
N5090 G03 X27.6565 Y9.8499 I-0.0597 J0.6825 F2000.0
N5100 G00 Z40.0000
N5110 Y12.4099
N5120 Z1.0000
N5130 G01 Z-0.1000 F1000
N5140 X28.6056 Y12.4115 F2000
N5150 G03 X28.8751 Y12.7100 I-0.0303 J0.2983 F2000.0
N5160 G01 Y16.8449 F2000
N5170 X31.8750
N5180 X31.8762 Y16.3405
N5190 G03 X31.9250 Y16.3015 I0.0492 J0.0115 F2000.0
N5200 G01 X34.1199 Y16.3017 F2000
N5210 G03 X34.1650 Y16.3503 I-0.0051 J0.0500 F2000.0
N5220 G01 X34.1643 Y17.9470 F2000
N5230 G03 X34.1150 Y17.9885 I-0.0498 J-0.0091 F2000.0
N5240 G01 X31.9201 Y17.9883 F2000
N5250 G03 X31.8751 Y17.9422 I0.0052 J-0.0500 F2000.0
N5260 G01 X31.8750 Y17.4451 F2000
N5270 X28.5456 Y17.4437
N5280 G03 X28.2749 Y17.1462 I0.0299 J-0.2991 F2000.0
N5290 G01 Y13.0101 F2000
N5300 X27.6565
N5310 G03 X27.0250 Y13.4100 I-0.6244 J-0.2875 F2000.0
N5320 G01 X25.7564 Y13.4066 F2000
N5330 G03 X25.8250 Y12.0100 I0.0686 J-0.6966 F2000.0
N5340 G01 X27.0936 Y12.0134 F2000
N5350 G03 X27.6565 Y12.4099 I-0.0596 J0.6824 F2000.0
N5360 G00 Z40.0000
N5370 X32.1372 Y3.8339
N5380 Z1.0000
N5390 G01 Z-0.1000 F1000
N5400 G03 X32.7185 Y3.6015 I0.5815 J0.6111 F2000.0
N5410 G01 X33.4042 Y3.6056 F2000
N5420 G03 X33.3215 Y5.2885 I-0.0827 J0.8394 F2000.0
N5430 G01 X32.6346 Y5.2843 F2000
N5440 G03 X32.1372 Y3.8339 I0.0841 J-0.8393 F2000.0
N5450 (Operation: No Offset, Tool 1 -15.000000 deep, T3: chamfer mill - V cutter, 2 mm diameter, 0.1 mm Deep)
N5460 G00 Z40.0000
N5470 X-16.0781 Y0.7734
N5480 Z1.0000
N5490 G01 Z-0.1000 F1000
N5500 G03 X-15.5950 Y0.5800 I0.4831 J0.5065 F2000.0
N5510 G01 X-14.3288 Y0.5832 F2000
N5520 G03 X-14.3950 Y1.9800 I-0.0663 J0.6968 F2000.0
N5530 G01 X-15.6612 Y1.9768 F2000
N5540 (Part: encoder_diff_driver_board_DRILLS-PTH)
N5550 G03 X-16.0781 Y0.7734 I0.0662 J-0.6968 F2000.0
N5560 (Operation: Drill, Tool 1, T33: Drill, 0.8 mm diameter, 2 mm Deep)
N5570 G00 Z40.0000
N5580 M05
N5590 M6 T33  (Drill, 0.8 mm diameter)
N5600 G43 H33
N5610 G00 X-16.0781 Y0.7734 Z40.0000
N5620 M03 S15000
N5630 M08 (Flood coolant on)
N5640 X-14.9950 Y1.2800
N5650 Z1.0000
N5660 G01 Z-2.0000 F150
N5670 G00 Z40.0000
N5680 Y-1.2800
N5690 Z1.0000
N5700 G01 Z-2.0000
N5710 G00 Z40.0000
N5720 Y-3.8000
N5730 Z1.0000
N5740 G01 Z-2.0000
N5750 G00 Z40.0000
N5760 Y-6.3600
N5770 Z1.0000
N5780 G01 Z-2.0000
N5790 G00 Z40.0000
N5800 Y-12.6900
N5810 Z1.0000
N5820 G01 Z-2.0000
N5830 G00 Z40.0000
N5840 Y-15.2500
N5850 Z1.0000
N5860 G01 Z-2.0000
N5870 G00 Z40.0000
N5880 Y-17.7700
N5890 Z1.0000
N5900 G01 Z-2.0000
N5910 G00 Z40.0000
N5920 Y-20.3300
N5930 Z1.0000
N5940 G01 Z-2.0000
N5950 G00 Z40.0000
N5960 Y7.6100
N5970 Z1.0000
N5980 G01 Z-2.0000
N5990 G00 Z40.0000
N6000 Y10.1700
N6010 Z1.0000
N6020 G01 Z-2.0000
N6030 G00 Z40.0000
N6040 Y12.6900
N6050 Z1.0000
N6060 G01 Z-2.0000
N6070 G00 Z40.0000
N6080 Y15.2500
N6090 Z1.0000
N6100 G01 Z-2.0000
N6110 G00 Z40.0000
N6120 X26.4250
N6130 Z1.0000
N6140 G01 Z-2.0000
N6150 G00 Z40.0000
N6160 Y12.7100
N6170 Z1.0000
N6180 G01 Z-2.0000
N6190 G00 Z40.0000
N6200 Y10.1500
N6210 Z1.0000
N6220 G01 Z-2.0000
N6230 G00 Z40.0000
N6240 Y7.6100
N6250 Z1.0000
N6260 G01 Z-2.0000
N6270 G00 Z40.0000
N6280 Y1.2800
N6290 Z1.0000
N6300 G01 Z-2.0000
N6310 G00 Z40.0000
N6320 Y-1.2600
N6330 Z1.0000
N6340 G01 Z-2.0000
N6350 G00 Z40.0000
N6360 Y-3.8200
N6370 Z1.0000
N6380 G01 Z-2.0000
N6390 G00 Z40.0000
N6400 Y-6.3600
N6410 Z1.0000
N6420 G01 Z-2.0000
N6430 G00 Z40.0000
N6440 Y-12.6900
N6450 Z1.0000
N6460 G01 Z-2.0000
N6470 G00 Z40.0000
N6480 Y-15.2300
N6490 Z1.0000
N6500 G01 Z-2.0000
N6510 G00 Z40.0000
N6520 Y-17.7900
N6530 Z1.0000
N6540 G01 Z-2.0000
N6550 G00 Z40.0000
N6560 Y-20.3300
N6570 Z1.0000
N6580 G01 Z-2.0000
N6590 G00 Z40.0000
N6600 (Operation: Drill, Tool 2, T33: Drill, 0.8 mm diameter, 2 mm Deep)
N6610 X-1.2700 Y26.6700
N6620 Z1.0000
N6630 G01 Z-2.0000
N6640 G00 Z40.0000
N6650 X-3.8100
N6660 Z1.0000
N6670 G01 Z-2.0000
N6680 G00 Z40.0000
N6690 X-6.3500
N6700 Z1.0000
N6710 G01 Z-2.0000
N6720 G00 Z40.0000
N6730 X-8.8900
N6740 Z1.0000
N6750 G01 Z-2.0000
N6760 G00 Z40.0000
N6770 X7.6200
N6780 Z1.0000
N6790 G01 Z-2.0000
N6800 G00 Z40.0000
N6810 X10.1600
N6820 Z1.0000
N6830 G01 Z-2.0000
N6840 G00 Z40.0000
N6850 X12.7000
N6860 Z1.0000
N6870 G01 Z-2.0000
N6880 G00 Z40.0000
N6890 X33.0200 Y17.1450
N6900 Z1.0000
N6910 G01 Z-2.0000
N6920 G00 Z40.0000
N6930 Y14.6050
N6940 Z1.0000
N6950 G01 Z-2.0000
N6960 G00 Z40.0000
N6970 Y12.0650
N6980 Z1.0000
N6990 G01 Z-2.0000
N7000 G00 Z40.0000
N7010 Y9.5250
N7020 Z1.0000
N7030 G01 Z-2.0000
N7040 G00 Z40.0000
N7050 Y6.9850
N7060 Z1.0000
N7070 G01 Z-2.0000
N7080 G00 Z40.0000
N7090 Y4.4450
N7100 Z1.0000
N7110 G01 Z-2.0000
N7120 G00 Z40.0000
N7130 Y1.9050
N7140 Z1.0000
N7150 G01 Z-2.0000
N7160 G00 Z40.0000
N7170 Y-0.6350
N7180 Z1.0000
N7190 G01 Z-2.0000
N7200 G00 Z40.0000
N7210 (Operation: Drill, Tool 3, T33: Drill, 0.8 mm diameter, 2 mm Deep)
N7220 X-20.8450 Y18.2300
N7230 Z1.0000
N7240 G01 Z-2.0000
N7250 G00 Z40.0000
N7260 X-38.8450
N7270 Z1.0000
N7280 G01 Z-2.0000
N7290 G00 Z40.0000
N7300 Y-20.7700
N7310 Z1.0000
N7320 G01 Z-2.0000
N7330 G00 Z40.0000
N7340 X-20.8450
N7350 Z1.0000
N7360 G01 Z-2.0000
N7370 G00 Z40.0000
N7380 (Operation: Drill, Tool 4, T33: Drill, 0.8 mm diameter, 2 mm Deep)
N7390 X40.6400 Y-15.2400
N7400 Z1.0000
N7410 G01 Z-2.0000
N7420 G00 Z40.0000
N7430 Y-17.7800
N7440 Z1.0000
N7450 G01 Z-2.0000
N7460 G00 Z40.0000
N7470 (Part: encoder_diff_driver_board_DRILLS-NPTH)
N7480 (Operation: Drill, Tool 1, T33: Drill, 0.8 mm diameter, 2 mm Deep)
N7490 X-28.8950 Y-30.6250
N7500 Z1.0000
N7510 G01 Z-2.0000
N7520 G00 Z40.0000
N7530 Y27.3750
N7540 Z1.0000
N7550 G01 Z-2.0000
N7560 G00 Z40.0000
N7570 X41.1050
N7580 Z1.0000
N7590 G01 Z-2.0000
N7600 G00 Z40.0000
N7610 Y-30.6250
N7620 Z1.0000
N7630 G01 Z-2.0000
N7640 G00 Z40.0000
N7650 M09 (Coolant off)
N7660 M05
N7670 M05 M30
