N0010 (Filename: encoder_diff_driver_board outline.ngc)
N0020 (Post processor: LinuxCNC.scpost)
N0030 (Date: 30/10/2024)
N0040 G21 (Units: Metric)
N0050 G64 P0.001 G40 G90
N0060 F1
N0070 (Part: encoder_diff_driver_board_COPPER-BOTTOM)
N0080 (Operation: No Offset, not cutting outside edge, T7: 3 flute carbide 3 mm diameter, 1.5 mm Deep)
N0090 M6 T7  (3 flute carbide 3 mm diameter)
N0100 G43 H7
N0110 G00 Z5.0000
N0120 M03 S20000
N0130 X-38.2380 Y34.6864
N0140 Z1.0000
N0150 G01 Z0.0000 F300
N0160 X-38.2729 Y34.6513 Z-0.0231
N0170 X-38.3004 Y34.5500 Z-0.0720
N0180 Y31.4877 Z-1.5000
N0190 X-38.2999 Y-34.5570
N0200 X-38.2712 Y-34.6537
N0210 X-38.1913 Y-34.7269
N0220 X-38.1004 Y-34.7500
N0230 X61.0055 Y-34.7497
N0240 X61.1023 Y-34.7215
N0250 X61.1721 Y-34.6513
N0260 X61.1996 Y-34.5500
N0270 X61.1993 Y34.5559
N0280 X61.1711 Y34.6527
N0290 X61.0905 Y34.7269
N0300 X60.9996 Y34.7500
N0310 X-38.1063 Y34.7497
N0320 X-38.2030 Y34.7215
N0330 X-38.2380 Y34.6864
N0340 X-38.2729 Y34.6513
N0350 X-38.3004 Y34.5500
N0360 Y31.4877
N0370 G00 Z5.0000
N0380 M05
N0390 M05 M30
