N0010 (Filename: encoder_diff_driver_board 02.ngc)
N0020 (Post processor: LinuxCNC.scpost)
N0030 (Date: 30/10/2024)
N0040 G21 (Units: Metric)
N0050 G64 P0.001 G40 G90
N0060 F1
N0070 (Part: encoder_diff_driver_board_COPPER-BOTTOM)
N0080 (Operation: Inside Offset, Tool 1 -2.000000 deep, T33: PCB V cutter, 0.1 mm diameter, 0.1 mm Deep)
N0090 M6 T33  (PCB V cutter, 0.1 mm diameter)
N0100 G43 H33
N0110 G00 Z5.0000
N0120 M03 S20000
N0130 X-31.4156 Y28.8272
N0140 Z1.0000
N0150 G01 Z-0.1000 F500
N0160 X-31.5069 Y28.7165
N0170 X-31.6605 Y28.4738
N0180 X-31.7823 Y28.2139
N0190 X-31.8708 Y27.9406
N0200 X-31.9242 Y27.6586
N0210 X-31.9418 Y27.3720
N0220 X-31.9234 Y27.0854
N0230 X-31.8692 Y26.8034
N0240 X-31.7801 Y26.5305
N0250 X-31.6575 Y26.2709
N0260 X-31.5033 Y26.0286
N0270 X-31.3200 Y25.8076
N0280 X-31.1104 Y25.6113
N0290 X-30.8780 Y25.4429
N0300 X-30.6261 Y25.3049
N0310 X-30.3590 Y25.1995
N0320 X-30.0808 Y25.1285
N0330 X-29.7959 Y25.0929
N0340 X-29.5088 Y25.0933
N0350 X-29.2239 Y25.1297
N0360 X-28.9459 Y25.2015
N0370 X-28.6791 Y25.3075
N0380 X-28.4277 Y25.4462
N0390 X-28.1956 Y25.6152
N0400 X-27.9866 Y25.8121
N0410 X-27.8039 Y26.0335
N0420 X-27.6503 Y26.2762
N0430 X-27.5284 Y26.5361
N0440 X-27.4400 Y26.8094
N0450 X-27.3866 Y27.0914
N0460 X-27.3690 Y27.3780
N0470 X-27.3874 Y27.6646
N0480 X-27.4416 Y27.9466
N0490 X-27.5306 Y28.2195
N0500 X-27.6532 Y28.4791
N0510 X-27.8075 Y28.7214
N0520 X-27.9908 Y28.9424
N0530 X-28.2004 Y29.1387
N0540 X-28.4328 Y29.3071
N0550 X-28.6847 Y29.4451
N0560 X-28.9518 Y29.5505
N0570 X-29.2300 Y29.6215
N0580 X-29.5149 Y29.6571
N0590 X-29.8020 Y29.6567
N0600 X-30.0869 Y29.6203
N0610 X-30.3649 Y29.5485
N0620 X-30.6317 Y29.4425
N0630 X-30.8831 Y29.3038
N0640 X-31.1152 Y29.1348
N0650 X-31.3242 Y28.9379
N0660 X-31.4156 Y28.8272
N0670 G00 Z5.0000
N0680 X-29.4536 Y-14.1465
N0690 Z1.0000
N0700 G01 Z-0.1000
N0710 Y-13.9634
N0720 X-29.6994 Y-13.9774
N0730 X-29.9037 Y-14.0284
N0740 X-30.0975 Y-14.1127
N0750 X-30.2747 Y-14.2278
N0760 X-30.4307 Y-14.3705
N0770 X-30.5609 Y-14.5368
N0780 X-30.6621 Y-14.7224
N0790 X-30.7314 Y-14.9221
N0800 X-30.7408 Y-14.9768
N0810 X-30.3551
N0820 X-30.3117 Y-14.8536
N0830 X-30.3054 Y-14.8406
N0840 X-30.1972 Y-14.6709
N0850 X-30.1878 Y-14.6595
N0860 X-30.0536 Y-14.5297
N0870 X-30.0432 Y-14.5215
N0880 X-29.8908 Y-14.4262
N0890 X-29.8743 Y-14.4190
N0900 X-29.5903 Y-14.3397
N0910 X-29.5747 Y-14.3373
N0920 X-29.4536 Y-14.3347
N0930 Y-14.1465
N0940 G00 Z5.0000
N0950 X-30.5631 Y-15.5032
N0960 Z1.0000
N0970 G01 Z-0.1000
N0980 X-30.7408
N0990 X-30.7314 Y-15.5579
N1000 X-30.6621 Y-15.7576
N1010 X-30.5609 Y-15.9432
N1020 X-30.4316 Y-16.1084
N1030 X-30.1151 Y-16.3722
N1040 X-30.0970 Y-16.3970
N1050 X-30.0594 Y-16.4898
N1060 X-30.0556 Y-16.5236
N1070 X-30.0735 Y-16.6337
N1080 X-30.0873 Y-16.6641
N1090 X-30.1526 Y-16.7423
N1100 X-30.1790 Y-16.7610
N1110 X-30.4016 Y-16.8443
N1120 X-30.4378 Y-16.8829
N1130 X-30.4627 Y-16.9357
N1140 X-30.4722 Y-16.9988
N1150 X-30.4560 Y-18.6410
N1160 X-30.4311 Y-18.6864
N1170 X-30.3890 Y-18.7259
N1180 X-30.3362 Y-18.7508
N1190 X-30.2723 Y-18.7604
N1200 X-29.0819 Y-18.7770
N1210 X-29.0431 Y-18.7911
N1220 X-28.9600 Y-18.8582
N1230 X-28.9484 Y-18.8705
N1240 X-23.1184 Y-27.0039
N1250 X-23.0171 Y-27.0671
N1260 X-22.8273 Y-27.1068
N1270 X35.7019 Y-27.0868
N1280 X35.8020 Y-27.0439
N1290 X35.8912 Y-26.9736
N1300 X35.9591 Y-26.8827
N1310 X36.0014 Y-26.7768
N1320 X36.0164 Y-26.6594
N1330 X36.0182 Y-24.8167
N1340 X36.0216 Y-24.7966
N1350 X36.0548 Y-24.6985
N1360 X36.0722 Y-24.6719
N1370 X36.1443 Y-24.6065
N1380 X36.1713 Y-24.5920
N1390 X36.2642 Y-24.5687
N1400 X36.2795 Y-24.5668
N1410 X47.7640 Y-24.5469
N1420 X47.9380 Y-24.4539
N1430 X48.7080 Y-23.7904
N1440 X48.7272 Y-23.7791
N1450 X48.8575 Y-23.7308
N1460 X48.8791 Y-23.7268
N1470 X51.2272 Y-23.7105
N1480 X51.2725 Y-23.6857
N1490 X51.3120 Y-23.6436
N1500 X51.3369 Y-23.5908
N1510 X51.3464 Y-23.5274
N1520 X51.3472 Y-20.9125
N1530 X51.3515 Y-20.8897
N1540 X51.3983 Y-20.7690
N1550 X51.4088 Y-20.7512
N1560 X53.7547 Y-17.9590
N1570 X53.7964 Y-17.7667
N1580 X53.7765 Y21.0773
N1590 X53.7335 Y21.1776
N1600 X53.6583 Y21.2741
N1610 X52.3088 Y22.6003
N1620 X52.2077 Y22.6437
N1630 X52.0787 Y22.6618
N1640 X32.0205 Y22.6721
N1650 X31.9857 Y22.6826
N1660 X31.8997 Y22.7394
N1670 X31.8873 Y22.7501
N1680 X26.9927 Y28.2547
N1690 X25.0037 Y30.2204
N1700 X24.9027 Y30.2637
N1710 X24.7737 Y30.2818
N1720 X12.5973 Y30.2619
N1730 X12.4972 Y30.2189
N1740 X12.4080 Y30.1486
N1750 X12.3401 Y30.0577
N1760 X12.2978 Y29.9518
N1770 X12.2828 Y29.8345
N1780 X12.2824 Y28.2089
N1790 X12.2798 Y28.1912
N1800 X12.2514 Y28.0939
N1810 X12.2351 Y28.0666
N1820 X12.1645 Y27.9972
N1830 X12.1367 Y27.9812
N1840 X12.0361 Y27.9540
N1850 X12.0196 Y27.9518
N1860 X11.9355
N1870 G03 X11.7397 Y27.7604 I0.0102 J-0.2063 F500.0
N1880 G01 X11.7393 Y25.5844 F500
N1890 G03 X11.9307 Y25.3886 I0.2063 J0.0102 F500.0
N1900 G01 X13.5038 Y25.3882 F500
N1910 G03 X13.6995 Y25.5797 I-0.0107 J0.2067 F500.0
N1920 G01 X13.6999 Y27.7556 F500
N1930 G03 X13.5099 Y27.9513 I-0.2063 J-0.0102 F500.0
N1940 G01 X13.4050 Y27.9537 F500
N1950 X13.3864 Y27.9569
N1960 X13.2893 Y27.9893
N1970 X13.2628 Y28.0065
N1980 X13.1969 Y28.0783
N1990 X13.1822 Y28.1053
N2000 X13.1584 Y28.1981
N2010 X13.1564 Y28.2139
N2020 X13.1582 Y29.1583
N2030 X13.1612 Y29.1773
N2040 X13.1911 Y29.2716
N2050 X13.2088 Y29.2992
N2060 X13.2854 Y29.3689
N2070 X13.3127 Y29.3835
N2080 X13.4044 Y29.4063
N2090 X13.4196 Y29.4082
N2100 X24.5505 Y29.4002
N2110 X24.5826 Y29.3914
N2120 X24.6682 Y29.3408
N2130 X24.6808 Y29.3311
N2140 X26.3733 Y27.6382
N2150 X31.5601 Y21.8463
N2160 X31.7843 Y21.7882
N2170 X51.8590 Y21.7788
N2180 X51.8912 Y21.7700
N2190 X51.9716 Y21.7224
N2200 X51.9844 Y21.7124
N2210 X52.8804 Y20.8046
N2220 X52.8966 Y20.7758
N2230 X52.9208 Y20.6807
N2240 X52.9228 Y20.6651
N2250 X52.9197 Y-17.5401
N2260 X52.9152 Y-17.5634
N2270 X52.8707 Y-17.6756
N2280 X52.8600 Y-17.6934
N2290 X50.6260 Y-20.3047
N2300 X50.5942 Y-20.3246
N2310 X50.4950 Y-20.3510
N2320 X50.4792 Y-20.3532
N2330 X48.0920 Y-20.3695
N2340 X48.0467 Y-20.3943
N2350 X48.0072 Y-20.4364
N2360 X47.9823 Y-20.4892
N2370 X47.9727 Y-20.5528
N2380 X47.9614 Y-23.2218
N2390 X47.9507 Y-23.2567
N2400 X47.8961 Y-23.3382
N2410 X47.8844 Y-23.3513
N2420 X47.5445 Y-23.6384
N2430 X47.5241 Y-23.6499
N2440 X47.4072 Y-23.6898
N2450 X47.3869 Y-23.6932
N2460 X35.4573 Y-23.7131
N2470 X35.3572 Y-23.7561
N2480 X35.2680 Y-23.8264
N2490 X35.2001 Y-23.9173
N2500 X35.1578 Y-24.0232
N2510 X35.1428 Y-24.1406
N2520 X35.1410 Y-25.9833
N2530 X35.1375 Y-26.0038
N2540 X35.1034 Y-26.1027
N2550 X35.0861 Y-26.1289
N2560 X35.0149 Y-26.1935
N2570 X34.9882 Y-26.2079
N2580 X34.8977 Y-26.2311
N2590 X34.8820 Y-26.2331
N2600 X-22.4909 Y-26.2320
N2610 X-22.5083 Y-26.2295
N2620 X-22.5924 Y-26.2054
N2630 X-22.6162 Y-26.1926
N2640 X-22.6841 Y-26.1341
N2650 X-22.6944 Y-26.1228
N2660 X-27.9152 Y-18.7839
N2670 X-27.9265 Y-18.7410
N2680 X-27.9086 Y-18.5624
N2690 Y-16.9959
N2700 G03 X-28.1004 Y-16.8000 I-0.2065 J-0.0103 F500.0
N2710 G01 X-28.1167 Y-16.7966 F500
N2720 X-28.1834 Y-16.7733
N2730 X-28.2063 Y-16.7593
N2740 X-28.2786 Y-16.6900
N2750 X-28.2956 Y-16.6618
N2760 X-28.3250 Y-16.5589
N2770 X-28.3261 Y-16.5282
N2780 X-28.3081 Y-16.4446
N2790 X-28.2946 Y-16.4172
N2800 X-28.2223 Y-16.3314
N2810 X-28.2088 Y-16.3194
N2820 X-28.0999 Y-16.2474
N2830 X-27.9448 Y-16.1038
N2840 X-27.8155 Y-15.9366
N2850 X-27.7155 Y-15.7504
N2860 X-27.6475 Y-15.5502
N2870 X-27.6396 Y-15.5032
N2880 X-28.0257
N2890 X-28.0691 Y-15.6264
N2900 X-28.0754 Y-15.6394
N2910 X-28.1836 Y-15.8091
N2920 X-28.1930 Y-15.8205
N2930 X-28.3272 Y-15.9503
N2940 X-28.3376 Y-15.9585
N2950 X-28.4900 Y-16.0538
N2960 X-28.5095 Y-16.0618
N2970 X-28.8749 Y-16.1451
N2980 X-28.8905 Y-16.1466
N2990 X-29.6731 Y-16.1267
N3000 X-29.6932 Y-16.1229
N3010 X-29.9123 Y-16.0426
N3020 X-29.9257 Y-16.0358
N3030 X-30.0621 Y-15.9445
N3040 X-30.0724 Y-15.9359
N3050 X-30.2022 Y-15.8017
N3060 X-30.2104 Y-15.7913
N3070 X-30.3057 Y-15.6389
N3080 X-30.3117 Y-15.6264
N3090 X-30.3551 Y-15.5032
N3100 X-30.5631
N3110 G00 Z5.0000
N3120 X-29.6211 Y-18.6867
N3130 Z1.0000
N3140 G01 Z-0.1000
N3150 X-30.2856
N3160 G02 X-30.3958 Y-18.5986 I0.0004 J0.1134 F500.0
N3170 G01 X-30.3974 Y-18.5845 F500
N3180 X-30.3985 Y-16.9833
N3190 G02 X-30.3051 Y-16.8750 I0.1136 J-0.0036 F500.0
N3200 G01 X-30.2939 Y-16.8740 F500
N3210 X-28.0954 Y-16.8733
N3220 G02 X-27.9845 Y-16.9644 I-0.0000 J-0.1131 F500.0
N3230 G01 X-27.9832 Y-16.9767 F500
N3240 X-27.9828 Y-18.5849
N3250 G02 X-28.0813 Y-18.6858 I-0.1129 J0.0118 F500.0
N3260 G01 X-22.6534 Y-26.3067 F500
N3270 X35.2163
N3280 Y-24.1300
N3290 G02 X35.5440 Y-23.7684 I0.3634 J-0.0000 F500.0
N3300 G01 X47.5108 Y-23.7667 F500
N3310 X48.0464 Y-23.3101
N3320 Y-20.5399
N3330 G02 X48.1376 Y-20.4290 I0.1132 J-0.0002 F500.0
N3340 G01 X48.1499 Y-20.4278 F500
N3350 X50.6345 Y-20.4268
N3360 X52.9963 Y-17.6465
N3370 Y20.8045
N3380 X51.9391 Y21.8617
N3390 X31.7694
N3400 G02 X31.4982 Y21.9835 I0.0013 J0.3657 F500.0
N3410 G01 X26.4251 Y27.6906 F500
N3420 X24.6341 Y29.4817
N3430 X13.0829
N3440 Y27.8782
N3450 X13.5214 Y27.8779
N3460 G02 X13.6254 Y27.7786 I-0.0082 J-0.1127 F500.0
N3470 G01 X13.6262 Y25.5721 F500
N3480 G02 X13.5299 Y25.4630 I-0.1134 J0.0031 F500.0
N3490 G01 X11.9258 Y25.4618 F500
N3500 G02 X11.8142 Y25.5581 I0.0006 J0.1135 F500.0
N3510 G01 X11.8129 Y27.7649 F500
N3520 G02 X11.8989 Y27.8748 I0.1130 J0.0002 F500.0
N3530 G01 X11.9138 Y27.8767 F500
N3540 X12.3563 Y27.8780
N3550 Y29.8450
N3560 G02 X12.6840 Y30.2066 I0.3634 J-0.0001 F500.0
N3570 G01 X24.7846 Y30.2083 F500
N3580 G02 X25.0151 Y30.1258 I-0.0001 J-0.3635 F500.0
N3590 G01 X26.9464 Y28.1969 F500
N3600 X31.9328 Y22.5883
N3610 X52.0896
N3620 G02 X52.3200 Y22.5059 I-0.0002 J-0.3639 F500.0
N3630 G01 X53.6165 Y21.2118 F500
N3640 G02 X53.7212 Y20.9907 I-0.2579 J-0.2574 F500.0
N3650 G01 X53.7227 Y-17.7893 F500
N3660 G02 X53.6584 Y-17.9867 I-0.3673 J0.0105 F500.0
N3670 G01 X51.2728 Y-20.7977 F500
N3680 Y-23.5400
N3690 G02 X51.1733 Y-23.6523 I-0.1130 J-0.0001 F500.0
N3700 G01 X48.7291 Y-23.6532 F500
N3710 X47.8736 Y-24.4120
N3720 G02 X47.6805 Y-24.4915 I-0.2312 J0.2873 F500.0
N3730 G01 X35.9429 Y-24.4933 F500
N3740 Y-26.6700
N3750 G02 X35.6152 Y-27.0316 I-0.3632 J-0.0001 F500.0
N3760 G01 X-22.8408 Y-27.0333 F500
N3770 G02 X-23.1219 Y-26.8996 I0.0023 J0.3673 F500.0
N3780 G01 X-28.9892 Y-18.6867 F500
N3790 X-29.6211
N3800 G00 Z5.0000
N3810 X-27.8177 Y-14.9768
N3820 Z1.0000
N3830 G01 Z-0.1000
N3840 X-27.6400
N3850 X-27.6494 Y-14.9221
N3860 X-27.7187 Y-14.7224
N3870 X-27.8198 Y-14.5368
N3880 X-27.9501 Y-14.3705
N3890 X-28.1061 Y-14.2278
N3900 X-28.2833 Y-14.1127
N3910 X-28.4789 Y-14.0276
N3920 G03 X-28.9272 Y-13.9585 I-0.4510 J-1.4362 F500.0
N3930 G01 Y-14.3376 F500
N3940 X-28.7047 Y-14.3534
N3950 X-28.6875 Y-14.3571
N3960 X-28.4696 Y-14.4368
N3970 X-28.4562 Y-14.4436
N3980 X-28.3187 Y-14.5355
N3990 X-28.3084 Y-14.5441
N4000 X-28.1786 Y-14.6783
N4010 X-28.1704 Y-14.6887
N4020 X-28.0751 Y-14.8411
N4030 X-28.0691 Y-14.8536
N4040 X-28.0257 Y-14.9768
N4050 X-27.8177
N4060 G00 Z5.0000
N4070 X-29.3724 Y-28.3607
N4080 Z1.0000
N4090 G01 Z-0.1000
N4100 X-29.5149 Y-28.3429
N4110 X-29.8020 Y-28.3433
N4120 X-30.0869 Y-28.3797
N4130 X-30.3649 Y-28.4515
N4140 X-30.6317 Y-28.5575
N4150 X-30.8831 Y-28.6962
N4160 X-31.1152 Y-28.8652
N4170 X-31.3242 Y-29.0621
N4180 X-31.5069 Y-29.2835
N4190 X-31.6605 Y-29.5262
N4200 X-31.7823 Y-29.7861
N4210 X-31.8708 Y-30.0594
N4220 X-31.9242 Y-30.3414
N4230 X-31.9418 Y-30.6280
N4240 X-31.9234 Y-30.9146
N4250 X-31.8692 Y-31.1966
N4260 X-31.7801 Y-31.4695
N4270 X-31.6575 Y-31.7291
N4280 X-31.5033 Y-31.9714
N4290 X-31.3200 Y-32.1924
N4300 X-31.1104 Y-32.3887
N4310 X-30.8780 Y-32.5571
N4320 X-30.6261 Y-32.6951
N4330 X-30.3590 Y-32.8005
N4340 X-30.0808 Y-32.8715
N4350 X-29.7959 Y-32.9071
N4360 X-29.5088 Y-32.9067
N4370 X-29.2239 Y-32.8703
N4380 X-28.9459 Y-32.7985
N4390 X-28.6791 Y-32.6925
N4400 X-28.4277 Y-32.5538
N4410 X-28.1956 Y-32.3848
N4420 X-27.9866 Y-32.1879
N4430 X-27.8039 Y-31.9665
N4440 X-27.6503 Y-31.7238
N4450 X-27.5284 Y-31.4639
N4460 X-27.4400 Y-31.1906
N4470 X-27.3866 Y-30.9086
N4480 X-27.3690 Y-30.6220
N4490 X-27.3874 Y-30.3354
N4500 X-27.4416 Y-30.0534
N4510 X-27.5306 Y-29.7805
N4520 X-27.6532 Y-29.5209
N4530 X-27.8075 Y-29.2786
N4540 X-27.9908 Y-29.0576
N4550 X-28.2004 Y-28.8613
N4560 X-28.4328 Y-28.6929
N4570 X-28.6847 Y-28.5549
N4580 X-28.9518 Y-28.4495
N4590 X-29.2300 Y-28.3785
N4600 X-29.3724 Y-28.3607
N4610 G00 Z5.0000
N4620 X-21.2091 Y-14.6236
N4630 Z1.0000
N4640 G01 Z-0.1000
N4650 X-17.9970 Y-18.1446
N4660 X-17.8991 Y-18.1923
N4670 X-17.7484 Y-18.2169
N4680 X-16.3523 Y-18.2307
N4690 X-16.3165 Y-18.2423
N4700 X-16.2409 Y-18.2956
N4710 X-16.2288 Y-18.3068
N4720 X-16.1699 Y-18.3775
N4730 X-16.0435 Y-18.4824
N4740 X-15.8994 Y-18.5605
N4750 X-15.7429 Y-18.6088
N4760 X-15.5677 Y-18.6268
N4770 X-14.2143 Y-18.6098
N4780 X-14.0598 Y-18.5639
N4790 X-13.9148 Y-18.4874
N4800 X-13.7876 Y-18.3842
N4810 X-13.6830 Y-18.2581
N4820 X-13.6049 Y-18.1140
N4830 X-13.5565 Y-17.9575
N4840 X-13.5396 Y-17.7946
N4850 X-13.5547 Y-17.6313
N4860 X-13.6015 Y-17.4744
N4870 X-13.6780 Y-17.3294
N4880 X-13.7812 Y-17.2022
N4890 X-13.9073 Y-17.0976
N4900 X-14.0513 Y-17.0195
N4910 X-14.2079 Y-16.9712
N4920 X-14.3831 Y-16.9532
N4930 X-15.7365 Y-16.9702
N4940 X-15.8910 Y-17.0161
N4950 X-16.0349 Y-17.0920
N4960 X-16.2801 Y-17.3059
N4970 X-16.3058 Y-17.3195
N4980 X-16.3893 Y-17.3410
N4990 X-16.4056 Y-17.3430
N5000 X-17.5127 Y-17.3335
N5010 X-17.5464 Y-17.3234
N5020 X-17.6329 Y-17.2676
N5030 X-17.6454 Y-17.2570
N5040 X-23.6103 Y-10.6946
N5050 X-23.6229 Y-10.6738
N5060 X-23.6697 Y-10.5461
N5070 X-23.6736 Y-10.5244
N5080 X-23.6727 Y1.2147
N5090 X-23.6704 Y1.2314
N5100 X-23.6480 Y1.3135
N5110 G02 X-23.6183 Y1.3626 I0.1068 J-0.0310 F500.0
N5120 G01 X-23.5457 Y1.4285 F500
N5130 X-23.5189 Y1.4429
N5140 X-23.4272 Y1.4662
N5150 X-23.4114 Y1.4682
N5160 X-22.8830 Y1.4667
N5170 X-22.8665 Y1.4644
N5180 X-22.7835 Y1.4417
N5190 X-22.7536 Y1.4234
N5200 X-22.5351 Y1.1842
N5210 X-22.3912 Y1.0746
N5220 X-22.2297 Y0.9932
N5230 X-22.0561 Y0.9430
N5240 X-21.8650 Y0.9247
N5250 X-21.0912 Y0.9421
N5260 X-20.9190 Y0.9902
N5270 X-20.7570 Y1.0700
N5280 X-20.6122 Y1.1783
N5290 X-20.4899 Y1.3114
N5300 X-20.3941 Y1.4645
N5310 X-20.3280 Y1.6328
N5320 X-20.2940 Y1.8103
N5330 X-20.2933 Y1.9911
N5340 X-20.3257 Y2.1689
N5350 X-20.3902 Y2.3377
N5360 X-20.4847 Y2.4918
N5370 X-20.6058 Y2.6259
N5380 X-20.7496 Y2.7354
N5390 X-20.9111 Y2.8168
N5400 X-21.0847 Y2.8670
N5410 X-21.2758 Y2.8853
N5420 X-22.0496 Y2.8679
N5430 X-22.2217 Y2.8198
N5440 X-22.3838 Y2.7400
N5450 X-22.5288 Y2.6316
N5460 X-22.7600 Y2.3839
N5470 X-22.7911 Y2.3657
N5480 X-22.8805 Y2.3437
N5490 X-22.8947 Y2.3418
N5500 X-24.2323 Y2.3220
N5510 X-24.3328 Y2.2789
N5520 X-24.4220 Y2.2086
N5530 X-24.4899 Y2.1177
N5540 X-24.5322 Y2.0118
N5550 X-24.5472 Y1.8945
N5560 X-24.5404 Y-10.8337
N5570 X-24.4819 Y-11.0212
N5580 X-24.4270 Y-11.0961
N5590 X-21.2091 Y-14.6236
N5600 G00 Z5.0000
N5610 X-16.0197 Y-14.6083
N5620 Z1.0000
N5630 G01 Z-0.1000
N5640 G02 X-15.6498 Y-14.4705 I0.4391 J-0.6133 F500.0
N5650 G01 X-14.3741 Y-14.4668 F500
N5660 G02 X-14.3032 Y-15.9897 I-0.0015 J-0.7631 F500.0
N5670 G01 X-15.5749 Y-15.9932 F500
N5680 G02 X-16.2408 Y-15.6033 I-0.0088 J0.7485 F500.0
N5690 G01 X-17.7622 F500
N5700 G02 X-18.0171 Y-15.4971 I0.0032 J0.3667 F500.0
N5710 G01 X-21.8463 Y-11.0314 F500
N5720 X-21.8538 Y-11.0205
N5730 X-21.9134 Y-10.9111
N5740 X-21.9211 Y-10.8810
N5750 X-21.9336 Y-1.5395
N5760 G02 X-22.7773 Y-0.6801 I0.0626 J0.9053 F500.0
N5770 X-21.9621 Y0.2672 I0.9055 J0.0451
N5780 G01 X-21.2689 Y0.2717 F500
N5790 G02 X-21.2071 Y-1.5396 I-0.0001 J-0.9067 F500.0
N5800 G01 Y-10.6606 F500
N5810 X-17.5933 Y-14.8767
N5820 X-16.2514
N5830 G02 X-16.0197 Y-14.6083 I0.6708 J-0.3449 F500.0
N5840 G00 Z5.0000
N5850 X-16.1624 Y-14.6460
N5860 Z1.0000
N5870 G01 Z-0.1000 F500
N5880 X-16.2959 Y-14.7654
N5890 X-16.3229 Y-14.7796
N5900 X-16.4111 Y-14.8013
N5910 X-16.4269 Y-14.8032
N5920 X-17.5064 Y-14.7915
N5930 X-17.5415 Y-14.7804
N5940 X-17.6261 Y-14.7223
N5950 X-17.6383 Y-14.7113
N5960 X-21.0754 Y-10.7001
N5970 X-21.0870 Y-10.6799
N5980 X-21.1300 Y-10.5570
N5990 X-21.1336 Y-10.5361
N6000 X-21.1324 Y-1.7988
N6010 X-21.1278 Y-1.7753
N6020 X-21.0811 Y-1.6590
N6030 G02 X-21.0352 Y-1.6073 I0.1036 J-0.0456 F500.0
N6040 G01 X-20.7495 Y-1.4653 F500
N6050 X-20.6058 Y-1.3559
N6060 X-20.4847 Y-1.2218
N6070 X-20.3902 Y-1.0677
N6080 X-20.3257 Y-0.8989
N6090 X-20.2933 Y-0.7211
N6100 X-20.2940 Y-0.5403
N6110 X-20.3280 Y-0.3628
N6120 X-20.3941 Y-0.1945
N6130 X-20.4899 Y-0.0414
N6140 X-20.6122 Y0.0917
N6150 X-20.7570 Y0.2000
N6160 X-20.9190 Y0.2798
N6170 X-21.0933 Y0.3285
N6180 X-21.2757 Y0.3453
N6190 X-22.0496 Y0.3279
N6200 X-22.2217 Y0.2798
N6210 X-22.3838 Y0.2000
N6220 X-22.5286 Y0.0917
N6230 X-22.6508 Y-0.0414
N6240 X-22.7467 Y-0.1945
N6250 X-22.8128 Y-0.3628
N6260 X-22.8468 Y-0.5403
N6270 X-22.8475 Y-0.7211
N6280 X-22.8151 Y-0.8989
N6290 X-22.7506 Y-1.0677
N6300 X-22.6561 Y-1.2218
N6310 X-22.5350 Y-1.3559
N6320 X-22.3918 Y-1.4649
N6330 X-22.1726 Y-1.5682
N6340 X-22.1588 Y-1.5770
N6350 X-22.0545 Y-1.6650
N6360 X-22.0341 Y-1.6974
N6370 X-22.0093 Y-1.7925
N6380 X-22.0072 Y-1.8084
N6390 X-22.0004 Y-10.8377
N6400 X-21.9419 Y-11.0215
N6410 X-21.8959 Y-11.0865
N6420 X-18.0646 Y-15.5513
N6430 X-17.9891 Y-15.6105
N6440 X-17.9124 Y-15.6476
N6450 X-17.7479 Y-15.6769
N6460 X-16.3370 Y-15.6903
N6470 X-16.2965 Y-15.7055
N6480 X-16.0431 Y-15.9227
N6490 X-15.8994 Y-16.0005
N6500 X-15.7429 Y-16.0488
N6510 X-15.5725 Y-16.0666
N6520 X-14.2143 Y-16.0498
N6530 X-14.0598 Y-16.0039
N6540 X-13.9148 Y-15.9274
N6550 X-13.7876 Y-15.8242
N6560 X-13.6830 Y-15.6981
N6570 X-13.6049 Y-15.5540
N6580 X-13.5565 Y-15.3975
N6590 X-13.5396 Y-15.2346
N6600 X-13.5547 Y-15.0713
N6610 X-13.6015 Y-14.9144
N6620 X-13.6780 Y-14.7694
N6630 X-13.7812 Y-14.6422
N6640 X-13.9073 Y-14.5376
N6650 X-14.0513 Y-14.4595
N6660 X-14.2079 Y-14.4112
N6670 X-14.3783 Y-14.3934
N6680 X-15.7365 Y-14.4102
N6690 X-15.8910 Y-14.4561
N6700 X-16.0346 Y-14.5319
N6710 X-16.1624 Y-14.6460
N6720 G00 Z5.0000
N6730 X-14.8884 Y-13.5183
N6740 Z1.0000
N6750 G01 Z-0.1000
N6760 X-14.2143 Y-13.5098
N6770 X-14.0598 Y-13.4639
N6780 X-13.9160 Y-13.3881
N6790 X-13.6628 Y-13.1644
N6800 X-13.6364 Y-13.1504
N6810 X-13.5505 Y-13.1288
N6820 X-13.5350 Y-13.1269
N6830 X-10.8080 Y-13.1325
N6840 X-10.7840 Y-13.1373
N6850 X-10.7041 Y-13.1703
N6860 X-10.6804 Y-13.1874
N6870 X-10.6139 Y-13.2644
N6880 X-10.6003 Y-13.2907
N6890 X-10.5790 Y-13.3777
N6900 X-10.5772 Y-13.3926
N6910 X-10.5573 Y-22.9823
N6920 X-10.5143 Y-23.0824
N6930 X-10.4441 Y-23.1716
N6940 X-10.3530 Y-23.2395
N6950 X-10.2472 Y-23.2818
N6960 X-10.1298 Y-23.2968
N6970 X28.7169 Y-23.2768
N6980 X28.8170 Y-23.2339
N6990 X28.9062 Y-23.1636
N7000 X28.9741 Y-23.0727
N7010 X29.0164 Y-22.9668
N7020 X29.0314 Y-22.8495
N7030 X29.0319 Y-16.5677
N7040 X29.0344 Y-16.5503
N7050 X29.0614 Y-16.4563
N7060 X29.0776 Y-16.4289
N7070 X29.1495 Y-16.3574
N7080 X29.1775 Y-16.3412
N7090 X29.2781 Y-16.3140
N7100 X29.2945 Y-16.3118
N7110 X40.1469 Y-16.2919
N7120 X40.2470 Y-16.2489
N7130 X40.3362 Y-16.1786
N7140 X40.4041 Y-16.0877
N7150 X40.4464 Y-15.9818
N7160 X40.4614 Y-15.8645
N7170 X40.4619 Y16.2673
N7180 X40.4641 Y16.2838
N7190 X40.4867 Y16.3674
N7200 X40.5016 Y16.3941
N7210 X40.5790 Y16.4767
N7220 X40.6087 Y16.4945
N7230 X40.7070 Y16.5210
N7240 X40.7234 Y16.5232
N7250 X47.7228 Y16.5214
N7260 X47.7419 Y16.5184
N7270 X47.8362 Y16.4885
N7280 X47.8620 Y16.4727
N7290 X47.9222 Y16.4119
N7300 X47.9377 Y16.3859
N7310 X47.9700 Y16.2796
N7320 X47.9728 Y16.2612
N7330 Y15.4694
N7340 G03 X48.1642 Y15.2736 I0.2063 J0.0102 F500.0
N7350 G01 X51.1503 Y15.2732 F500
N7360 G03 X51.3460 Y15.4647 I-0.0107 J0.2067 F500.0
N7370 G01 X51.3464 Y18.4506 F500
N7380 G03 X51.1550 Y18.6464 I-0.2063 J-0.0102 F500.0
N7390 G01 X48.1690 Y18.6468 F500
N7400 G03 X47.9732 Y18.4554 I0.0102 J-0.2063 F500.0
N7410 G01 X47.9724 Y17.6539 F500
N7420 X47.9700 Y17.6366
N7430 X47.9429 Y17.5414
N7440 X47.9266 Y17.5139
N7450 X47.8547 Y17.4424
N7460 X47.8272 Y17.4264
N7470 X47.7301 Y17.3993
N7480 X47.7131 Y17.3969
N7490 X40.4868 Y17.3976
N7500 X40.4661 Y17.4011
N7510 X40.3573 Y17.4388
N7520 X40.3396 Y17.4483
N7530 X40.2475 Y17.5187
N7540 X40.1426 Y17.5637
N7550 X40.0303 Y17.5800
N7560 X39.9175 Y17.5667
N7570 X39.8120 Y17.5245
N7580 X39.7209 Y17.4566
N7590 X39.6507 Y17.3674
N7600 X39.6060 Y17.2631
N7610 X39.5878 Y17.1341
N7620 X39.5874 Y10.8539
N7630 X39.5842 Y10.8342
N7640 X39.5496 Y10.7290
N7650 X39.5323 Y10.7021
N7660 X39.4613 Y10.6371
N7670 X39.4340 Y10.6225
N7680 X39.3400 Y10.5988
N7690 X39.3245 Y10.5968
N7700 X27.8209 Y10.6112
N7710 X27.7844 Y10.6229
N7720 X27.7100 Y10.6757
N7730 X27.6981 Y10.6867
N7740 X27.6391 Y10.7575
N7750 X27.5127 Y10.8624
N7760 X27.3702 Y10.9397
N7770 X27.0360 Y11.0234
N7780 X27.0078 Y11.0390
N7790 X26.9275 Y11.1156
N7800 X26.9102 Y11.1446
N7810 X26.8838 Y11.2406
N7820 X26.8815 Y11.2574
N7830 X26.8819 Y11.6065
N7840 X26.8843 Y11.6234
N7850 X26.9087 Y11.7107
N7860 X26.9223 Y11.7357
N7870 X26.9855 Y11.8067
N7880 X27.0102 Y11.8237
N7890 X27.0933 Y11.8554
N7900 X27.1090 Y11.8592
N7910 X27.2028 Y11.8693
N7920 X27.3602 Y11.9161
N7930 X27.5052 Y11.9926
N7940 X27.6324 Y12.0958
N7950 X27.7370 Y12.2219
N7960 X27.8151 Y12.3660
N7970 X27.8635 Y12.5225
N7980 X27.8804 Y12.6854
N7990 X27.8653 Y12.8487
N8000 X27.8185 Y13.0056
N8010 X27.7420 Y13.1506
N8020 X27.6388 Y13.2778
N8030 X27.5127 Y13.3824
N8040 X27.3687 Y13.4605
N8050 X27.2121 Y13.5088
N8060 X27.0369 Y13.5268
N8070 X25.6835 Y13.5098
N8080 X25.5290 Y13.4639
N8090 X25.3841 Y13.3874
N8100 X25.2568 Y13.2842
N8110 X25.1522 Y13.1581
N8120 X25.0741 Y13.0140
N8130 X25.0258 Y12.8575
N8140 X25.0088 Y12.6946
N8150 X25.0240 Y12.5313
N8160 X25.0707 Y12.3744
N8170 X25.1472 Y12.2294
N8180 X25.2504 Y12.1022
N8190 X25.3765 Y11.9976
N8200 X25.5191 Y11.9203
N8210 X25.8533 Y11.8366
N8220 X25.8815 Y11.8210
N8230 X25.9617 Y11.7444
N8240 X25.9791 Y11.7149
N8250 X26.0056 Y11.6153
N8260 X26.0078 Y11.5989
N8270 X26.0066 Y11.2498
N8280 X26.0042 Y11.2328
N8290 X25.9805 Y11.1491
N8300 X25.9665 Y11.1239
N8310 X25.9012 Y11.0517
N8320 X25.8766 Y11.0350
N8330 X25.7945 Y11.0042
N8340 X25.7789 Y11.0005
N8350 X25.6863 Y10.9907
N8360 X25.5290 Y10.9439
N8370 X25.3841 Y10.8674
N8380 X25.2568 Y10.7642
N8390 X25.1522 Y10.6381
N8400 X25.0741 Y10.4940
N8410 X25.0258 Y10.3375
N8420 X25.0088 Y10.1746
N8430 X25.0240 Y10.0113
N8440 X25.0707 Y9.8544
N8450 X25.1472 Y9.7094
N8460 X25.2504 Y9.5822
N8470 X25.3765 Y9.4776
N8480 X25.5206 Y9.3995
N8490 X25.6771 Y9.3512
N8500 X25.8523 Y9.3332
N8510 X27.2057 Y9.3502
N8520 X27.3602 Y9.3961
N8530 X27.5042 Y9.4720
N8540 X27.7493 Y9.6859
N8550 X27.7755 Y9.6996
N8560 X27.8625 Y9.7213
N8570 X27.8778 Y9.7232
N8580 X39.3307 Y9.7228
N8590 X39.3482 Y9.7203
N8600 X39.4444 Y9.6925
N8610 X39.4714 Y9.6766
N8620 X39.5399 Y9.6085
N8630 X39.5562 Y9.5808
N8640 X39.5854 Y9.4771
N8650 X39.5878 Y9.4600
N8660 X39.5873 Y-2.4823
N8670 X39.5841 Y-2.5022
N8680 X39.5496 Y-2.6062
N8690 X39.5311 Y-2.6339
N8700 X39.4543 Y-2.7009
N8710 X39.4279 Y-2.7146
N8720 X39.3397 Y-2.7363
N8730 X39.3246 Y-2.7382
N8740 X27.1314 Y-2.7364
N8750 X27.1112 Y-2.7330
N8760 X27.0131 Y-2.6998
N8770 X26.9855 Y-2.6813
N8780 X26.9181 Y-2.6034
N8790 X26.9047 Y-2.5778
N8800 X26.8838 Y-2.4966
N8810 X26.8822 Y-2.4741
N8820 X26.9038 Y-2.2736
N8830 X26.9203 Y-2.2375
N8840 X26.9930 Y-2.1591
N8850 X27.0183 Y-2.1424
N8860 X27.1040 Y-2.1122
N8870 X27.1182 Y-2.1090
N8880 X27.2120 Y-2.0989
N8890 X27.3687 Y-2.0505
N8900 X27.5127 Y-1.9724
N8910 X27.6388 Y-1.8678
N8920 X27.7420 Y-1.7406
N8930 X27.8185 Y-1.5956
N8940 X27.8653 Y-1.4387
N8950 X27.8804 Y-1.2754
N8960 X27.8635 Y-1.1125
N8970 X27.8151 Y-0.9560
N8980 X27.7370 Y-0.8119
N8990 X27.6324 Y-0.6858
N9000 X27.5052 Y-0.5826
N9010 X27.3602 Y-0.5061
N9020 X27.2031 Y-0.4594
N9030 X27.0419 Y-0.4434
N9040 X25.6835 Y-0.4602
N9050 X25.5290 Y-0.5061
N9060 X25.3841 Y-0.5826
N9070 X25.2568 Y-0.6858
N9080 X25.1522 Y-0.8119
N9090 X25.0741 Y-0.9560
N9100 X25.0258 Y-1.1125
N9110 X25.0088 Y-1.2754
N9120 X25.0240 Y-1.4387
N9130 X25.0707 Y-1.5956
N9140 X25.1472 Y-1.7406
N9150 X25.2504 Y-1.8678
N9160 X25.3765 Y-1.9724
N9170 X25.5192 Y-2.0497
N9180 X25.8626 Y-2.1378
N9190 X25.8936 Y-2.1565
N9200 X25.9696 Y-2.2401
N9210 X25.9840 Y-2.2667
N9220 X26.0054 Y-2.3491
N9230 X26.0074 Y-2.3673
N9240 X25.9918 Y-2.7882
N9250 X25.9781 Y-2.8252
N9260 X25.9091 Y-2.9120
N9270 X25.8817 Y-2.9319
N9280 X25.7862 Y-2.9674
N9290 X25.7710 Y-2.9710
N9300 X25.6772 Y-2.9811
N9310 X25.5206 Y-3.0295
N9320 X25.3765 Y-3.1076
N9330 X25.2504 Y-3.2122
N9340 X25.1472 Y-3.3394
N9350 X25.0707 Y-3.4844
N9360 X25.0240 Y-3.6413
N9370 X25.0088 Y-3.8046
N9380 X25.0258 Y-3.9675
N9390 X25.0741 Y-4.1240
N9400 X25.1522 Y-4.2681
N9410 X25.2568 Y-4.3942
N9420 X25.3841 Y-4.4974
N9430 X25.5290 Y-4.5739
N9440 X25.6861 Y-4.6206
N9450 X25.8522 Y-4.6368
N9460 X27.2057 Y-4.6198
N9470 X27.3602 Y-4.5739
N9480 X27.5052 Y-4.4974
N9490 X27.6324 Y-4.3942
N9500 X27.7370 Y-4.2681
N9510 X27.8151 Y-4.1240
N9520 X27.8644 Y-3.9645
N9530 X27.9070 Y-3.7559
N9540 X27.9243 Y-3.7237
N9550 X27.9849 Y-3.6634
N9560 X28.0105 Y-3.6480
N9570 X28.1154 Y-3.6149
N9580 X28.1344 Y-3.6119
N9590 X39.3307 Y-3.6122
N9600 X39.3504 Y-3.6154
N9610 X39.4556 Y-3.6500
N9620 X39.4825 Y-3.6673
N9630 X39.5475 Y-3.7383
N9640 X39.5621 Y-3.7656
N9650 X39.5858 Y-3.8596
N9660 X39.5878 Y-3.8750
N9670 X39.5873 Y-15.1823
N9680 X39.5841 Y-15.2022
N9690 X39.5496 Y-15.3062
N9700 X39.5311 Y-15.3339
N9710 X39.4543 Y-15.4009
N9720 X39.4279 Y-15.4146
N9730 X39.3397 Y-15.4363
N9740 X39.3246 Y-15.4382
N9750 X28.1271 Y-15.4370
N9760 X28.1095 Y-15.4345
N9770 X28.0248 Y-15.4100
N9780 X27.9988 Y-15.3950
N9790 X27.9251 Y-15.3248
N9800 X27.9094 Y-15.3010
N9810 X27.8808 Y-15.2235
N9820 X27.8773 Y-15.2080
N9830 X27.8654 Y-15.0916
N9840 X27.8185 Y-14.9344
N9850 X27.7420 Y-14.7894
N9860 X27.6388 Y-14.6622
N9870 X27.5127 Y-14.5576
N9880 X27.3687 Y-14.4795
N9890 X27.2121 Y-14.4312
N9900 X27.0369 Y-14.4132
N9910 X25.6835 Y-14.4302
N9920 X25.5290 Y-14.4761
N9930 X25.3841 Y-14.5526
N9940 X25.2568 Y-14.6558
N9950 X25.1522 Y-14.7819
N9960 X25.0741 Y-14.9260
N9970 X25.0258 Y-15.0825
N9980 X25.0088 Y-15.2454
N9990 X25.0240 Y-15.4087
N10000 X25.0707 Y-15.5656
N10010 X25.1472 Y-15.7106
N10020 X25.2504 Y-15.8378
N10030 X25.3765 Y-15.9424
N10040 X25.5194 Y-16.0198
N10050 X25.8671 Y-16.1107
N10060 X25.8969 Y-16.1283
N10070 X25.9651 Y-16.2000
N10080 X25.9803 Y-16.2271
N10090 X26.0055 Y-16.3209
N10100 X26.0077 Y-16.3374
N10110 X26.0074 Y-16.6853
N10120 X26.0050 Y-16.7024
N10130 X25.9797 Y-16.7918
N10140 X25.9657 Y-16.8170
N10150 X25.9012 Y-16.8883
N10160 X25.8766 Y-16.9050
N10170 X25.7945 Y-16.9358
N10180 X25.7789 Y-16.9395
N10190 X25.6863 Y-16.9493
N10200 X25.5290 Y-16.9961
N10210 X25.3841 Y-17.0726
N10220 X25.2568 Y-17.1758
N10230 X25.1522 Y-17.3019
N10240 X25.0741 Y-17.4460
N10250 X25.0258 Y-17.6025
N10260 X25.0088 Y-17.7654
N10270 X25.0240 Y-17.9287
N10280 X25.0707 Y-18.0856
N10290 X25.1472 Y-18.2306
N10300 X25.2504 Y-18.3578
N10310 X25.3765 Y-18.4624
N10320 X25.5206 Y-18.5405
N10330 X25.6771 Y-18.5888
N10340 X25.8475 Y-18.6066
N10350 X27.2057 Y-18.5898
N10360 X27.3602 Y-18.5439
N10370 X27.5038 Y-18.4682
N10380 X27.7637 Y-18.2353
N10390 X27.7906 Y-18.2210
N10400 X27.8698 Y-18.2012
N10410 G02 X27.9282 Y-18.2022 I0.0274 J-0.1090 F500.0
N10420 G01 X28.0218 Y-18.2328 F500
N10430 X28.0471 Y-18.2483
N10440 X28.1064 Y-18.3081
N10450 X28.1218 Y-18.3336
N10460 X28.1548 Y-18.4385
N10470 X28.1577 Y-18.4582
N10480 X28.1445 Y-19.7113
N10490 X28.1315 Y-19.7490
N10500 X28.0634 Y-19.8380
N10510 X28.0374 Y-19.8580
N10520 X27.9473 Y-19.8953
N10530 X27.9154 Y-19.8996
N10540 X27.8114 Y-19.8868
N10550 X27.7824 Y-19.8755
N10560 X27.7090 Y-19.8232
N10570 X27.6972 Y-19.8122
N10580 X27.6391 Y-19.7425
N10590 X27.5127 Y-19.6376
N10600 X27.3687 Y-19.5595
N10610 X27.2121 Y-19.5112
N10620 X27.0369 Y-19.4932
N10630 X25.6835 Y-19.5102
N10640 X25.5290 Y-19.5561
N10650 X25.3853 Y-19.6319
N10660 X25.1320 Y-19.8556
N10670 X25.1055 Y-19.8696
N10680 X25.0185 Y-19.8913
N10690 X25.0032 Y-19.8932
N10700 X1.9811 Y-19.8925
N10710 X1.9611 Y-19.8892
N10720 X1.8583 Y-19.8549
N10730 X1.8319 Y-19.8378
N10740 X1.7675 Y-19.7680
N10750 X1.7527 Y-19.7408
N10760 X1.7284 Y-19.6456
N10770 X1.7264 Y-19.6300
N10780 X1.7277 Y25.3560
N10790 X1.7305 Y25.3745
N10800 X1.7587 Y25.4667
N10810 X1.7756 Y25.4940
N10820 X2.1587 Y25.8583
N10830 X2.1879 Y25.8740
N10840 X2.2734 Y25.8939
N10850 X2.3035 Y25.8936
N10860 X2.3932 Y25.8704
N10870 X2.4213 Y25.8546
N10880 X2.5058 Y25.7729
N10890 X2.5231 Y25.7433
N10900 X2.5473 Y25.6494
N10910 X2.5490 Y25.6390
N10920 X2.5643 Y25.4611
N10930 X2.6008 Y25.3599
N10940 X2.6596 Y25.2684
N10950 X2.7372 Y25.1924
N10960 X2.8299 Y25.1355
N10970 X2.9331 Y25.1005
N10980 X3.0452 Y25.0882
N10990 X3.5664
N11000 Y25.4620
N11010 X3.0226 Y25.4636
N11020 X3.0061 Y25.4659
N11030 G02 X2.9229 Y25.5751 I0.0298 J0.1090 F500.0
N11040 G01 X2.9238 Y27.7786 F500
N11050 G02 X3.0309 Y27.8780 I0.1122 J-0.0135 F500.0
N11060 G01 X3.5664 Y27.8782 F500
N11070 Y28.2504
N11080 X2.9202 Y28.2362
N11090 X2.8211 Y28.2003
N11100 X2.7295 Y28.1415
N11110 X2.6535 Y28.0639
N11120 X2.5965 Y27.9712
N11130 X2.5613 Y27.8672
N11140 X2.5250 Y27.6067
N11150 X2.5100 Y27.5739
N11160 X2.4468 Y27.5014
N11170 X2.4211 Y27.4836
N11180 X2.3285 Y27.4494
N11190 X2.2950 Y27.4466
N11200 X2.1864 Y27.4669
N11210 X2.1589 Y27.4794
N11220 X2.0920 Y27.5322
N11230 X2.0808 Y27.5435
N11240 X2.0165 Y27.6280
N11250 X1.8832 Y27.7504
N11260 X1.7301 Y27.8463
N11270 X1.5618 Y27.9124
N11280 X1.3843 Y27.9464
N11290 X1.2036 Y27.9471
N11300 X1.0257 Y27.9147
N11310 X0.8569 Y27.8502
N11320 X0.7028 Y27.7557
N11330 X0.5687 Y27.6346
N11340 X0.4592 Y27.4908
N11350 X0.3778 Y27.3293
N11360 X0.3276 Y27.1557
N11370 X0.3093 Y26.9646
N11380 X0.3267 Y26.1908
N11390 X0.3748 Y26.0187
N11400 X0.4546 Y25.8566
N11410 X0.5629 Y25.7118
N11420 X0.8087 Y25.4852
N11430 X0.8271 Y25.4542
N11440 X0.8508 Y25.3602
N11450 X0.8528 Y25.3448
N11460 X0.8728 Y-20.4523
N11470 X0.9157 Y-20.5524
N11480 X0.9859 Y-20.6416
N11490 X1.0770 Y-20.7095
N11500 X1.1828 Y-20.7518
N11510 X1.3003 Y-20.7668
N11520 X25.0764 Y-20.7812
N11530 X25.1129 Y-20.7929
N11540 X25.1874 Y-20.8457
N11550 X25.1994 Y-20.8567
N11560 X25.2501 Y-20.9175
N11570 X25.3765 Y-21.0224
N11580 X25.5206 Y-21.1005
N11590 X25.6771 Y-21.1488
N11600 X25.8523 Y-21.1668
N11610 X27.2057 Y-21.1498
N11620 X27.3602 Y-21.1039
N11630 X27.5038 Y-21.0282
N11640 X27.7637 Y-20.7953
N11650 X27.7920 Y-20.7807
N11660 X27.8860 Y-20.7595
N11670 X27.9197 Y-20.7611
N11680 X28.0257 Y-20.7960
N11690 X28.0523 Y-20.8131
N11700 X28.1168 Y-20.8829
N11710 X28.1316 Y-20.9102
N11720 X28.1558 Y-21.0054
N11730 X28.1578 Y-21.0210
N11740 X28.1573 Y-22.1673
N11750 X28.1541 Y-22.1872
N11760 X28.1196 Y-22.2912
N11770 X28.1023 Y-22.3179
N11780 X28.0313 Y-22.3829
N11790 X28.0040 Y-22.3975
N11800 X27.9100 Y-22.4212
N11810 X27.8946 Y-22.4232
N11820 X-9.4465 Y-22.4228
N11830 X-9.4628 Y-22.4206
N11840 X-9.5476 Y-22.3979
N11850 X-9.5745 Y-22.3830
N11860 X-9.6571 Y-22.3056
N11870 X-9.6749 Y-22.2758
N11880 X-9.7014 Y-22.1763
N11890 X-9.7036 Y-22.1600
N11900 X-9.7029 Y25.9785
N11910 X-9.7000 Y25.9972
N11920 X-9.6697 Y26.0952
N11930 X-9.6516 Y26.1235
N11940 X-9.5720 Y26.1950
N11950 X-9.5451 Y26.2093
N11960 X-9.4569 Y26.2313
N11970 X-9.4416 Y26.2332
N11980 X-2.4142 Y26.2320
N11990 X-2.3904 Y26.2273
N12000 X-2.2622 Y26.1743
N12010 G02 X-2.2227 Y26.1348 I-0.0575 J-0.0970 F500.0
N12020 G01 X-2.0807 Y25.8491 F500
N12030 X-1.9713 Y25.7054
N12040 X-1.8372 Y25.5843
N12050 X-1.6831 Y25.4898
N12060 X-1.5143 Y25.4253
N12070 X-1.3364 Y25.3929
N12080 X-1.1557 Y25.3936
N12090 X-0.9782 Y25.4276
N12100 X-0.8099 Y25.4937
N12110 X-0.6568 Y25.5896
N12120 X-0.5237 Y25.7118
N12130 X-0.4154 Y25.8566
N12140 X-0.3356 Y26.0188
N12150 X-0.2868 Y26.1929
N12160 X-0.2703 Y26.3707
N12170 X-0.2874 Y27.1492
N12180 X-0.3356 Y27.3212
N12190 X-0.4154 Y27.4834
N12200 X-0.5237 Y27.6282
N12210 X-0.6568 Y27.7504
N12220 X-0.8099 Y27.8463
N12230 X-0.9782 Y27.9124
N12240 X-1.1557 Y27.9464
N12250 X-1.3364 Y27.9471
N12260 X-1.5143 Y27.9147
N12270 X-1.6831 Y27.8502
N12280 X-1.8372 Y27.7557
N12290 X-1.9713 Y27.6346
N12300 X-2.0802 Y27.4915
N12310 X-2.1762 Y27.2863
N12320 X-2.1828 Y27.2751
N12330 X-2.2623 Y27.1691
N12340 G02 X-2.3129 Y27.1330 I-0.0900 J0.0727 F500.0
N12350 G01 X-2.4045 Y27.1090 F500
N12360 X-2.4201 Y27.1070
N12370 X-10.2627 Y27.0869
N12380 X-10.3628 Y27.0439
N12390 X-10.4520 Y26.9736
N12400 X-10.5199 Y26.8827
N12410 X-10.5622 Y26.7768
N12420 X-10.5772 Y26.6595
N12430 X-10.5777 Y15.9427
N12440 X-10.5799 Y15.9263
N12450 X-10.6023 Y15.8431
N12460 G02 X-10.6318 Y15.7931 I-0.1102 J0.0313 F500.0
N12470 G01 X-10.7051 Y15.7265 F500
N12480 X-10.7319 Y15.7121
N12490 X-10.8236 Y15.6888
N12500 X-10.8395 Y15.6868
N12510 X-13.6018 Y15.6990
N12520 X-13.6373 Y15.7102
N12530 X-13.7183 Y15.7660
N12540 X-13.7310 Y15.7776
N12550 X-13.7809 Y15.8375
N12560 X-13.9073 Y15.9424
N12570 X-14.0513 Y16.0205
N12580 X-14.2079 Y16.0688
N12590 X-14.3831 Y16.0868
N12600 X-15.7365 Y16.0698
N12610 X-15.8910 Y16.0239
N12620 X-16.0359 Y15.9474
N12630 X-16.1632 Y15.8442
N12640 X-16.2678 Y15.7181
N12650 X-16.3459 Y15.5740
N12660 X-16.3942 Y15.4175
N12670 X-16.4112 Y15.2546
N12680 X-16.3960 Y15.0913
N12690 X-16.3493 Y14.9344
N12700 X-16.2728 Y14.7894
N12710 X-16.1696 Y14.6622
N12720 X-16.0435 Y14.5576
N12730 X-15.8994 Y14.4795
N12740 X-15.7429 Y14.4312
N12750 X-15.5677 Y14.4132
N12760 X-14.2143 Y14.4302
N12770 X-14.0598 Y14.4761
N12780 X-13.9160 Y14.5519
N12790 X-13.6628 Y14.7756
N12800 X-13.6364 Y14.7896
N12810 X-13.5505 Y14.8112
N12820 X-13.5351 Y14.8131
N12830 X-10.8284 Y14.8117
N12840 X-10.8096 Y14.8088
N12850 X-10.7151 Y14.7793
N12860 X-10.6877 Y14.7620
N12870 X-10.6179 Y14.6870
N12880 X-10.6029 Y14.6594
N12890 X-10.5792 Y14.5654
N12900 X-10.5772 Y14.5500
N12910 X-10.5781 Y1.9703
N12920 X-10.5810 Y1.9515
N12930 X-10.6111 Y1.8547
N12940 X-10.6292 Y1.8265
N12950 X-10.7088 Y1.7550
N12960 X-10.7354 Y1.7408
N12970 X-10.8213 Y1.7189
N12980 X-10.8372 Y1.7169
N12990 X-13.6029 Y1.7294
N13000 X-13.6386 Y1.7407
N13010 X-13.7185 Y1.7961
N13020 X-13.7310 Y1.8076
N13030 X-13.7809 Y1.8675
N13040 X-13.9073 Y1.9724
N13050 X-14.0513 Y2.0505
N13060 X-14.2079 Y2.0988
N13070 X-14.3831 Y2.1168
N13080 X-15.7456 Y2.0980
N13090 X-15.8994 Y2.0505
N13100 X-16.0435 Y1.9724
N13110 X-16.1696 Y1.8678
N13120 X-16.2728 Y1.7406
N13130 X-16.3493 Y1.5956
N13140 X-16.3960 Y1.4387
N13150 X-16.4112 Y1.2754
N13160 X-16.3942 Y1.1125
N13170 X-16.3459 Y0.9560
N13180 X-16.2678 Y0.8119
N13190 X-16.1632 Y0.6858
N13200 X-16.0359 Y0.5826
N13210 X-15.8910 Y0.5061
N13220 X-15.7339 Y0.4594
N13230 X-15.5678 Y0.4432
N13240 X-14.2143 Y0.4602
N13250 X-14.0598 Y0.5061
N13260 X-13.9160 Y0.5819
N13270 X-13.6628 Y0.8056
N13280 X-13.6363 Y0.8196
N13290 X-13.5493 Y0.8413
N13300 X-13.5340 Y0.8432
N13310 X-10.8272 Y0.8414
N13320 X-10.8081 Y0.8384
N13330 X-10.7138 Y0.8085
N13340 X-10.6856 Y0.7901
N13350 X-10.6148 Y0.7100
N13360 X-10.6008 Y0.6833
N13370 X-10.5791 Y0.5951
N13380 X-10.5772 Y0.5800
N13390 X-10.5777 Y-11.9973
N13400 X-10.5804 Y-12.0154
N13410 X-10.6094 Y-12.1126
N13420 X-10.6259 Y-12.1398
N13430 X-10.6969 Y-12.2088
N13440 X-10.7243 Y-12.2245
N13450 X-10.8214 Y-12.2509
N13460 X-10.8383 Y-12.2531
N13470 X-13.6018 Y-12.2410
N13480 X-13.6373 Y-12.2298
N13490 X-13.7183 Y-12.1740
N13500 X-13.7310 Y-12.1624
N13510 X-13.7809 Y-12.1025
N13520 X-13.9073 Y-11.9976
N13530 X-14.0513 Y-11.9195
N13540 X-14.2079 Y-11.8712
N13550 X-14.3831 Y-11.8532
N13560 X-15.7365 Y-11.8702
N13570 X-15.8910 Y-11.9161
N13580 X-16.0359 Y-11.9926
N13590 X-16.1632 Y-12.0958
N13600 X-16.2678 Y-12.2219
N13610 X-16.3459 Y-12.3660
N13620 X-16.3942 Y-12.5225
N13630 X-16.4112 Y-12.6854
N13640 X-16.3960 Y-12.8487
N13650 X-16.3493 Y-13.0056
N13660 X-16.2728 Y-13.1506
N13670 X-16.1696 Y-13.2778
N13680 X-16.0435 Y-13.3824
N13690 X-15.8994 Y-13.4605
N13700 X-15.7429 Y-13.5088
N13710 X-15.5677 Y-13.5268
N13720 X-14.8884 Y-13.5183
N13730 G00 Z5.0000
N13740 X-13.9356 Y-13.3158
N13750 Z1.0000
N13760 G01 Z-0.1000
N13770 G02 X-14.3013 Y-13.4495 I-0.4309 J0.6118 F500.0
N13780 G01 X-15.5754 Y-13.4532 F500
N13790 G02 X-15.6502 Y-11.9305 I0.0001 J0.7632 F500.0
N13800 G01 X-14.3758 Y-11.9268 F500
N13810 G02 X-13.7047 Y-12.3267 I0.0073 J-0.7508 F500.0
N13820 G01 X-10.7754 F500
N13830 X-10.5037 Y-12.3348
N13840 Y0.9167
N13850 X-13.7047
N13860 G02 X-14.3013 Y0.5205 I-0.6621 J0.3496 F500.0
N13870 G01 X-15.5754 Y0.5168 F500
N13880 G02 X-15.6476 Y2.0397 I0.0000 J0.7631 F500.0
N13890 G01 X-14.3758 Y2.0432 F500
N13900 G02 X-13.7047 Y1.6433 I0.0073 J-0.7508 F500.0
N13910 G01 X-10.5037 F500
N13920 Y14.8867
N13930 X-13.7047
N13940 G02 X-14.3013 Y14.4905 I-0.6621 J0.3496 F500.0
N13950 G01 X-15.5754 Y14.4868 F500
N13960 G02 X-15.6476 Y16.0097 I0.0000 J0.7631 F500.0
N13970 G01 X-14.3758 Y16.0132 F500
N13980 G02 X-13.7047 Y15.6133 I0.0073 J-0.7508 F500.0
N13990 G01 X-10.5037 F500
N14000 Y26.6715
N14010 G02 X-10.1761 Y27.0316 I0.3637 J-0.0018 F500.0
N14020 G01 X-2.1550 Y27.0333 F500
N14030 G02 X-0.3481 Y27.0604 I0.9045 J-0.0618 F500.0
N14040 G01 X-0.3437 Y26.3685 F500
N14050 G02 X-2.1550 Y26.3067 I-0.9067 J0.0001 F500.0
N14060 G01 X-9.7771 F500
N14070 Y-22.4967
N14080 X28.2313
N14090 Y-16.2383
N14100 X26.8079
N14110 Y-17.0068
N14120 X27.0446
N14130 G02 X27.1194 Y-18.5295 I-0.0001 J-0.7632 F500.0
N14140 G01 X25.8446 Y-18.5332 F500
N14150 G02 X25.7685 Y-17.0106 I0.0000 J0.7632 F500.0
N14160 G01 X26.0813 Y-17.0074 F500
N14170 Y-16.0132
N14180 X25.8446
N14190 G02 X25.7698 Y-14.4905 I0.0001 J0.7632 F500.0
N14200 G01 X27.0459 Y-14.4868 F500
N14210 G02 X27.7613 Y-15.5117 I-0.0009 J-0.7628 F500.0
N14220 G01 X39.6613 F500
N14230 Y-3.5383
N14240 X27.7614
N14250 G02 X27.1193 Y-4.5595 I-0.7161 J-0.2622 F500.0
N14260 G01 X25.8446 Y-4.5632 F500
N14270 G02 X25.7685 Y-3.0406 I0.0001 J0.7632 F500.0
N14280 G01 X26.0813 Y-3.0374 F500
N14290 Y-2.0432
N14300 X25.8433
N14310 G02 X25.7698 Y-0.5205 I0.0014 J0.7632 F500.0
N14320 G01 X27.0446 Y-0.5168 F500
N14330 G02 X27.1194 Y-2.0395 I-0.0002 J-0.7632 F500.0
N14340 G01 X26.8079 Y-2.0426 F500
N14350 Y-2.8117
N14360 X39.6613
N14370 Y9.7967
N14380 X27.7101
N14390 G02 X27.1185 Y9.4105 I-0.6544 J0.3560 F500.0
N14400 G01 X25.8446 Y9.4068 F500
N14410 G02 X25.7685 Y10.9294 I0.0000 J0.7632 F500.0
N14420 G01 X26.0813 Y10.9326 F500
N14430 Y11.9268
N14440 X25.8446
N14450 G02 X25.7685 Y13.4493 I0.0002 J0.7632 F500.0
N14460 G01 X27.0446 Y13.4532 F500
N14470 G02 X27.1207 Y11.9307 I-0.0001 J-0.7632 F500.0
N14480 G01 X26.8079 Y11.9274 F500
N14490 Y10.9332
N14500 X27.0444
N14510 G02 X27.7206 Y10.5233 I0.0045 J-0.7553 F500.0
N14520 G01 X39.6613 F500
N14530 Y17.1465
N14540 G02 X40.3411 Y17.3233 I0.3633 J-0.0017 F500.0
N14550 G01 X48.0464 F500
N14560 X48.0465 Y18.4627
N14570 G02 X48.1378 Y18.5710 I0.1130 J-0.0027 F500.0
N14580 G01 X48.1499 Y18.5722 F500
N14590 X51.1595 Y18.5732
N14600 G02 X51.2719 Y18.4736 I0.0002 J-0.1130 F500.0
N14610 G01 X51.2728 Y15.4599 F500
N14620 G02 X51.1792 Y15.3485 I-0.1133 J0.0002 F500.0
N14630 G01 X51.1682 Y15.3475 F500
N14640 X48.1594 Y15.3468
N14650 G02 X48.0481 Y15.4406 I0.0003 J0.1134 F500.0
N14660 G01 X48.0471 Y15.4515 F500
N14670 X48.0465 Y16.5967
N14680 X40.3879
N14690 Y-15.8751
N14700 G02 X40.0603 Y-16.2366 I-0.3637 J0.0004 F500.0
N14710 G01 X28.9579 Y-16.2383 F500
N14720 Y-22.8615
N14730 G02 X28.6302 Y-23.2216 I-0.3635 J0.0017 F500.0
N14740 G01 X-10.1404 Y-23.2233 F500
N14750 G02 X-10.5020 Y-22.8956 I-0.0002 J0.3631 F500.0
N14760 G01 X-10.5037 Y-13.0631 F500
N14770 X-13.7047 Y-13.0534
N14780 G02 X-13.9356 Y-13.3158 I-0.6618 J0.3493 F500.0
N14790 G00 Z5.0000
N14800 X-13.8481 Y-17.2385
N14810 Z1.0000
N14820 G01 Z-0.1000 F500
N14830 G02 X-14.3032 Y-18.5497 I-0.5275 J-0.5515 F500.0
N14840 G01 X-15.5751 Y-18.5532 F500
N14850 G02 X-16.2514 Y-18.1433 I-0.0045 J0.7555 F500.0
N14860 G01 X-17.7605 F500
N14870 G02 X-18.0172 Y-18.0370 I0.0007 J0.3647 F500.0
N14880 G01 X-24.3794 Y-11.0392 F500
N14890 G02 X-24.4732 Y-10.8136 I0.2725 J0.2455 F500.0
N14900 G01 X-24.4737 Y1.9050 F500
N14910 G02 X-24.1460 Y2.2666 I0.3634 J-0.0000 F500.0
N14920 G01 X-22.7026 Y2.2682 F500
N14930 G02 X-21.9633 Y2.8069 I0.8300 J-0.3624 F500.0
N14940 G01 X-21.2689 Y2.8117 F500
N14950 G02 X-21.1800 Y1.0027 I-0.0001 J-0.9067 F500.0
N14960 G01 X-21.8713 Y0.9983 F500
N14970 G02 X-22.7024 Y1.5417 I-0.0105 J0.8911 F500.0
N14980 G01 X-23.7471 F500
N14990 Y-10.6546
N15000 X-17.5997 Y-17.4167
N15010 X-16.2408
N15020 G02 X-15.6494 Y-17.0305 I0.6551 J-0.3572 F500.0
N15030 G01 X-14.3741 Y-17.0268 F500
N15040 G02 X-13.8481 Y-17.2385 I-0.0015 J-0.7631 F500.0
N15050 G00 Z5.0000
N15060 X-14.4940 Y-19.5763
N15070 Z1.0000
N15080 G01 Z-0.1000 F500
N15090 X-14.2148 Y-19.5858
N15100 X-14.1978 Y-19.5887
N15110 X-14.0862 Y-19.6241
N15120 X-14.0701 Y-19.6319
N15130 X-13.8444 Y-19.7835
N15140 X-13.8307 Y-19.7959
N15150 X-13.7445 Y-19.9011
N15160 X-13.7362 Y-19.9143
N15170 X-13.6650 Y-20.0658
N15180 X-13.2770 Y-20.0562
N15190 X-13.3093 Y-19.9376
N15200 X-13.3936 Y-19.7584
N15210 X-13.5078 Y-19.5966
N15220 X-13.6483 Y-19.4571
N15230 X-13.8109 Y-19.3441
N15240 X-13.9907 Y-19.2611
N15250 X-14.1823 Y-19.2105
N15260 X-14.3825 Y-19.1932
N15270 X-14.7122
N15280 Y-19.5689
N15290 X-14.4940 Y-19.5763
N15300 G00 Z5.0000
N15310 X-13.4490 Y-20.5959
N15320 Z1.0000
N15330 G01 Z-0.1000
N15340 X-13.6617 Y-20.5982
N15350 X-13.6692 Y-20.6192
N15360 X-13.6735 Y-20.6286
N15370 X-13.7495 Y-20.7650
N15380 X-13.7605 Y-20.7794
N15390 X-13.9403 Y-20.9557
N15400 X-13.9603 Y-20.9689
N15410 X-14.2158 Y-21.0751
N15420 X-14.2339 Y-21.0797
N15430 X-14.3693 Y-21.0929
N15440 X-14.7122 Y-21.0932
N15450 Y-21.4649
N15460 X-14.1805 Y-21.4491
N15470 X-13.9907 Y-21.3989
N15480 X-13.8109 Y-21.3159
N15490 X-13.6483 Y-21.2029
N15500 X-13.5078 Y-21.0634
N15510 X-13.3936 Y-20.9016
N15520 X-13.3094 Y-20.7226
N15530 X-13.2754 Y-20.5941
N15540 X-13.4490 Y-20.5959
N15550 G00 Z5.0000
N15560 X-15.4568 Y-21.0837
N15570 Z1.0000
N15580 G01 Z-0.1000
N15590 X-15.7360 Y-21.0742
N15600 X-15.7530 Y-21.0713
N15610 X-15.8646 Y-21.0359
N15620 X-15.8807 Y-21.0281
N15630 X-16.1064 Y-20.8765
N15640 X-16.1201 Y-20.8641
N15650 X-16.2063 Y-20.7589
N15660 X-16.2146 Y-20.7457
N15670 X-16.2858 Y-20.5942
N15680 X-16.6737 Y-20.6038
N15690 X-16.6415 Y-20.7224
N15700 X-16.5572 Y-20.9016
N15710 X-16.4430 Y-21.0634
N15720 X-16.3024 Y-21.2029
N15730 X-16.1399 Y-21.3159
N15740 X-15.9600 Y-21.3989
N15750 X-15.7685 Y-21.4495
N15760 X-15.5683 Y-21.4668
N15770 X-15.2386
N15780 Y-21.0911
N15790 X-15.4568 Y-21.0837
N15800 G00 Z5.0000
N15810 X-16.5018 Y-20.0641
N15820 Z1.0000
N15830 G01 Z-0.1000
N15840 X-16.2891 Y-20.0618
N15850 X-16.2816 Y-20.0408
N15860 X-16.2773 Y-20.0314
N15870 X-16.2013 Y-19.8950
N15880 X-16.1903 Y-19.8806
N15890 X-16.0105 Y-19.7043
N15900 X-15.9905 Y-19.6911
N15910 X-15.7350 Y-19.5849
N15920 X-15.7169 Y-19.5803
N15930 X-15.5815 Y-19.5671
N15940 X-15.2386 Y-19.5668
N15950 Y-19.1951
N15960 X-15.7703 Y-19.2109
N15970 X-15.9600 Y-19.2611
N15980 X-16.1399 Y-19.3441
N15990 X-16.3024 Y-19.4571
N16000 X-16.4430 Y-19.5966
N16010 X-16.5572 Y-19.7584
N16020 X-16.6414 Y-19.9374
N16030 X-16.6754 Y-20.0659
N16040 X-16.5018 Y-20.0641
N16050 G00 Z5.0000
N16060 X-15.4568 Y-7.1137
N16070 Z1.0000
N16080 G01 Z-0.1000
N16090 X-15.7360 Y-7.1042
N16100 X-15.7530 Y-7.1013
N16110 X-15.8646 Y-7.0659
N16120 X-15.8807 Y-7.0581
N16130 X-16.1064 Y-6.9065
N16140 X-16.1201 Y-6.8941
N16150 X-16.2063 Y-6.7889
N16160 X-16.2146 Y-6.7757
N16170 X-16.2858 Y-6.6242
N16180 X-16.6737 Y-6.6338
N16190 X-16.6415 Y-6.7524
N16200 X-16.5572 Y-6.9316
N16210 X-16.4430 Y-7.0934
N16220 X-16.3024 Y-7.2329
N16230 X-16.1399 Y-7.3459
N16240 X-15.9600 Y-7.4289
N16250 X-15.7685 Y-7.4795
N16260 X-15.5683 Y-7.4968
N16270 X-15.2386
N16280 Y-7.1211
N16290 X-15.4568 Y-7.1137
N16300 G00 Z5.0000
N16310 X-16.5018 Y-6.0941
N16320 Z1.0000
N16330 G01 Z-0.1000
N16340 X-16.2891 Y-6.0918
N16350 X-16.2816 Y-6.0708
N16360 X-16.2773 Y-6.0614
N16370 X-16.2013 Y-5.9250
N16380 X-16.1903 Y-5.9106
N16390 X-16.0105 Y-5.7343
N16400 X-15.9905 Y-5.7211
N16410 X-15.7350 Y-5.6149
N16420 X-15.7169 Y-5.6103
N16430 X-15.5815 Y-5.5971
N16440 X-15.2386 Y-5.5968
N16450 Y-5.2251
N16460 X-15.7703 Y-5.2409
N16470 X-15.9600 Y-5.2911
N16480 X-16.1399 Y-5.3741
N16490 X-16.3024 Y-5.4871
N16500 X-16.4430 Y-5.6266
N16510 X-16.5572 Y-5.7884
N16520 X-16.6414 Y-5.9674
N16530 X-16.6754 Y-6.0959
N16540 X-16.5018 Y-6.0941
N16550 G00 Z5.0000
N16560 X-17.3658 Y-4.2640
N16570 Z1.0000
N16580 G01 Z-0.1000
N16590 X-16.3432 Y-4.2712
N16600 X-16.3071 Y-4.2829
N16610 X-16.2326 Y-4.3357
N16620 X-16.2206 Y-4.3467
N16630 X-16.1699 Y-4.4075
N16640 X-16.0435 Y-4.5124
N16650 X-15.8994 Y-4.5905
N16660 X-15.7429 Y-4.6388
N16670 X-15.5725 Y-4.6566
N16680 X-14.2143 Y-4.6398
N16690 X-14.0598 Y-4.5939
N16700 X-13.9148 Y-4.5174
N16710 X-13.7876 Y-4.4142
N16720 X-13.6830 Y-4.2881
N16730 X-13.6049 Y-4.1440
N16740 X-13.5565 Y-3.9875
N16750 X-13.5396 Y-3.8246
N16760 X-13.5547 Y-3.6613
N16770 X-13.6015 Y-3.5044
N16780 X-13.6780 Y-3.3594
N16790 X-13.7812 Y-3.2322
N16800 X-13.9073 Y-3.1276
N16810 X-14.0513 Y-3.0495
N16820 X-14.2079 Y-3.0012
N16830 X-14.3831 Y-2.9832
N16840 X-15.7365 Y-3.0002
N16850 X-15.8910 Y-3.0461
N16860 X-16.0347 Y-3.1219
N16870 X-16.2880 Y-3.3456
N16880 X-16.3144 Y-3.3596
N16890 X-16.4003 Y-3.3812
N16900 X-16.4164 Y-3.3831
N16910 X-17.8589 Y-3.3682
N16920 X-17.8965 Y-3.3552
N16930 X-17.9796 Y-3.2918
N16940 X-17.9997 Y-3.2658
N16950 X-18.0391 Y-3.1706
N16960 X-18.0433 Y-3.1548
N16970 X-19.2594 Y5.8659
N16980 X-19.3102 Y5.9634
N16990 X-19.4842 Y6.1474
N17000 X-19.5002 Y6.1783
N17010 X-19.5222 Y6.2875
N17020 X-19.5200 Y6.3208
N17030 X-19.4865 Y6.4171
N17040 X-19.4681 Y6.4441
N17050 X-19.3902 Y6.5115
N17060 X-19.3641 Y6.5250
N17070 X-19.2783 Y6.5463
N17080 X-19.2603 Y6.5481
N17090 X-18.9169 Y6.5330
N17100 X-18.8811 Y6.5199
N17110 X-18.7981 Y6.4558
N17120 X-18.7788 Y6.4310
N17130 X-18.7410 Y6.3441
N17140 X-18.7365 Y6.3286
N17150 X-17.5303 Y-1.4223
N17160 X-17.4786 Y-1.5203
N17170 X-17.4018 Y-1.6032
N17180 X-17.3051 Y-1.6640
N17190 X-17.1990 Y-1.6965
N17200 X-16.3484 Y-1.7090
N17210 X-16.3128 Y-1.7207
N17220 X-16.2269 Y-1.7816
N17230 X-16.2150 Y-1.7925
N17240 X-16.1633 Y-1.8541
N17250 X-16.0359 Y-1.9574
N17260 X-15.8910 Y-2.0339
N17270 X-15.7339 Y-2.0806
N17280 X-15.5678 Y-2.0968
N17290 X-14.2143 Y-2.0798
N17300 X-14.0598 Y-2.0339
N17310 X-13.9148 Y-1.9574
N17320 X-13.7876 Y-1.8542
N17330 X-13.6830 Y-1.7281
N17340 X-13.6049 Y-1.5840
N17350 X-13.5565 Y-1.4275
N17360 X-13.5396 Y-1.2646
N17370 X-13.5547 Y-1.1013
N17380 X-13.6015 Y-0.9444
N17390 X-13.6780 Y-0.7994
N17400 X-13.7812 Y-0.6722
N17410 X-13.9073 Y-0.5676
N17420 X-14.0513 Y-0.4895
N17430 X-14.2079 Y-0.4412
N17440 X-14.3831 Y-0.4232
N17450 X-15.7365 Y-0.4402
N17460 X-15.8910 Y-0.4861
N17470 X-16.0347 Y-0.5619
N17480 X-16.2867 Y-0.7853
N17490 X-16.3129 Y-0.7992
N17500 X-16.3976 Y-0.8210
N17510 X-16.4179 Y-0.8228
N17520 X-16.6037 Y-0.8093
N17530 X-16.6365 Y-0.7972
N17540 X-16.7201 Y-0.7357
N17550 X-16.7405 Y-0.7102
N17560 X-16.7819 Y-0.6158
N17570 X-16.7865 Y-0.6001
N17580 X-17.9909 Y7.1385
N17590 X-18.0421 Y7.2352
N17600 X-18.1199 Y7.3190
N17610 X-18.2136 Y7.3777
N17620 X-18.4090 Y7.4218
N17630 X-20.2539 Y7.4226
N17640 X-20.2704 Y7.4248
N17650 X-20.3570 Y7.4482
N17660 X-20.3871 Y7.4666
N17670 X-20.6057 Y7.7058
N17680 X-20.7496 Y7.8154
N17690 X-20.9111 Y7.8968
N17700 X-21.0847 Y7.9470
N17710 X-21.2758 Y7.9653
N17720 X-22.0496 Y7.9479
N17730 X-22.2217 Y7.8998
N17740 X-22.3838 Y7.8200
N17750 X-22.5286 Y7.7117
N17760 X-22.6508 Y7.5786
N17770 X-22.7467 Y7.4255
N17780 X-22.8128 Y7.2572
N17790 X-22.8468 Y7.0797
N17800 X-22.8475 Y6.8989
N17810 X-22.8149 Y6.7202
N17820 X-22.7168 Y6.4392
N17830 X-22.7156 Y6.4014
N17840 X-22.7463 Y6.2914
N17850 X-22.7625 Y6.2636
N17860 X-22.8230 Y6.2034
N17870 X-22.8491 Y6.1878
N17880 X-22.9575 Y6.1546
N17890 X-22.9761 Y6.1518
N17900 X-23.4166 Y6.1522
N17910 X-23.4362 Y6.1554
N17920 X-23.5414 Y6.1900
N17930 X-23.5693 Y6.2085
N17940 X-23.6363 Y6.2853
N17950 X-23.6500 Y6.3117
N17960 X-23.6717 Y6.3999
N17970 X-23.6736 Y6.4150
N17980 X-23.6732 Y8.8311
N17990 X-23.6710 Y8.8474
N18000 X-23.6487 Y8.9308
N18010 G02 X-23.6183 Y8.9827 I0.1071 J-0.0280 F500.0
N18020 G01 X-23.5457 Y9.0485 F500
N18030 X-23.5193 Y9.0628
N18040 X-23.4311 Y9.0859
N18050 X-23.4150 Y9.0880
N18060 X-22.8843 Y9.0869
N18070 X-22.8656 Y9.0840
N18080 X-22.7725 Y9.0550
N18090 X-22.7445 Y9.0371
N18100 X-22.5284 Y8.7981
N18110 X-22.3838 Y8.6900
N18120 X-22.2217 Y8.6102
N18130 X-22.0475 Y8.5615
N18140 X-21.8697 Y8.5449
N18150 X-21.0911 Y8.5621
N18160 X-20.9190 Y8.6102
N18170 X-20.7570 Y8.6900
N18180 X-20.6122 Y8.7983
N18190 X-20.4899 Y8.9314
N18200 X-20.3941 Y9.0845
N18210 X-20.3280 Y9.2528
N18220 X-20.2940 Y9.4303
N18230 X-20.2933 Y9.6111
N18240 X-20.3257 Y9.7889
N18250 X-20.3902 Y9.9577
N18260 X-20.4847 Y10.1118
N18270 X-20.6046 Y10.2445
N18280 X-20.8347 Y10.3993
N18290 X-20.8445 Y10.4075
N18300 X-20.9302 Y10.4950
N18310 G02 X-20.9588 Y10.5516 I0.0823 J0.0772 F500.0
N18320 G01 X-20.9675 Y10.6623 F500
N18330 X-20.9623 Y10.6925
N18340 X-20.9239 Y10.7794
N18350 X-20.9050 Y10.8037
N18360 X-20.8295 Y10.8627
N18370 X-20.8162 Y10.8706
N18380 X-20.6565 Y10.9414
N18390 X-20.4799 Y11.0576
N18400 X-20.3248 Y11.2012
N18410 X-20.1955 Y11.3684
N18420 X-20.0955 Y11.5546
N18430 X-20.0275 Y11.7548
N18440 X-20.0196 Y11.8018
N18450 X-20.4057
N18460 X-20.4491 Y11.6786
N18470 X-20.4554 Y11.6656
N18480 X-20.5636 Y11.4959
N18490 X-20.5730 Y11.4845
N18500 X-20.7072 Y11.3547
N18510 X-20.7176 Y11.3465
N18520 X-20.8700 Y11.2512
N18530 X-20.8895 Y11.2432
N18540 X-21.2549 Y11.1599
N18550 X-21.2705 Y11.1584
N18560 X-22.0531 Y11.1783
N18570 X-22.0732 Y11.1821
N18580 X-22.2923 Y11.2624
N18590 X-22.3057 Y11.2692
N18600 X-22.4421 Y11.3605
N18610 X-22.4524 Y11.3691
N18620 X-22.5822 Y11.5033
N18630 X-22.5904 Y11.5137
N18640 X-22.6857 Y11.6661
N18650 X-22.6917 Y11.6786
N18660 X-22.7351 Y11.8018
N18670 X-23.1208
N18680 X-23.1114 Y11.7471
N18690 X-23.0421 Y11.5474
N18700 X-22.9409 Y11.3618
N18710 X-22.8107 Y11.1955
N18720 X-22.6547 Y11.0528
N18730 X-22.4773 Y10.9376
N18740 X-22.3183 Y10.8671
N18750 X-22.3003 Y10.8551
N18760 X-22.2158 Y10.7744
N18770 G02 X-22.1854 Y10.7178 I-0.0792 J-0.0789 F500.0
N18780 G01 X-22.1720 Y10.6107 F500
N18790 X-22.1762 Y10.5792
N18800 X-22.2137 Y10.4870
N18810 X-22.2313 Y10.4626
N18820 X-22.3015 Y10.4030
N18830 X-22.3137 Y10.3949
N18840 X-22.3911 Y10.3555
N18850 X-22.5350 Y10.2459
N18860 X-22.7483 Y10.0097
N18870 X-22.7786 Y9.9911
N18880 X-22.8778 Y9.9641
N18890 X-22.8935 Y9.9618
N18900 X-24.2323 Y9.9420
N18910 X-24.3328 Y9.8989
N18920 X-24.4220 Y9.8286
N18930 X-24.4899 Y9.7377
N18940 X-24.5322 Y9.6318
N18950 X-24.5472 Y9.5146
N18960 X-24.5273 Y5.5928
N18970 X-24.4843 Y5.4926
N18980 X-24.4141 Y5.4034
N18990 X-24.3230 Y5.3355
N19000 X-24.2172 Y5.2932
N19010 X-24.0997 Y5.2782
N19020 X-22.9677 Y5.2775
N19030 X-22.9484 Y5.2745
N19040 X-22.8460 Y5.2417
N19050 X-22.8191 Y5.2246
N19060 X-22.7591 Y5.1603
N19070 X-22.7441 Y5.1327
N19080 X-22.7153 Y5.0189
N19090 X-22.7155 Y4.9869
N19100 X-22.7359 Y4.9114
N19110 X-22.8152 Y4.7086
N19120 X-22.8475 Y4.5311
N19130 X-22.8468 Y4.3503
N19140 X-22.8128 Y4.1728
N19150 X-22.7467 Y4.0045
N19160 X-22.6508 Y3.8514
N19170 X-22.5286 Y3.7183
N19180 X-22.3838 Y3.6100
N19190 X-22.2217 Y3.5302
N19200 X-22.0475 Y3.4815
N19210 X-21.8651 Y3.4647
N19220 X-21.0912 Y3.4821
N19230 X-20.9190 Y3.5302
N19240 X-20.7570 Y3.6100
N19250 X-20.6122 Y3.7183
N19260 X-20.4895 Y3.8518
N19270 X-20.3020 Y4.1403
N19280 X-20.2724 Y4.1646
N19290 X-20.1942 Y4.1958
N19300 G02 X-20.1390 Y4.2029 I0.0415 J-0.1045 F500.0
N19310 G01 X-20.0408 Y4.1853 F500
N19320 X-20.0118 Y4.1719
N19330 X-19.9329 Y4.1069
N19340 X-19.9144 Y4.0815
N19350 X-19.8784 Y3.9914
N19360 X-19.8745 Y3.9765
N19370 X-18.8017 Y-3.9699
N19380 X-18.7503 Y-4.0689
N19390 X-18.6738 Y-4.1523
N19400 X-18.5805 Y-4.2115
N19410 X-18.3815 Y-4.2569
N19420 X-17.3658 Y-4.2640
N19430 G00 Z5.0000
N19440 X-15.9840 Y-1.9066
N19450 Z1.0000
N19460 G01 Z-0.1000
N19470 G02 X-16.2461 Y-1.6233 I0.4020 J0.6349 F500.0
N19480 G01 X-17.0411 F500
N19490 G02 X-17.4817 Y-1.3413 I-0.0830 J0.3556 F500.0
N19500 G01 X-18.7071 Y6.6217 F500
N19510 X-20.4382
N19520 G02 X-21.1813 Y6.0826 I-0.8302 J0.3627 F500.0
N19530 G01 X-21.8719 Y6.0783 F500
N19540 G02 X-21.9608 Y7.8873 I0.0001 J0.9067 F500.0
N19550 G01 X-21.2695 Y7.8917 F500
N19560 G02 X-20.4384 Y7.3483 I0.0104 J-0.8912 F500.0
N19570 G01 X-18.3948 F500
N19580 G02 X-18.0392 Y7.0565 I-0.0035 J-0.3669 F500.0
N19590 G01 X-16.8152 Y-0.8967 F500
N19600 X-16.2461
N19610 G02 X-15.6522 Y-0.5008 I0.6622 J-0.3500 F500.0
N19620 G01 X-14.3741 Y-0.4968 F500
N19630 G02 X-14.2993 Y-2.0193 I-0.0017 J-0.7632 F500.0
N19640 G01 X-15.5750 Y-2.0232 F500
N19650 G02 X-15.9840 Y-1.9066 I-0.0069 J0.7514 F500.0
N19660 G00 Z5.0000
N19670 X-16.0151 Y-3.1943
N19680 Z1.0000
N19690 G01 Z-0.1000 F500
N19700 G02 X-15.6496 Y-3.0605 I0.4317 J-0.6128 F500.0
N19710 G01 X-14.3754 Y-3.0568 F500
N19720 G02 X-14.2993 Y-4.5793 I-0.0003 J-0.7632 F500.0
N19730 G01 X-15.5750 Y-4.5832 F500
N19740 G02 X-16.2461 Y-4.1833 I-0.0068 J0.7516 F500.0
N19750 G01 X-18.3961 F500
N19760 G02 X-18.7519 Y-3.8901 I0.0041 J0.3674 F500.0
N19770 G01 X-19.9835 Y5.3517 F500
N19780 X-24.1104
N19790 G02 X-24.4737 Y5.7120 I0.0000 J0.3633 F500.0
N19800 G01 Y9.5262 F500
N19810 Y9.5264
N19820 G02 X-24.1445 Y9.8867 I0.3632 J-0.0013 F500.0
N19830 G01 X-22.7026 Y9.8882 F500
N19840 G02 X-21.9621 Y10.4272 I0.8305 J-0.3629 F500.0
N19850 G01 X-21.2676 Y10.4317 F500
N19860 G02 X-21.1774 Y8.6231 I-0.0014 J-0.9066 F500.0
N19870 G01 X-21.8738 Y8.6184 F500
N19880 G02 X-22.7024 Y9.1617 I-0.0087 J0.8902 F500.0
N19890 G01 X-23.7471 F500
N19900 Y6.0783
N19910 X-19.6637
N19920 G02 X-19.3094 Y5.7876 I-0.0027 J-0.3645 F500.0
N19930 G01 X-18.0773 Y-3.4567 F500
N19940 X-16.2461
N19950 G02 X-16.0151 Y-3.1943 I0.6626 J-0.3504 F500.0
N19960 G00 Z5.0000
N19970 X-14.7122 Y-5.4100
N19980 Z1.0000
N19990 G01 Z-0.1000 F500
N20000 Y-5.5989
N20010 X-14.2148 Y-5.6158
N20020 X-14.1978 Y-5.6187
N20030 X-14.0862 Y-5.6541
N20040 X-14.0701 Y-5.6619
N20050 X-13.8444 Y-5.8135
N20060 X-13.8307 Y-5.8259
N20070 X-13.7445 Y-5.9311
N20080 X-13.7362 Y-5.9443
N20090 X-13.6650 Y-6.0958
N20100 X-13.2770 Y-6.0862
N20110 X-13.3093 Y-5.9676
N20120 X-13.3936 Y-5.7884
N20130 X-13.5078 Y-5.6266
N20140 X-13.6483 Y-5.4871
N20150 X-13.8109 Y-5.3741
N20160 X-13.9907 Y-5.2911
N20170 X-14.1823 Y-5.2405
N20180 X-14.3825 Y-5.2232
N20190 X-14.7122
N20200 Y-5.4100
N20210 G00 Z5.0000
N20220 X-13.4490 Y-6.6259
N20230 Z1.0000
N20240 G01 Z-0.1000
N20250 X-13.6617 Y-6.6282
N20260 X-13.6692 Y-6.6492
N20270 X-13.6735 Y-6.6586
N20280 X-13.7495 Y-6.7950
N20290 X-13.7605 Y-6.8094
N20300 X-13.9403 Y-6.9857
N20310 X-13.9603 Y-6.9989
N20320 X-14.2158 Y-7.1051
N20330 X-14.2339 Y-7.1097
N20340 X-14.3693 Y-7.1229
N20350 X-14.7122 Y-7.1232
N20360 Y-7.4949
N20370 X-14.1805 Y-7.4791
N20380 X-13.9907 Y-7.4289
N20390 X-13.8109 Y-7.3459
N20400 X-13.6483 Y-7.2329
N20410 X-13.5078 Y-7.0934
N20420 X-13.3936 Y-6.9316
N20430 X-13.3094 Y-6.7526
N20440 X-13.2754 Y-6.6241
N20450 X-13.4490 Y-6.6259
N20460 G00 Z5.0000
N20470 X-14.4753 Y6.4821
N20480 Z1.0000
N20490 G01 Z-0.1000
N20500 X-14.1805 Y6.4909
N20510 X-13.9907 Y6.5411
N20520 X-13.8109 Y6.6241
N20530 X-13.6483 Y6.7371
N20540 X-13.5078 Y6.8766
N20550 X-13.3936 Y7.0384
N20560 X-13.3094 Y7.2174
N20570 X-13.2754 Y7.3459
N20580 X-13.6617 Y7.3418
N20590 X-13.6692 Y7.3208
N20600 X-13.6735 Y7.3114
N20610 X-13.7495 Y7.1750
N20620 X-13.7605 Y7.1606
N20630 X-13.9403 Y6.9843
N20640 X-13.9603 Y6.9711
N20650 X-14.2158 Y6.8649
N20660 X-14.2339 Y6.8603
N20670 X-14.3693 Y6.8471
N20680 X-14.7122 Y6.8468
N20690 Y6.4751
N20700 X-14.4753 Y6.4821
N20710 G00 Z5.0000
N20720 X-14.4940 Y8.3637
N20730 Z1.0000
N20740 G01 Z-0.1000
N20750 X-14.2148 Y8.3542
N20760 X-14.1978 Y8.3513
N20770 X-14.0862 Y8.3159
N20780 X-14.0701 Y8.3081
N20790 X-13.8444 Y8.1565
N20800 X-13.8307 Y8.1441
N20810 X-13.7445 Y8.0389
N20820 X-13.7362 Y8.0257
N20830 X-13.6650 Y7.8742
N20840 X-13.2770 Y7.8838
N20850 X-13.3093 Y8.0024
N20860 X-13.3936 Y8.1816
N20870 X-13.5078 Y8.3434
N20880 X-13.6483 Y8.4829
N20890 X-13.8109 Y8.5959
N20900 X-13.9907 Y8.6789
N20910 X-14.1823 Y8.7295
N20920 X-14.3825 Y8.7468
N20930 X-14.7122
N20940 Y8.3711
N20950 X-14.4940 Y8.3637
N20960 G00 Z5.0000
N20970 X-13.7976 Y9.6516
N20980 Z1.0000
N20990 G01 Z-0.1000
N21000 G02 X-14.3006 Y9.3905 I-0.5779 J0.4984 F500.0
N21010 G01 X-15.5763 Y9.3868 F500
N21020 G02 X-16.2461 Y9.7867 I-0.0055 J0.7516 F500.0
N21030 G01 X-17.7619 F500
N21040 G02 X-18.0951 Y10.0087 I0.0019 J0.3639 F500.0
N21050 G01 X-19.9230 Y13.6730 F500
N21060 X-20.6724 Y13.9228
N21070 G02 X-21.1803 Y13.7027 I-0.5905 J0.6667 F500.0
N21080 G01 X-21.8719 Y13.6983 F500
N21090 G02 X-21.9608 Y15.5073 I0.0002 J0.9067 F500.0
N21100 G01 X-21.2691 Y15.5117 F500
N21110 G02 X-20.3629 Y14.5854 I0.0027 J-0.9038 F500.0
N21120 G01 X-19.5505 Y14.3146 F500
N21130 G02 X-19.3588 Y14.1648 I-0.1148 J-0.3445 F500.0
N21140 G01 X-17.5309 Y10.5133 F500
N21150 X-16.2461
N21160 G02 X-15.6509 Y10.9094 I0.6627 J-0.3506 F500.0
N21170 G01 X-14.3754 Y10.9132 F500
N21180 G02 X-13.7976 Y9.6516 I-0.0001 J-0.7632 F500.0
N21190 G00 Z5.0000
N21200 X-13.7353 Y9.6189
N21210 Z1.0000
N21220 G01 Z-0.1000 F500
N21230 X-13.6830 Y9.6819
N21240 X-13.6049 Y9.8260
N21250 X-13.5565 Y9.9825
N21260 X-13.5396 Y10.1454
N21270 X-13.5547 Y10.3087
N21280 X-13.6015 Y10.4656
N21290 X-13.6780 Y10.6106
N21300 X-13.7812 Y10.7378
N21310 X-13.9073 Y10.8424
N21320 X-14.0513 Y10.9205
N21330 X-14.2079 Y10.9688
N21340 X-14.3831 Y10.9868
N21350 X-15.7365 Y10.9698
N21360 X-15.8910 Y10.9239
N21370 X-16.0347 Y10.8481
N21380 X-16.2880 Y10.6244
N21390 X-16.3147 Y10.6104
N21400 X-16.4029 Y10.5887
N21410 X-16.4180 Y10.5868
N21420 X-17.3301 Y10.5873
N21430 X-17.3497 Y10.5904
N21440 X-17.4553 Y10.6248
N21450 X-17.4833 Y10.6434
N21460 X-17.5493 Y10.7191
N21470 X-17.5581 Y10.7321
N21480 X-19.3390 Y14.2568
N21490 X-19.4209 Y14.3298
N21500 X-19.5377 Y14.3879
N21510 X-20.1409 Y14.5894
N21520 X-20.1569 Y14.5974
N21530 X-20.2403 Y14.6553
N21540 X-20.2613 Y14.6800
N21550 X-20.3055 Y14.7728
N21560 X-20.3105 Y14.7878
N21570 X-20.3280 Y14.8770
N21580 X-20.3941 Y15.0455
N21590 X-20.4899 Y15.1986
N21600 X-20.6122 Y15.3317
N21610 X-20.7570 Y15.4400
N21620 X-20.9190 Y15.5198
N21630 X-21.0933 Y15.5685
N21640 X-21.2757 Y15.5853
N21650 X-22.0496 Y15.5679
N21660 X-22.2217 Y15.5198
N21670 X-22.3838 Y15.4400
N21680 X-22.5286 Y15.3317
N21690 X-22.6508 Y15.1986
N21700 X-22.7467 Y15.0455
N21710 X-22.8128 Y14.8772
N21720 X-22.8468 Y14.6997
N21730 X-22.8475 Y14.5189
N21740 X-22.8151 Y14.3411
N21750 X-22.7506 Y14.1723
N21760 X-22.6561 Y14.0182
N21770 X-22.5362 Y13.8855
N21780 X-22.3051 Y13.7301
N21790 X-22.2933 Y13.7199
N21800 X-22.1982 Y13.6139
N21810 X-22.1825 Y13.5793
N21820 X-22.1706 Y13.4812
N21830 X-22.1744 Y13.4509
N21840 X-22.2069 Y13.3667
N21850 X-22.2248 Y13.3413
N21860 X-22.3102 Y13.2685
N21870 X-22.3256 Y13.2588
N21880 X-22.4843 Y13.1886
N21890 X-22.6609 Y13.0724
N21900 X-22.8159 Y12.9288
N21910 X-22.9453 Y12.7616
N21920 X-23.0453 Y12.5754
N21930 X-23.1133 Y12.3752
N21940 X-23.1212 Y12.3282
N21950 X-22.7351
N21960 X-22.6917 Y12.4514
N21970 X-22.6854 Y12.4644
N21980 X-22.5772 Y12.6341
N21990 X-22.5678 Y12.6455
N22000 X-22.4336 Y12.7753
N22010 X-22.4232 Y12.7835
N22020 X-22.2708 Y12.8788
N22030 X-22.2513 Y12.8868
N22040 X-21.8859 Y12.9701
N22050 X-21.8703 Y12.9716
N22060 X-21.0876 Y12.9517
N22070 X-21.0675 Y12.9479
N22080 X-20.8485 Y12.8676
N22090 X-20.8351 Y12.8608
N22100 X-20.6987 Y12.7695
N22110 X-20.6884 Y12.7609
N22120 X-20.5586 Y12.6267
N22130 X-20.5504 Y12.6163
N22140 X-20.4551 Y12.4639
N22150 X-20.4491 Y12.4514
N22160 X-20.4057 Y12.3282
N22170 X-20.0200
N22180 X-20.0294 Y12.3829
N22190 X-20.0987 Y12.5826
N22200 X-20.1998 Y12.7682
N22210 X-20.3301 Y12.9345
N22220 X-20.4861 Y13.0772
N22230 X-20.6635 Y13.1924
N22240 X-20.8225 Y13.2629
N22250 X-20.8420 Y13.2764
N22260 X-20.9361 Y13.3724
N22270 X-20.9532 Y13.4057
N22280 X-20.9707 Y13.5053
N22290 X-20.9678 Y13.5380
N22300 X-20.9313 Y13.6374
N22310 X-20.9140 Y13.6628
N22320 X-20.8511 Y13.7188
N22330 X-20.8348 Y13.7293
N22340 X-20.6686 Y13.8033
N22350 X-20.6385 Y13.8086
N22360 X-20.5512 Y13.8025
N22370 X-20.5347 Y13.7991
N22380 X-20.0253 Y13.6201
N22390 X-19.9988 Y13.6022
N22400 X-19.9378 Y13.5329
N22410 X-19.9287 Y13.5194
N22420 X-18.1355 Y9.9290
N22430 X-18.0641 Y9.8384
N22440 X-17.9730 Y9.7705
N22450 X-17.8672 Y9.7282
N22460 X-17.7495 Y9.7131
N22470 X-16.3453 Y9.6997
N22480 X-16.3098 Y9.6883
N22490 X-16.2339 Y9.6354
N22500 X-16.2216 Y9.6242
N22510 X-16.1700 Y9.5625
N22520 X-16.0435 Y9.4576
N22530 X-15.8994 Y9.3795
N22540 X-15.7429 Y9.3312
N22550 X-15.5677 Y9.3132
N22560 X-14.2143 Y9.3302
N22570 X-14.0598 Y9.3761
N22580 X-13.9148 Y9.4526
N22590 X-13.7876 Y9.5558
N22600 X-13.7353 Y9.6189
N22610 G00 Z5.0000
N22620 X-14.8884 Y11.8817
N22630 Z1.0000
N22640 G01 Z-0.1000
N22650 X-14.2143 Y11.8902
N22660 X-14.0598 Y11.9361
N22670 X-13.9148 Y12.0126
N22680 X-13.7876 Y12.1158
N22690 X-13.6830 Y12.2419
N22700 X-13.6049 Y12.3860
N22710 X-13.5565 Y12.5425
N22720 X-13.5396 Y12.7054
N22730 X-13.5547 Y12.8687
N22740 X-13.6015 Y13.0256
N22750 X-13.6780 Y13.1706
N22760 X-13.7812 Y13.2978
N22770 X-13.9073 Y13.4024
N22780 X-14.0513 Y13.4805
N22790 X-14.2079 Y13.5288
N22800 X-14.3831 Y13.5468
N22810 X-15.7365 Y13.5298
N22820 X-15.8910 Y13.4839
N22830 X-16.0347 Y13.4081
N22840 X-16.2867 Y13.1847
N22850 X-16.3130 Y13.1708
N22860 X-16.3989 Y13.1489
N22870 X-16.4147 Y13.1469
N22880 X-16.6731 Y13.1476
N22890 X-16.6954 Y13.1518
N22900 X-16.8134 Y13.1968
N22910 X-16.8412 Y13.2176
N22920 X-16.8983 Y13.2929
N22930 X-16.9060 Y13.3060
N22940 X-18.6786 Y17.3972
N22950 X-18.7538 Y17.4784
N22960 X-18.8473 Y17.5373
N22970 X-19.0440 Y17.5818
N22980 X-20.0327 Y17.5823
N22990 X-20.0505 Y17.5849
N23000 X-20.1466 Y17.6132
N23010 X-20.1738 Y17.6295
N23020 X-20.2432 Y17.7001
N23030 X-20.2592 Y17.7279
N23040 X-20.2864 Y17.8285
N23050 X-20.2886 Y17.8450
N23060 Y17.9291
N23070 G03 X-20.4800 Y18.1249 I-0.2063 J-0.0102 F500.0
N23080 G01 X-22.6560 Y18.1253 F500
N23090 G03 X-22.8518 Y17.9339 I0.0102 J-0.2063 F500.0
N23100 G01 X-22.8522 Y16.3609 F500
N23110 G03 X-22.6608 Y16.1651 I0.2063 J0.0102 F500.0
N23120 G01 X-20.4847 Y16.1647 F500
N23130 G03 X-20.2891 Y16.3543 I-0.0107 J0.2067 F500.0
N23140 G01 X-20.2886 Y16.4454 F500
N23150 X-20.2860 Y16.4627
N23160 X-20.2550 Y16.5692
N23170 X-20.2390 Y16.5963
N23180 X-20.1784 Y16.6566
N23190 X-20.1530 Y16.6720
N23200 X-20.0493 Y16.7050
N23210 X-20.0301 Y16.7080
N23220 X-19.4841 Y16.7076
N23230 X-19.4645 Y16.7044
N23240 X-19.3651 Y16.6720
N23250 G02 X-19.3136 Y16.6363 I-0.0359 J-0.1070 F500.0
N23260 G01 X-19.2574 Y16.5619 F500
N23270 X-19.2498 Y16.5490
N23280 X-17.4772 Y12.4578
N23290 X-17.4020 Y12.3766
N23300 X-17.3084 Y12.3177
N23310 X-17.1113 Y12.2730
N23320 X-16.3424 Y12.2588
N23330 X-16.3071 Y12.2471
N23340 X-16.2326 Y12.1943
N23350 X-16.2206 Y12.1833
N23360 X-16.1699 Y12.1225
N23370 X-16.0435 Y12.0176
N23380 X-15.8994 Y11.9395
N23390 X-15.7429 Y11.8912
N23400 X-15.5677 Y11.8732
N23410 X-14.8884 Y11.8817
N23420 G00 Z5.0000
N23430 X-15.4755 Y8.7379
N23440 Z1.0000
N23450 G01 Z-0.1000
N23460 X-15.7703 Y8.7291
N23470 X-15.9600 Y8.6789
N23480 X-16.1399 Y8.5959
N23490 X-16.3024 Y8.4829
N23500 X-16.4430 Y8.3434
N23510 X-16.5572 Y8.1816
N23520 X-16.6414 Y8.0026
N23530 X-16.6754 Y7.8741
N23540 X-16.2891 Y7.8782
N23550 X-16.2816 Y7.8992
N23560 X-16.2773 Y7.9086
N23570 X-16.2013 Y8.0450
N23580 X-16.1903 Y8.0594
N23590 X-16.0105 Y8.2357
N23600 X-15.9905 Y8.2489
N23610 X-15.7350 Y8.3551
N23620 X-15.7169 Y8.3597
N23630 X-15.5815 Y8.3729
N23640 X-15.2386 Y8.3732
N23650 Y8.7449
N23660 X-15.4755 Y8.7379
N23670 G00 Z5.0000
N23680 X-15.4568 Y6.8563
N23690 Z1.0000
N23700 G01 Z-0.1000
N23710 X-15.7360 Y6.8658
N23720 X-15.7530 Y6.8687
N23730 X-15.8646 Y6.9041
N23740 X-15.8807 Y6.9119
N23750 X-16.1064 Y7.0635
N23760 X-16.1201 Y7.0759
N23770 X-16.2063 Y7.1811
N23780 X-16.2146 Y7.1943
N23790 X-16.2858 Y7.3458
N23800 X-16.6737 Y7.3362
N23810 X-16.6415 Y7.2176
N23820 X-16.5572 Y7.0384
N23830 X-16.4430 Y6.8766
N23840 X-16.3024 Y6.7371
N23850 X-16.1399 Y6.6241
N23860 X-15.9600 Y6.5411
N23870 X-15.7685 Y6.4905
N23880 X-15.5683 Y6.4732
N23890 X-15.2386
N23900 Y6.8489
N23910 X-15.4568 Y6.8563
N23920 G00 Z5.0000
N23930 X-15.9839 Y12.0634
N23940 Z1.0000
N23950 G01 Z-0.1000
N23960 G02 X-16.2461 Y12.3467 I0.4021 J0.6350 F500.0
N23970 G01 X-17.1254 F500
N23980 X-17.1409 Y12.3487
N23990 X-17.2834 Y12.3847
N24000 X-17.3101 Y12.3989
N24010 X-17.4149 Y12.4930
N24020 X-17.4307 Y12.5150
N24030 X-19.2697 Y16.7817
N24040 X-20.3622
N24050 X-20.3625 Y16.3429
N24060 G02 X-20.4587 Y16.2395 I-0.1131 J0.0088 F500.0
N24070 G01 X-22.6655 Y16.2383 F500
N24080 G02 X-22.7763 Y16.3292 I0.0002 J0.1132 F500.0
N24090 G01 X-22.7776 Y16.3417 F500
N24100 X-22.7785 Y17.9416
N24110 G02 X-22.6823 Y18.0504 I0.1135 J-0.0034 F500.0
N24120 G01 X-20.4755 Y18.0517 F500
N24130 G02 X-20.3656 Y17.9657 I0.0002 J-0.1130 F500.0
N24140 G01 X-20.3637 Y17.9508 F500
N24150 X-20.3624 Y17.5083
N24160 X-19.0292
N24170 X-19.0166 Y17.5070
N24180 X-18.9018 Y17.4837
N24190 X-18.8901 Y17.4801
N24200 G02 X-18.7122 Y17.3203 I-0.1394 J-0.3340 F500.0
N24210 G01 X-16.8861 Y13.0733 F500
N24220 X-16.2461
N24230 G02 X-15.6522 Y13.4692 I0.6622 J-0.3500 F500.0
N24240 G01 X-14.3754 Y13.4732 F500
N24250 G02 X-14.3006 Y11.9505 I-0.0001 J-0.7632 F500.0
N24260 G01 X-15.5750 Y11.9468 F500
N24270 G02 X-15.9839 Y12.0634 I-0.0068 J0.7516 F500.0
N24280 G00 Z5.0000
N24290 X-20.6437 Y5.1017
N24300 Z1.0000
N24310 G01 Z-0.1000 F500
N24320 G02 X-21.1800 Y3.5427 I-0.6252 J-0.6566 F500.0
N24330 G01 X-21.8719 Y3.5383 F500
N24340 G02 X-21.9621 Y5.3472 I0.0002 J0.9067 F500.0
N24350 G01 X-21.2689 Y5.3517 F500
N24360 G02 X-20.6437 Y5.1017 I-0.0000 J-0.9066 F500.0
N24370 G00 Z5.0000
N24380 X1.0333 Y-20.5875
N24390 Z1.0000
N24400 G01 Z-0.1000 F500
N24410 G02 X0.9263 Y-20.3330 I0.2562 J0.2573 F500.0
N24420 G01 Y25.5378 F500
N24430 G02 X0.3872 Y26.2809 I0.3634 J0.8307 F500.0
N24440 G01 X0.3829 Y26.9715 F500
N24450 G02 X2.1919 Y27.0604 I0.9066 J-0.0000 F500.0
N24460 G01 X2.1963 Y26.3691 F500
N24470 G02 X1.6529 Y25.5380 I-0.8909 J-0.0106 F500.0
N24480 G01 Y-19.9667 F500
N24490 X25.1739
N24500 G02 X25.7705 Y-19.5705 I0.6624 J-0.3500 F500.0
N24510 G01 X27.0446 Y-19.5668 F500
N24520 G02 X27.1194 Y-21.0895 I-0.0000 J-0.7632 F500.0
N24530 G01 X25.8450 Y-21.0932 F500
N24540 G02 X25.1739 Y-20.6933 I-0.0069 J0.7515 F500.0
N24550 G01 X1.2882 F500
N24560 G02 X1.0333 Y-20.5875 I0.0013 J0.3632 F500.0
N24570 G00 Z5.0000
N24580 X4.3888 Y25.0961
N24590 Z1.0000
N24600 G01 Z-0.1000 F500
N24610 X4.7390 Y25.1038
N24620 X4.8381 Y25.1397
N24630 X4.9297 Y25.1985
N24640 X5.0057 Y25.2761
N24650 X5.0627 Y25.3688
N24660 X5.0976 Y25.4719
N24670 X5.1099 Y25.5841
N24680 Y26.4068
N24690 X4.7362
N24700 X4.7350 Y25.5577
N24710 G02 X4.6265 Y25.4619 I-0.1125 J0.0180 F500.0
N24720 G01 X4.0928 Y25.4618 F500
N24730 Y25.0896
N24740 X4.3888 Y25.0961
N24750 G00 Z5.0000
N24760 X4.9231 Y26.9332
N24770 Z1.0000
N24780 G01 Z-0.1000
N24790 X5.1089
N24800 X5.0942 Y27.8811
N24810 X5.0584 Y27.9800
N24820 X4.9996 Y28.0716
N24830 X4.9220 Y28.1476
N24840 X4.8293 Y28.2046
N24850 X4.7262 Y28.2395
N24860 X4.6140 Y28.2518
N24870 X4.0928
N24880 Y27.8781
N24890 X4.6330 Y27.8772
N24900 X4.6453 Y27.8759
N24910 G02 X4.7363 Y27.7651 I-0.0223 J-0.1110 F500.0
N24920 G01 Y26.9332 F500
N24930 X4.9231
N24940 G00 Z5.0000
N24950 X15.7314 Y25.4703
N24960 Z1.0000
N24970 G01 Z-0.1000
N24980 X15.7492 Y25.4978
N24990 X15.9865 Y25.7121
N25000 X16.0946 Y25.8566
N25010 X16.1744 Y26.0188
N25020 X16.2232 Y26.1929
N25030 X16.2397 Y26.3707
N25040 X16.2226 Y27.1492
N25050 X16.1744 Y27.3212
N25060 X16.0946 Y27.4834
N25070 X15.9863 Y27.6282
N25080 X15.8532 Y27.7504
N25090 X15.7001 Y27.8463
N25100 X15.5318 Y27.9124
N25110 X15.3543 Y27.9464
N25120 X15.1736 Y27.9471
N25130 X14.9957 Y27.9147
N25140 X14.8269 Y27.8502
N25150 X14.6728 Y27.7557
N25160 X14.5387 Y27.6346
N25170 X14.4292 Y27.4908
N25180 X14.3478 Y27.3293
N25190 X14.2976 Y27.1557
N25200 X14.2793 Y26.9646
N25210 X14.2967 Y26.1908
N25220 X14.3448 Y26.0187
N25230 X14.4246 Y25.8566
N25240 X14.5329 Y25.7118
N25250 X14.7793 Y25.4840
N25260 X14.7977 Y25.4529
N25270 X14.8209 Y25.3601
N25280 X14.8228 Y25.3448
N25290 X14.8428 Y-6.4823
N25300 X14.8857 Y-6.5824
N25310 X14.9559 Y-6.6716
N25320 X15.0470 Y-6.7395
N25330 X15.1528 Y-6.7818
N25340 X15.2703 Y-6.7968
N25350 X25.0708 Y-6.8090
N25360 X25.1065 Y-6.8202
N25370 X25.1875 Y-6.8760
N25380 X25.2002 Y-6.8876
N25390 X25.2501 Y-6.9475
N25400 X25.3765 Y-7.0524
N25410 X25.5206 Y-7.1305
N25420 X25.6771 Y-7.1788
N25430 X25.8523 Y-7.1968
N25440 X27.2057 Y-7.1798
N25450 X27.3602 Y-7.1339
N25460 X27.5052 Y-7.0574
N25470 X27.6324 Y-6.9542
N25480 X27.7370 Y-6.8281
N25490 X27.8151 Y-6.6840
N25500 X27.8635 Y-6.5275
N25510 X27.8804 Y-6.3646
N25520 X27.8653 Y-6.2013
N25530 X27.8185 Y-6.0444
N25540 X27.7420 Y-5.8994
N25550 X27.6388 Y-5.7722
N25560 X27.5127 Y-5.6676
N25570 X27.3687 Y-5.5895
N25580 X27.2121 Y-5.5412
N25590 X27.0369 Y-5.5232
N25600 X25.6835 Y-5.5402
N25610 X25.5290 Y-5.5861
N25620 X25.3853 Y-5.6619
N25630 X25.1320 Y-5.8856
N25640 X25.1055 Y-5.8996
N25650 X25.0185 Y-5.9213
N25660 X25.0032 Y-5.9232
N25670 X15.9535 Y-5.9228
N25680 X15.9360 Y-5.9203
N25690 X15.8398 Y-5.8925
N25700 X15.8125 Y-5.8764
N25710 X15.7426 Y-5.8062
N25720 X15.7265 Y-5.7783
N25730 X15.6987 Y-5.6767
N25740 X15.6964 Y-5.6600
N25750 X15.6977 Y25.3560
N25760 X15.7008 Y25.3754
N25770 X15.7314 Y25.4703
N25780 G00 Z5.0000
N25790 X16.0087 Y25.8524
N25800 Z1.0000
N25810 G01 Z-0.1000
N25820 G02 X15.6229 Y25.5380 I-0.7333 J0.5060 F500.0
N25830 G01 Y-5.9967 F500
N25840 X25.1739
N25850 G02 X25.7705 Y-5.6005 I0.6624 J-0.3500 F500.0
N25860 G01 X27.0459 Y-5.5968 F500
N25870 G02 X27.1194 Y-7.1195 I-0.0014 J-0.7632 F500.0
N25880 G01 X25.8450 Y-7.1232 F500
N25890 G02 X25.1739 Y-6.7233 I-0.0069 J0.7515 F500.0
N25900 G01 X15.2582 F500
N25910 G02 X14.8963 Y-6.3630 I0.0013 J0.3632 F500.0
N25920 G01 Y25.5378 F500
N25930 G02 X14.3572 Y26.2809 I0.3634 J0.8307 F500.0
N25940 G01 X14.3529 Y26.9715 F500
N25950 G02 X16.1619 Y27.0604 I0.9066 J-0.0000 F500.0
N25960 G01 X16.1663 Y26.3691 F500
N25970 G02 X16.0087 Y25.8524 I-0.8909 J-0.0106 F500.0
N25980 G00 Z5.0000
N25990 X16.8280 Y26.5756
N26000 Z1.0000
N26010 G01 Z-0.1000 F500
N26020 X16.8367 Y26.1908
N26030 X16.8848 Y26.0187
N26040 X16.9646 Y25.8566
N26050 X17.0727 Y25.7121
N26060 X17.3129 Y25.4951
N26070 X17.3314 Y25.4653
N26080 X17.3604 Y25.3619
N26090 X17.3628 Y25.3449
N26100 X17.3828 Y7.4877
N26110 X17.4257 Y7.3876
N26120 X17.4959 Y7.2984
N26130 X17.5870 Y7.2305
N26140 X17.6928 Y7.1882
N26150 X17.8103 Y7.1732
N26160 X25.0754 Y7.1593
N26170 X25.1117 Y7.1477
N26180 X25.1873 Y7.0944
N26190 X25.1994 Y7.0833
N26200 X25.2501 Y7.0225
N26210 X25.3765 Y6.9176
N26220 X25.5206 Y6.8395
N26230 X25.6771 Y6.7912
N26240 X25.8523 Y6.7732
N26250 X27.2057 Y6.7902
N26260 X27.3602 Y6.8361
N26270 X27.5052 Y6.9126
N26280 X27.6324 Y7.0158
N26290 X27.7370 Y7.1419
N26300 X27.8151 Y7.2860
N26310 X27.8635 Y7.4425
N26320 X27.8804 Y7.6054
N26330 X27.8653 Y7.7687
N26340 X27.8185 Y7.9256
N26350 X27.7420 Y8.0706
N26360 X27.6388 Y8.1978
N26370 X27.5127 Y8.3024
N26380 X27.3687 Y8.3805
N26390 X27.2121 Y8.4288
N26400 X27.0369 Y8.4468
N26410 X25.6835 Y8.4298
N26420 X25.5290 Y8.3839
N26430 X25.3853 Y8.3081
N26440 X25.1320 Y8.0844
N26450 X25.1055 Y8.0704
N26460 X25.0185 Y8.0487
N26470 X25.0032 Y8.0468
N26480 X18.4923 Y8.0473
N26490 X18.4724 Y8.0505
N26500 X18.3684 Y8.0850
N26510 X18.3407 Y8.1035
N26520 X18.2737 Y8.1803
N26530 X18.2600 Y8.2067
N26540 X18.2383 Y8.2949
N26550 X18.2364 Y8.3100
N26560 X18.2380 Y25.3572
N26570 X18.2402 Y25.3736
N26580 X18.2622 Y25.4555
N26590 X18.2805 Y25.4857
N26600 X18.5190 Y25.7040
N26610 X18.6824 Y25.9459
N26620 X18.6915 Y25.9566
N26630 X18.7714 Y26.0314
N26640 G02 X18.8317 Y26.0593 I0.0752 J-0.0835 F500.0
N26650 G01 X18.9355 Y26.0676 F500
N26660 X18.9663 Y26.0623
N26670 X19.0552 Y26.0226
N26680 X19.0793 Y26.0036
N26690 X19.1379 Y25.9279
N26700 X19.1458 Y25.9148
N26710 X19.2160 Y25.7561
N26720 X19.3322 Y25.5795
N26730 X19.4759 Y25.4244
N26740 X19.6430 Y25.2951
N26750 X19.8292 Y25.1951
N26760 X20.0294 Y25.1271
N26770 X20.0764 Y25.1192
N26780 Y25.5053
N26790 X19.9532 Y25.5487
N26800 X19.9402 Y25.5550
N26810 X19.7705 Y25.6632
N26820 X19.7591 Y25.6726
N26830 X19.6293 Y25.8068
N26840 X19.6211 Y25.8172
N26850 X19.5258 Y25.9696
N26860 X19.5178 Y25.9891
N26870 X19.4345 Y26.3545
N26880 X19.4330 Y26.3701
N26890 X19.4529 Y27.1527
N26900 X19.4567 Y27.1728
N26910 X19.5370 Y27.3919
N26920 X19.5438 Y27.4053
N26930 X19.6351 Y27.5417
N26940 X19.6437 Y27.5520
N26950 X19.7779 Y27.6818
N26960 X19.7883 Y27.6900
N26970 X19.9407 Y27.7853
N26980 X19.9532 Y27.7913
N26990 X20.0764 Y27.8347
N27000 Y28.2204
N27010 X20.0217 Y28.2110
N27020 X19.8220 Y28.1417
N27030 X19.6364 Y28.0405
N27040 X19.4701 Y27.9103
N27050 X19.3274 Y27.7543
N27060 X19.2120 Y27.5766
N27070 X19.1355 Y27.4098
N27080 X19.1216 Y27.3903
N27090 X19.0292 Y27.3027
N27100 X18.9963 Y27.2862
N27110 X18.8990 Y27.2696
N27120 X18.8671 Y27.2724
N27130 X18.7696 Y27.3074
N27140 X18.7438 Y27.3248
N27150 X18.6830 Y27.3929
N27160 X18.6738 Y27.4064
N27170 X18.6348 Y27.4831
N27180 X18.5263 Y27.6282
N27190 X18.3932 Y27.7504
N27200 X18.2401 Y27.8463
N27210 X18.0718 Y27.9124
N27220 X17.8943 Y27.9464
N27230 X17.7136 Y27.9471
N27240 X17.5357 Y27.9147
N27250 X17.3669 Y27.8502
N27260 X17.2128 Y27.7557
N27270 X17.0787 Y27.6346
N27280 X16.9692 Y27.4908
N27290 X16.8878 Y27.3293
N27300 X16.8376 Y27.1557
N27310 X16.8193 Y26.9646
N27320 X16.8280 Y26.5756
N27330 G00 Z5.0000
N27340 X17.0706 Y25.8295
N27350 Z1.0000
N27360 G01 Z-0.1000
N27370 G02 X16.8972 Y26.2809 I0.7291 J0.5391 F500.0
N27380 G01 X16.8929 Y26.9728 F500
N27390 G02 X18.7019 Y27.0604 I0.9066 J-0.0013 F500.0
N27400 G01 X18.7063 Y26.3691 F500
N27410 G02 X18.1629 Y25.5380 I-0.8909 J-0.0106 F500.0
N27420 G01 Y7.9733 F500
N27430 X25.1739
N27440 G02 X25.7705 Y8.3695 I0.6624 J-0.3500 F500.0
N27450 G01 X27.0459 Y8.3732 F500
N27460 G02 X27.1194 Y6.8505 I-0.0014 J-0.7632 F500.0
N27470 G01 X25.8450 Y6.8468 F500
N27480 G02 X25.1739 Y7.2467 I-0.0069 J0.7515 F500.0
N27490 G01 X17.7996 F500
N27500 G02 X17.4363 Y7.6070 I0.0000 J0.3633 F500.0
N27510 G01 Y25.5378 F500
N27520 G02 X17.0706 Y25.8295 I0.3634 J0.8307 F500.0
N27530 G00 Z5.0000
N27540 X20.6028 Y25.2973
N27550 Z1.0000
N27560 G01 Z-0.1000 F500
N27570 Y25.1196
N27580 X20.6575 Y25.1290
N27590 X20.8572 Y25.1983
N27600 X21.0428 Y25.2995
N27610 X21.2091 Y25.4297
N27620 X21.3518 Y25.5857
N27630 X21.4669 Y25.7629
N27640 X21.5520 Y25.9585
N27650 G03 X21.6211 Y26.4068 I-1.4356 J0.4509 F500.0
N27660 G01 X21.2420 F500
N27670 X21.2262 Y26.1844
N27680 X21.2225 Y26.1672
N27690 X21.1428 Y25.9492
N27700 X21.1360 Y25.9358
N27710 X21.0441 Y25.7983
N27720 X21.0355 Y25.7880
N27730 X20.9013 Y25.6582
N27740 X20.8909 Y25.6500
N27750 X20.7385 Y25.5547
N27760 X20.7260 Y25.5487
N27770 X20.6028 Y25.5053
N27780 Y25.2973
N27790 G00 Z5.0000
N27800 X21.4331 Y26.9332
N27810 Z1.0000
N27820 G01 Z-0.1000
N27830 X21.6162
N27840 X21.6023 Y27.1790
N27850 X21.5512 Y27.3833
N27860 X21.4669 Y27.5771
N27870 X21.3518 Y27.7543
N27880 X21.2091 Y27.9103
N27890 X21.0428 Y28.0405
N27900 X20.8572 Y28.1417
N27910 X20.6575 Y28.2110
N27920 X20.6028 Y28.2204
N27930 Y27.8347
N27940 X20.7260 Y27.7913
N27950 X20.7390 Y27.7850
N27960 X20.9087 Y27.6768
N27970 X20.9201 Y27.6674
N27980 X21.0499 Y27.5332
N27990 X21.0581 Y27.5228
N28000 X21.1534 Y27.3704
N28010 X21.1606 Y27.3539
N28020 X21.2399 Y27.0700
N28030 X21.2423 Y27.0544
N28040 X21.2449 Y26.9332
N28050 X21.4331
N28060 G00 Z5.0000
N28070 X26.3576 Y16.0783
N28080 Z1.0000
N28090 G01 Z-0.1000
N28100 X25.6835 Y16.0698
N28110 X25.5290 Y16.0239
N28120 X25.3841 Y15.9474
N28130 X25.2568 Y15.8442
N28140 X25.1522 Y15.7181
N28150 X25.0741 Y15.5740
N28160 X25.0258 Y15.4175
N28170 X25.0088 Y15.2546
N28180 X25.0240 Y15.0913
N28190 X25.0707 Y14.9344
N28200 X25.1472 Y14.7894
N28210 X25.2504 Y14.6622
N28220 X25.3765 Y14.5576
N28230 X25.5206 Y14.4795
N28240 X25.6771 Y14.4312
N28250 X25.8523 Y14.4132
N28260 X27.2057 Y14.4302
N28270 X27.3602 Y14.4761
N28280 X27.5052 Y14.5526
N28290 X27.6324 Y14.6558
N28300 X27.7370 Y14.7819
N28310 X27.8151 Y14.9260
N28320 X27.8635 Y15.0825
N28330 X27.8804 Y15.2454
N28340 X27.8653 Y15.4087
N28350 X27.8185 Y15.5656
N28360 X27.7420 Y15.7106
N28370 X27.6388 Y15.8378
N28380 X27.5127 Y15.9424
N28390 X27.3687 Y16.0205
N28400 X27.2121 Y16.0688
N28410 X27.0369 Y16.0868
N28420 X26.3576 Y16.0783
N28430 G00 Z5.0000
N28440 X25.2680 Y15.7499
N28450 Z1.0000
N28460 G01 Z-0.1000
N28470 G02 X25.7724 Y16.0097 I0.5766 J-0.5000 F500.0
N28480 G01 X27.0446 Y16.0132 F500
N28490 G02 X27.1168 Y14.4903 I-0.0001 J-0.7631 F500.0
N28500 G01 X25.8446 Y14.4868 F500
N28510 G02 X25.2680 Y15.7499 I-0.0000 J0.7631 F500.0
N28520 G00 Z5.0000
N28530 X26.3576 Y2.1083
N28540 Z1.0000
N28550 G01 Z-0.1000 F500
N28560 X25.6835 Y2.0998
N28570 X25.5290 Y2.0539
N28580 X25.3841 Y1.9774
N28590 X25.2568 Y1.8742
N28600 X25.1522 Y1.7481
N28610 X25.0741 Y1.6040
N28620 X25.0258 Y1.4475
N28630 X25.0088 Y1.2846
N28640 X25.0240 Y1.1213
N28650 X25.0707 Y0.9644
N28660 X25.1472 Y0.8194
N28670 X25.2504 Y0.6922
N28680 X25.3765 Y0.5876
N28690 X25.5206 Y0.5095
N28700 X25.6771 Y0.4612
N28710 X25.8523 Y0.4432
N28720 X27.2057 Y0.4602
N28730 X27.3602 Y0.5061
N28740 X27.5052 Y0.5826
N28750 X27.6324 Y0.6858
N28760 X27.7370 Y0.8119
N28770 X27.8151 Y0.9560
N28780 X27.8635 Y1.1125
N28790 X27.8804 Y1.2754
N28800 X27.8653 Y1.4387
N28810 X27.8185 Y1.5956
N28820 X27.7420 Y1.7406
N28830 X27.6388 Y1.8678
N28840 X27.5127 Y1.9724
N28850 X27.3687 Y2.0505
N28860 X27.2121 Y2.0988
N28870 X27.0369 Y2.1168
N28880 X26.3576 Y2.1083
N28890 G00 Z5.0000
N28900 X25.2680 Y1.7799
N28910 Z1.0000
N28920 G01 Z-0.1000
N28930 G02 X25.7724 Y2.0397 I0.5766 J-0.5000 F500.0
N28940 G01 X27.0446 Y2.0432 F500
N28950 G02 X27.1168 Y0.5203 I-0.0001 J-0.7631 F500.0
N28960 G01 X25.8446 Y0.5168 F500
N28970 G02 X25.2680 Y1.7799 I-0.0000 J0.7631 F500.0
N28980 G00 Z5.0000
N28990 X26.3576 Y-11.8617
N29000 Z1.0000
N29010 G01 Z-0.1000 F500
N29020 X25.6835 Y-11.8702
N29030 X25.5290 Y-11.9161
N29040 X25.3841 Y-11.9926
N29050 X25.2568 Y-12.0958
N29060 X25.1522 Y-12.2219
N29070 X25.0741 Y-12.3660
N29080 X25.0258 Y-12.5225
N29090 X25.0088 Y-12.6854
N29100 X25.0240 Y-12.8487
N29110 X25.0707 Y-13.0056
N29120 X25.1472 Y-13.1506
N29130 X25.2504 Y-13.2778
N29140 X25.3765 Y-13.3824
N29150 X25.5206 Y-13.4605
N29160 X25.6771 Y-13.5088
N29170 X25.8523 Y-13.5268
N29180 X27.2057 Y-13.5098
N29190 X27.3602 Y-13.4639
N29200 X27.5052 Y-13.3874
N29210 X27.6324 Y-13.2842
N29220 X27.7370 Y-13.1581
N29230 X27.8151 Y-13.0140
N29240 X27.8635 Y-12.8575
N29250 X27.8804 Y-12.6946
N29260 X27.8653 Y-12.5313
N29270 X27.8185 Y-12.3744
N29280 X27.7420 Y-12.2294
N29290 X27.6388 Y-12.1022
N29300 X27.5127 Y-11.9976
N29310 X27.3687 Y-11.9195
N29320 X27.2121 Y-11.8712
N29330 X27.0369 Y-11.8532
N29340 X26.3576 Y-11.8617
N29350 G00 Z5.0000
N29360 X25.2680 Y-12.1901
N29370 Z1.0000
N29380 G01 Z-0.1000
N29390 G02 X25.7724 Y-11.9303 I0.5766 J-0.5000 F500.0
N29400 G01 X27.0446 Y-11.9268 F500
N29410 G02 X27.1168 Y-13.4497 I-0.0001 J-0.7631 F500.0
N29420 G01 X25.8446 Y-13.4532 F500
N29430 G02 X25.2680 Y-12.1901 I-0.0000 J0.7631 F500.0
N29440 G00 Z5.0000
N29450 X30.7465 Y-20.0611
N29460 Z1.0000
N29470 G01 Z-0.1000 F500
N29480 X30.0434 Y-20.0689
N29490 X29.9446 Y-20.1047
N29500 X29.8530 Y-20.1635
N29510 X29.7770 Y-20.2411
N29520 X29.7200 Y-20.3338
N29530 X29.6851 Y-20.4369
N29540 X29.6728 Y-20.5491
N29550 Y-21.7768
N29560 X30.0465
N29570 X30.0474 Y-20.5302
N29580 X30.0487 Y-20.5177
N29590 G02 X30.1595 Y-20.4268 I0.1110 J-0.0223 F500.0
N29600 G01 X31.3964 F500
N29610 Y-20.0539
N29620 X30.7465 Y-20.0611
N29630 G00 Z5.0000
N29640 X29.8596 Y-22.3032
N29650 Z1.0000
N29660 G01 Z-0.1000
N29670 X29.6735
N29680 X29.6886 Y-23.6562
N29690 X29.7243 Y-23.7551
N29700 X29.7831 Y-23.8466
N29710 X29.8607 Y-23.9226
N29720 X29.9534 Y-23.9795
N29730 X30.0566 Y-24.0145
N29740 X30.1687 Y-24.0268
N29750 X31.3964
N29760 Y-23.6531
N29770 X30.1499 Y-23.6522
N29780 X30.1377 Y-23.6510
N29790 G02 X30.0464 Y-23.5400 I0.0218 J0.1110 F500.0
N29800 G01 Y-22.3032 F500
N29810 X29.8596
N29820 G00 Z5.0000
N29830 X31.9228 Y-23.8400
N29840 Z1.0000
N29850 G01 Z-0.1000
N29860 Y-24.0261
N29870 X33.2758 Y-24.0111
N29880 X33.3746 Y-23.9753
N29890 X33.4662 Y-23.9165
N29900 X33.5422 Y-23.8389
N29910 X33.5992 Y-23.7462
N29920 X33.6341 Y-23.6431
N29930 X33.6464 Y-23.5309
N29940 Y-22.3032
N29950 X33.2727
N29960 X33.2719 Y-23.5538
N29970 G02 X33.1596 Y-23.6532 I-0.1123 J0.0138 F500.0
N29980 G01 X31.9228 F500
N29990 Y-23.8400
N30000 G00 Z5.0000
N30010 X33.4596 Y-21.7768
N30020 Z1.0000
N30030 G01 Z-0.1000
N30040 X33.6457
N30050 X33.6307 Y-20.4238
N30060 X33.5949 Y-20.3250
N30070 X33.5361 Y-20.2334
N30080 X33.4585 Y-20.1574
N30090 X33.3658 Y-20.1004
N30100 X33.2627 Y-20.0655
N30110 X33.1505 Y-20.0532
N30120 X31.9228
N30130 Y-20.4269
N30140 X33.1694 Y-20.4278
N30150 X33.1817 Y-20.4291
N30160 G02 X33.2728 Y-20.5400 I-0.0221 J-0.1110 F500.0
N30170 G01 Y-21.7768 F500
N30180 X33.4596
N30190 G00 Z5.0000
N30200 X39.0008 Y-28.7807
N30210 Z1.0000
N30220 G01 Z-0.1000
N30230 X38.8848 Y-28.8652
N30240 X38.6758 Y-29.0621
N30250 X38.4931 Y-29.2835
N30260 X38.3395 Y-29.5262
N30270 X38.2177 Y-29.7861
N30280 X38.1292 Y-30.0594
N30290 X38.0758 Y-30.3414
N30300 X38.0582 Y-30.6280
N30310 X38.0766 Y-30.9146
N30320 X38.1308 Y-31.1966
N30330 X38.2199 Y-31.4695
N30340 X38.3425 Y-31.7291
N30350 X38.4967 Y-31.9714
N30360 X38.6800 Y-32.1924
N30370 X38.8896 Y-32.3887
N30380 X39.1220 Y-32.5571
N30390 X39.3739 Y-32.6951
N30400 X39.6410 Y-32.8005
N30410 X39.9192 Y-32.8715
N30420 X40.2041 Y-32.9071
N30430 X40.4912 Y-32.9067
N30440 X40.7761 Y-32.8703
N30450 X41.0541 Y-32.7985
N30460 X41.3209 Y-32.6925
N30470 X41.5723 Y-32.5538
N30480 X41.8044 Y-32.3848
N30490 X42.0134 Y-32.1879
N30500 X42.1961 Y-31.9665
N30510 X42.3497 Y-31.7238
N30520 X42.4716 Y-31.4639
N30530 X42.5600 Y-31.1906
N30540 X42.6134 Y-30.9086
N30550 X42.6310 Y-30.6220
N30560 X42.6126 Y-30.3354
N30570 X42.5584 Y-30.0534
N30580 X42.4694 Y-29.7805
N30590 X42.3468 Y-29.5209
N30600 X42.1925 Y-29.2786
N30610 X42.0092 Y-29.0576
N30620 X41.7996 Y-28.8613
N30630 X41.5672 Y-28.6929
N30640 X41.3153 Y-28.5549
N30650 X41.0482 Y-28.4495
N30660 X40.7700 Y-28.3785
N30670 X40.4851 Y-28.3429
N30680 X40.1980 Y-28.3433
N30690 X39.9131 Y-28.3797
N30700 X39.6351 Y-28.4515
N30710 X39.3683 Y-28.5575
N30720 X39.1169 Y-28.6962
N30730 X39.0008 Y-28.7807
N30740 G00 Z5.0000
N30750 X40.3477 Y25.0931
N30760 Z1.0000
N30770 G01 Z-0.1000
N30780 X40.4912 Y25.0933
N30790 X40.7761 Y25.1297
N30800 X41.0541 Y25.2015
N30810 X41.3209 Y25.3075
N30820 X41.5723 Y25.4462
N30830 X41.8044 Y25.6152
N30840 X42.0134 Y25.8121
N30850 X42.1961 Y26.0335
N30860 X42.3497 Y26.2762
N30870 X42.4716 Y26.5361
N30880 X42.5600 Y26.8094
N30890 X42.6134 Y27.0914
N30900 X42.6310 Y27.3780
N30910 X42.6126 Y27.6646
N30920 X42.5584 Y27.9466
N30930 X42.4694 Y28.2195
N30940 X42.3468 Y28.4791
N30950 X42.1925 Y28.7214
N30960 X42.0092 Y28.9424
N30970 X41.7996 Y29.1387
N30980 X41.5672 Y29.3071
N30990 X41.3153 Y29.4451
N31000 X41.0482 Y29.5505
N31010 X40.7700 Y29.6215
N31020 X40.4851 Y29.6571
N31030 X40.1980 Y29.6567
N31040 X39.9131 Y29.6203
N31050 X39.6351 Y29.5485
N31060 X39.3683 Y29.4425
N31070 X39.1169 Y29.3038
N31080 X38.8848 Y29.1348
N31090 X38.6758 Y28.9379
N31100 X38.4931 Y28.7165
N31110 X38.3395 Y28.4738
N31120 X38.2177 Y28.2139
N31130 X38.1292 Y27.9406
N31140 X38.0758 Y27.6586
N31150 X38.0582 Y27.3720
N31160 X38.0766 Y27.0854
N31170 X38.1308 Y26.8034
N31180 X38.2199 Y26.5305
N31190 X38.3425 Y26.2709
N31200 X38.4967 Y26.0286
N31210 X38.6800 Y25.8076
N31220 X38.8896 Y25.6113
N31230 X39.1220 Y25.4429
N31240 X39.3739 Y25.3049
N31250 X39.6410 Y25.1995
N31260 X39.9192 Y25.1285
N31270 X40.2041 Y25.0929
N31280 X40.3477 Y25.0931
N31290 G00 Z5.0000
N31300 X33.6385 Y17.8731
N31310 Z1.0000
N31320 G01 Z-0.1000
N31330 X33.6307 Y18.5762
N31340 X33.5949 Y18.6750
N31350 X33.5361 Y18.7666
N31360 X33.4585 Y18.8426
N31370 X33.3658 Y18.8996
N31380 X33.2627 Y18.9345
N31390 X33.1505 Y18.9468
N31400 X31.9228
N31410 Y18.5731
N31420 X33.1694 Y18.5722
N31430 X33.1817 Y18.5709
N31440 G02 X33.2728 Y18.4600 I-0.0221 J-0.1110 F500.0
N31450 G01 Y17.2232 F500
N31460 X33.6457
N31470 X33.6385 Y17.8731
N31480 G00 Z5.0000
N31490 X33.4596 Y16.6968
N31500 Z1.0000
N31510 G01 Z-0.1000
N31520 X33.2727
N31530 X33.2719 Y15.4462
N31540 G02 X33.1596 Y15.3468 I-0.1123 J0.0138 F500.0
N31550 G01 X31.9228 F500
N31560 Y14.9739
N31570 X33.2758 Y14.9889
N31580 X33.3746 Y15.0247
N31590 X33.4662 Y15.0835
N31600 X33.5422 Y15.1611
N31610 X33.5992 Y15.2538
N31620 X33.6341 Y15.3569
N31630 X33.6464 Y15.4691
N31640 Y16.6968
N31650 X33.4596
N31660 G00 Z5.0000
N31670 X30.8047 Y15.3473
N31680 Z1.0000
N31690 G01 Z-0.1000
N31700 X30.1499 Y15.3478
N31710 X30.1377 Y15.3490
N31720 G02 X30.0464 Y15.4600 I0.0218 J0.1110 F500.0
N31730 G01 Y16.6968 F500
N31740 X29.6735
N31750 X29.6886 Y15.3438
N31760 X29.7243 Y15.2449
N31770 X29.7831 Y15.1534
N31780 X29.8607 Y15.0774
N31790 X29.9534 Y15.0205
N31800 X30.0566 Y14.9855
N31810 X30.1687 Y14.9732
N31820 X31.3964
N31830 Y15.3469
N31840 X30.8047 Y15.3473
N31850 G00 Z5.0000
N31860 X29.8596 Y17.2232
N31870 Z1.0000
N31880 G01 Z-0.1000
N31890 X30.0465
N31900 X30.0474 Y18.4698
N31910 X30.0487 Y18.4823
N31920 G02 X30.1595 Y18.5732 I0.1110 J-0.0223 F500.0
N31930 G01 X31.3964 F500
N31940 Y18.9461
N31950 X30.0434 Y18.9311
N31960 X29.9446 Y18.8953
N31970 X29.8530 Y18.8365
N31980 X29.7770 Y18.7589
N31990 X29.7200 Y18.6662
N32000 X29.6851 Y18.5631
N32010 X29.6728 Y18.4509
N32020 Y17.2232
N32030 X29.8596
N32040 (Part: encoder_diff_driver_board_DRILLS)
N32050 (Operation: Drill, Tool 1, T18: Centre drill, 4 mm diameter, 0.1 mm Deep)
N32060 G00 Z5.0000
N32070 M05
N32080 M6 T18  (Centre drill, 4 mm diameter)
N32090 G43 H18
N32100 G00 X29.8596 Y17.2232 Z5.0000
N32110 M03 S3000
N32120 M08 (Flood coolant on)
N32130 X49.6596 Y-22.0400
N32140 Z1.0000
N32150 G01 Z-0.1000 F400
N32160 G00 Z5.0000
N32170 Y16.9600
N32180 Z1.0000
N32190 G01 Z-0.1000
N32200 G00 Z5.0000
N32210 X40.3446 Y27.3750
N32220 Z1.0000
N32230 G01 Z-0.1000
N32240 G00 Z5.0000
N32250 Y-30.6250
N32260 Z1.0000
N32270 G01 Z-0.1000
N32280 G00 Z5.0000
N32290 X31.6596 Y-22.0400
N32300 Z1.0000
N32310 G01 Z-0.1000
N32320 G00 Z5.0000
N32330 X26.4446 Y-20.3300
N32340 Z1.0000
N32350 G01 Z-0.1000
N32360 G00 Z5.0000
N32370 Y-17.7700
N32380 Z1.0000
N32390 G01 Z-0.1000
N32400 G00 Z5.0000
N32410 Y-15.2500
N32420 Z1.0000
N32430 G01 Z-0.1000
N32440 G00 Z5.0000
N32450 Y-12.6900
N32460 Z1.0000
N32470 G01 Z-0.1000
N32480 G00 Z5.0000
N32490 Y-6.3600
N32500 Z1.0000
N32510 G01 Z-0.1000
N32520 G00 Z5.0000
N32530 Y-3.8000
N32540 Z1.0000
N32550 G01 Z-0.1000
N32560 G00 Z5.0000
N32570 Y-1.2800
N32580 Z1.0000
N32590 G01 Z-0.1000
N32600 G00 Z5.0000
N32610 Y1.2800
N32620 Z1.0000
N32630 G01 Z-0.1000
N32640 G00 Z5.0000
N32650 Y7.6100
N32660 Z1.0000
N32670 G01 Z-0.1000
N32680 G00 Z5.0000
N32690 Y10.1700
N32700 Z1.0000
N32710 G01 Z-0.1000
N32720 G00 Z5.0000
N32730 Y12.6900
N32740 Z1.0000
N32750 G01 Z-0.1000
N32760 G00 Z5.0000
N32770 Y15.2500
N32780 Z1.0000
N32790 G01 Z-0.1000
N32800 G00 Z5.0000
N32810 X31.6596 Y16.9600
N32820 Z1.0000
N32830 G01 Z-0.1000
N32840 G00 Z5.0000
N32850 X20.3396 Y26.6700
N32860 Z1.0000
N32870 G01 Z-0.1000
N32880 G00 Z5.0000
N32890 X17.7996
N32900 Z1.0000
N32910 G01 Z-0.1000
N32920 G00 Z5.0000
N32930 X15.2596
N32940 Z1.0000
N32950 G01 Z-0.1000
N32960 G00 Z5.0000
N32970 X12.7196
N32980 Z1.0000
N32990 G01 Z-0.1000
N33000 G00 Z5.0000
N33010 X3.8296
N33020 Z1.0000
N33030 G01 Z-0.1000
N33040 G00 Z5.0000
N33050 X1.2896
N33060 Z1.0000
N33070 G01 Z-0.1000
N33080 G00 Z5.0000
N33090 X-1.2504
N33100 Z1.0000
N33110 G01 Z-0.1000
N33120 G00 Z5.0000
N33130 X-14.9754 Y15.2500
N33140 Z1.0000
N33150 G01 Z-0.1000
N33160 G00 Z5.0000
N33170 Y12.7100
N33180 Z1.0000
N33190 G01 Z-0.1000
N33200 G00 Z5.0000
N33210 Y10.1500
N33220 Z1.0000
N33230 G01 Z-0.1000
N33240 G00 Z5.0000
N33250 Y7.6100
N33260 Z1.0000
N33270 G01 Z-0.1000
N33280 G00 Z5.0000
N33290 Y1.2800
N33300 Z1.0000
N33310 G01 Z-0.1000
N33320 G00 Z5.0000
N33330 Y-1.2600
N33340 Z1.0000
N33350 G01 Z-0.1000
N33360 G00 Z5.0000
N33370 Y-3.8200
N33380 Z1.0000
N33390 G01 Z-0.1000
N33400 G00 Z5.0000
N33410 Y-6.3600
N33420 Z1.0000
N33430 G01 Z-0.1000
N33440 G00 Z5.0000
N33450 Y-12.6900
N33460 Z1.0000
N33470 G01 Z-0.1000
N33480 G00 Z5.0000
N33490 Y-15.2300
N33500 Z1.0000
N33510 G01 Z-0.1000
N33520 G00 Z5.0000
N33530 Y-17.7900
N33540 Z1.0000
N33550 G01 Z-0.1000
N33560 G00 Z5.0000
N33570 Y-20.3300
N33580 Z1.0000
N33590 G01 Z-0.1000
N33600 G00 Z5.0000
N33610 X-21.5704 Y-0.6350
N33620 Z1.0000
N33630 G01 Z-0.1000
N33640 G00 Z5.0000
N33650 Y1.9050
N33660 Z1.0000
N33670 G01 Z-0.1000
N33680 G00 Z5.0000
N33690 Y4.4450
N33700 Z1.0000
N33710 G01 Z-0.1000
N33720 G00 Z5.0000
N33730 Y6.9850
N33740 Z1.0000
N33750 G01 Z-0.1000
N33760 G00 Z5.0000
N33770 Y9.5250
N33780 Z1.0000
N33790 G01 Z-0.1000
N33800 G00 Z5.0000
N33810 Y12.0650
N33820 Z1.0000
N33830 G01 Z-0.1000
N33840 G00 Z5.0000
N33850 Y14.6050
N33860 Z1.0000
N33870 G01 Z-0.1000
N33880 G00 Z5.0000
N33890 Y17.1450
N33900 Z1.0000
N33910 G01 Z-0.1000
N33920 G00 Z5.0000
N33930 X-29.6554 Y27.3750
N33940 Z1.0000
N33950 G01 Z-0.1000
N33960 G00 Z5.0000
N33970 X-29.1904 Y-15.2400
N33980 Z1.0000
N33990 G01 Z-0.1000
N34000 G00 Z5.0000
N34010 Y-17.7800
N34020 Z1.0000
N34030 G01 Z-0.1000
N34040 G00 Z5.0000
N34050 X-29.6554 Y-30.6250
N34060 Z1.0000
N34070 G01 Z-0.1000
N34080 G00 Z5.0000
N34090 (Operation: Drill, Tool 1, T34: Drill, 1 mm diameter, 1.7 mm Deep)
N34100 M09 (Coolant off)
N34110 M05
N34120 M6 T34  (Drill, 1 mm diameter)
N34130 G43 H34
N34140 G00 X-29.6554 Y-30.6250 Z5.0000
N34150 M03 S10000
N34160 M08 (Flood coolant on)
N34170 X49.6596 Y-22.0400
N34180 Z1.0000
N34190 G01 Z-1.7000 F500
N34200 G00 Z5.0000
N34210 Y16.9600
N34220 Z1.0000
N34230 G01 Z-1.7000
N34240 G00 Z5.0000
N34250 X40.3446 Y27.3750
N34260 Z1.0000
N34270 G01 Z-1.7000
N34280 G00 Z5.0000
N34290 Y-30.6250
N34300 Z1.0000
N34310 G01 Z-1.7000
N34320 G00 Z5.0000
N34330 X31.6596 Y-22.0400
N34340 Z1.0000
N34350 G01 Z-1.7000
N34360 G00 Z5.0000
N34370 X26.4446 Y-20.3300
N34380 Z1.0000
N34390 G01 Z-1.7000
N34400 G00 Z5.0000
N34410 Y-17.7700
N34420 Z1.0000
N34430 G01 Z-1.7000
N34440 G00 Z5.0000
N34450 Y-15.2500
N34460 Z1.0000
N34470 G01 Z-1.7000
N34480 G00 Z5.0000
N34490 Y-12.6900
N34500 Z1.0000
N34510 G01 Z-1.7000
N34520 G00 Z5.0000
N34530 Y-6.3600
N34540 Z1.0000
N34550 G01 Z-1.7000
N34560 G00 Z5.0000
N34570 Y-3.8000
N34580 Z1.0000
N34590 G01 Z-1.7000
N34600 G00 Z5.0000
N34610 Y-1.2800
N34620 Z1.0000
N34630 G01 Z-1.7000
N34640 G00 Z5.0000
N34650 Y1.2800
N34660 Z1.0000
N34670 G01 Z-1.7000
N34680 G00 Z5.0000
N34690 Y7.6100
N34700 Z1.0000
N34710 G01 Z-1.7000
N34720 G00 Z5.0000
N34730 Y10.1700
N34740 Z1.0000
N34750 G01 Z-1.7000
N34760 G00 Z5.0000
N34770 Y12.6900
N34780 Z1.0000
N34790 G01 Z-1.7000
N34800 G00 Z5.0000
N34810 Y15.2500
N34820 Z1.0000
N34830 G01 Z-1.7000
N34840 G00 Z5.0000
N34850 X31.6596 Y16.9600
N34860 Z1.0000
N34870 G01 Z-1.7000
N34880 G00 Z5.0000
N34890 X20.3396 Y26.6700
N34900 Z1.0000
N34910 G01 Z-1.7000
N34920 G00 Z5.0000
N34930 X17.7996
N34940 Z1.0000
N34950 G01 Z-1.7000
N34960 G00 Z5.0000
N34970 X15.2596
N34980 Z1.0000
N34990 G01 Z-1.7000
N35000 G00 Z5.0000
N35010 X12.7196
N35020 Z1.0000
N35030 G01 Z-1.7000
N35040 G00 Z5.0000
N35050 X3.8296
N35060 Z1.0000
N35070 G01 Z-1.7000
N35080 G00 Z5.0000
N35090 X1.2896
N35100 Z1.0000
N35110 G01 Z-1.7000
N35120 G00 Z5.0000
N35130 X-1.2504
N35140 Z1.0000
N35150 G01 Z-1.7000
N35160 G00 Z5.0000
N35170 X-14.9754 Y15.2500
N35180 Z1.0000
N35190 G01 Z-1.7000
N35200 G00 Z5.0000
N35210 Y12.7100
N35220 Z1.0000
N35230 G01 Z-1.7000
N35240 G00 Z5.0000
N35250 Y10.1500
N35260 Z1.0000
N35270 G01 Z-1.7000
N35280 G00 Z5.0000
N35290 Y7.6100
N35300 Z1.0000
N35310 G01 Z-1.7000
N35320 G00 Z5.0000
N35330 Y1.2800
N35340 Z1.0000
N35350 G01 Z-1.7000
N35360 G00 Z5.0000
N35370 Y-1.2600
N35380 Z1.0000
N35390 G01 Z-1.7000
N35400 G00 Z5.0000
N35410 Y-3.8200
N35420 Z1.0000
N35430 G01 Z-1.7000
N35440 G00 Z5.0000
N35450 Y-6.3600
N35460 Z1.0000
N35470 G01 Z-1.7000
N35480 G00 Z5.0000
N35490 Y-12.6900
N35500 Z1.0000
N35510 G01 Z-1.7000
N35520 G00 Z5.0000
N35530 Y-15.2300
N35540 Z1.0000
N35550 G01 Z-1.7000
N35560 G00 Z5.0000
N35570 Y-17.7900
N35580 Z1.0000
N35590 G01 Z-1.7000
N35600 G00 Z5.0000
N35610 Y-20.3300
N35620 Z1.0000
N35630 G01 Z-1.7000
N35640 G00 Z5.0000
N35650 X-21.5704 Y-0.6350
N35660 Z1.0000
N35670 G01 Z-1.7000
N35680 G00 Z5.0000
N35690 Y1.9050
N35700 Z1.0000
N35710 G01 Z-1.7000
N35720 G00 Z5.0000
N35730 Y4.4450
N35740 Z1.0000
N35750 G01 Z-1.7000
N35760 G00 Z5.0000
N35770 Y6.9850
N35780 Z1.0000
N35790 G01 Z-1.7000
N35800 G00 Z5.0000
N35810 Y9.5250
N35820 Z1.0000
N35830 G01 Z-1.7000
N35840 G00 Z5.0000
N35850 Y12.0650
N35860 Z1.0000
N35870 G01 Z-1.7000
N35880 G00 Z5.0000
N35890 Y14.6050
N35900 Z1.0000
N35910 G01 Z-1.7000
N35920 G00 Z5.0000
N35930 Y17.1450
N35940 Z1.0000
N35950 G01 Z-1.7000
N35960 G00 Z5.0000
N35970 X-29.6554 Y27.3750
N35980 Z1.0000
N35990 G01 Z-1.7000
N36000 G00 Z5.0000
N36010 X-29.1904 Y-15.2400
N36020 Z1.0000
N36030 G01 Z-1.7000
N36040 G00 Z5.0000
N36050 Y-17.7800
N36060 Z1.0000
N36070 G01 Z-1.7000
N36080 G00 Z5.0000
N36090 X-29.6554 Y-30.6250
N36100 Z1.0000
N36110 G01 Z-1.7000
N36120 G00 Z5.0000
N36130 M09 (Coolant off)
N36140 M05
N36150 M05 M30
