(G-CODE GENERATED BY FLATCAM v8.994 - www.flatcam.org - Version Date: 2020/11/7)

(Name: encoder_diff_driver_board_COPPER-BOTTOM.gbr_iso_combined_cnc)
(Type: G-code from Geometry)
(Units: MM)

(Created on Wednesday, 30 October 2024 at 12:53)

(This preprocessor is the default preprocessor used by FlatCAM.)
(It is made to work with MACH3 compatible motion controllers.)

(TOOL DIAMETER: 0.1 mm)
(Feedrate_XY: 120.0 mm/min)
(Feedrate_Z: 60.0 mm/min)
(Feedrate rapids 1500.0 mm/min)

(Z_Cut: -0.0 mm)
(Z_Move: 2.0 mm)
(Z Start: None mm)
(Z End: 15.0 mm)
(X,Y End: None mm)
(Steps per circle: 64)
(Preprocessor Geometry: default)

(X range:  -38.3004 ...   61.1996  mm)
(Y range:  -34.7500 ...   34.7500  mm)

(Spindle Speed: 0.0 RPM)
G21
G90
G94

G01 F120.00

M5
G00 Z15.0000
G00 X0.0000 Y0.0000
T1
M6    
(MSG, Change to Tool Dia = 0.1000)
M0
G00 Z15.0000

M03
G01 F120.00
G00 X-14.7754 Y-5.1600
G01 F60.00
G01 Z-0.0000
G01 F120.00
G01 X-14.7754 Y-5.6600
G01 X-14.3754 Y-5.6600
G01 X-14.3080 Y-5.6633
G01 X-14.2400 Y-5.6732
G01 X-14.2169 Y-5.6789
G01 X-14.2079 Y-5.6803
G01 X-14.1986 Y-5.6835
G01 X-14.1710 Y-5.6905
G01 X-14.1053 Y-5.7143
G01 X-14.0523 Y-5.7391
G01 X-14.0454 Y-5.7427
G01 X-13.9845 Y-5.7794
G01 X-13.9323 Y-5.8181
G01 X-13.9179 Y-5.8310
G01 X-13.9112 Y-5.8360
G01 X-13.9043 Y-5.8433
G01 X-13.8796 Y-5.8659
G01 X-13.8359 Y-5.9141
G01 X-13.8047 Y-5.9557
G01 X-13.8007 Y-5.9604
G01 X-13.7934 Y-5.9711
G01 X-13.7580 Y-6.0300
G01 X-13.7287 Y-6.0921
G01 X-13.7240 Y-6.1051
G01 X-13.7205 Y-6.1129
G01 X-13.7181 Y-6.1214
G01 X-13.7063 Y-6.1545
G01 X-13.7047 Y-6.1600
G01 X-13.1931 Y-6.1600
G01 X-13.1949 Y-6.1474
G01 X-13.2468 Y-5.9539
G01 X-13.2498 Y-5.9457
G01 X-13.3345 Y-5.7640
G01 X-13.3388 Y-5.7565
G01 X-13.4538 Y-5.5923
G01 X-13.4594 Y-5.5857
G01 X-13.6011 Y-5.4440
G01 X-13.6077 Y-5.4384
G01 X-13.7719 Y-5.3234
G01 X-13.7794 Y-5.3191
G01 X-13.9611 Y-5.2344
G01 X-13.9692 Y-5.2314
G01 X-14.1628 Y-5.1795
G01 X-14.1714 Y-5.1780
G01 X-14.3798 Y-5.1600
G01 X-14.7754 Y-5.1600
G00 Z2.0000
G00 X-14.7754 Y-7.0600
G01 F60.00
G01 Z-0.0000
G01 F120.00
G01 X-14.7754 Y-7.5600
G01 X-14.3798 Y-7.5600
G01 X-14.1714 Y-7.5420
G01 X-14.1628 Y-7.5405
G01 X-13.9692 Y-7.4886
G01 X-13.9611 Y-7.4856
G01 X-13.7794 Y-7.4009
G01 X-13.7719 Y-7.3966
G01 X-13.6077 Y-7.2816
G01 X-13.6011 Y-7.2760
G01 X-13.4594 Y-7.1343
G01 X-13.4538 Y-7.1277
G01 X-13.3388 Y-6.9635
G01 X-13.3345 Y-6.9560
G01 X-13.2498 Y-6.7743
G01 X-13.2468 Y-6.7661
G01 X-13.1949 Y-6.5726
G01 X-13.1931 Y-6.5600
G01 X-13.7047 Y-6.5600
G01 X-13.7063 Y-6.5655
G01 X-13.7181 Y-6.5986
G01 X-13.7205 Y-6.6071
G01 X-13.7240 Y-6.6149
G01 X-13.7287 Y-6.6279
G01 X-13.7580 Y-6.6900
G01 X-13.7934 Y-6.7489
G01 X-13.8007 Y-6.7596
G01 X-13.8047 Y-6.7643
G01 X-13.8359 Y-6.8059
G01 X-13.8796 Y-6.8541
G01 X-13.9043 Y-6.8767
G01 X-13.9112 Y-6.8840
G01 X-13.9179 Y-6.8890
G01 X-13.9323 Y-6.9019
G01 X-13.9845 Y-6.9406
G01 X-14.0454 Y-6.9773
G01 X-14.0523 Y-6.9809
G01 X-14.1053 Y-7.0057
G01 X-14.1710 Y-7.0295
G01 X-14.1986 Y-7.0365
G01 X-14.2079 Y-7.0397
G01 X-14.2169 Y-7.0411
G01 X-14.2400 Y-7.0468
G01 X-14.3080 Y-7.0567
G01 X-14.3754 Y-7.0600
G01 X-14.7754 Y-7.0600
G00 Z2.0000
G00 X-16.7577 Y-6.5600
G01 F60.00
G01 Z-0.0000
G01 F120.00
G01 X-16.7558 Y-6.5726
G01 X-16.7040 Y-6.7661
G01 X-16.7010 Y-6.7743
G01 X-16.6163 Y-6.9560
G01 X-16.6120 Y-6.9635
G01 X-16.4970 Y-7.1277
G01 X-16.4914 Y-7.1343
G01 X-16.3497 Y-7.2760
G01 X-16.3430 Y-7.2816
G01 X-16.1789 Y-7.3966
G01 X-16.1714 Y-7.4009
G01 X-15.9897 Y-7.4856
G01 X-15.9815 Y-7.4886
G01 X-15.7880 Y-7.5405
G01 X-15.7794 Y-7.5420
G01 X-15.5710 Y-7.5600
G01 X-15.1754 Y-7.5600
G01 X-15.1754 Y-7.0600
G01 X-15.5754 Y-7.0600
G01 X-15.6428 Y-7.0567
G01 X-15.7108 Y-7.0468
G01 X-15.7339 Y-7.0411
G01 X-15.7429 Y-7.0397
G01 X-15.7522 Y-7.0365
G01 X-15.7798 Y-7.0295
G01 X-15.8455 Y-7.0057
G01 X-15.8985 Y-6.9809
G01 X-15.9054 Y-6.9773
G01 X-15.9663 Y-6.9406
G01 X-16.0185 Y-6.9019
G01 X-16.0329 Y-6.8890
G01 X-16.0396 Y-6.8840
G01 X-16.0465 Y-6.8767
G01 X-16.0712 Y-6.8541
G01 X-16.1149 Y-6.8059
G01 X-16.1461 Y-6.7643
G01 X-16.1501 Y-6.7596
G01 X-16.1574 Y-6.7489
G01 X-16.1927 Y-6.6900
G01 X-16.2221 Y-6.6279
G01 X-16.2268 Y-6.6149
G01 X-16.2303 Y-6.6071
G01 X-16.2327 Y-6.5986
G01 X-16.2445 Y-6.5655
G01 X-16.2461 Y-6.5600
G01 X-16.7577 Y-6.5600
G00 Z2.0000
G00 X-16.7577 Y-6.1600
G01 F60.00
G01 Z-0.0000
G01 F120.00
G01 X-16.2461 Y-6.1600
G01 X-16.2445 Y-6.1545
G01 X-16.2327 Y-6.1214
G01 X-16.2303 Y-6.1129
G01 X-16.2268 Y-6.1051
G01 X-16.2221 Y-6.0921
G01 X-16.1927 Y-6.0300
G01 X-16.1574 Y-5.9711
G01 X-16.1501 Y-5.9604
G01 X-16.1461 Y-5.9557
G01 X-16.1149 Y-5.9141
G01 X-16.0712 Y-5.8659
G01 X-16.0465 Y-5.8433
G01 X-16.0396 Y-5.8360
G01 X-16.0329 Y-5.8310
G01 X-16.0185 Y-5.8181
G01 X-15.9663 Y-5.7794
G01 X-15.9054 Y-5.7427
G01 X-15.8985 Y-5.7391
G01 X-15.8455 Y-5.7143
G01 X-15.7798 Y-5.6905
G01 X-15.7522 Y-5.6835
G01 X-15.7429 Y-5.6803
G01 X-15.7339 Y-5.6789
G01 X-15.7108 Y-5.6732
G01 X-15.6428 Y-5.6633
G01 X-15.5754 Y-5.6600
G01 X-15.1754 Y-5.6600
G01 X-15.1754 Y-5.1600
G01 X-15.5710 Y-5.1600
G01 X-15.7794 Y-5.1780
G01 X-15.7880 Y-5.1795
G01 X-15.9815 Y-5.2314
G01 X-15.9897 Y-5.2344
G01 X-16.1714 Y-5.3191
G01 X-16.1789 Y-5.3234
G01 X-16.3430 Y-5.4384
G01 X-16.3497 Y-5.4440
G01 X-16.4914 Y-5.5857
G01 X-16.4970 Y-5.5923
G01 X-16.6120 Y-5.7565
G01 X-16.6163 Y-5.7640
G01 X-16.7010 Y-5.9457
G01 X-16.7040 Y-5.9539
G01 X-16.7558 Y-6.1474
G01 X-16.7577 Y-6.1600
G00 Z2.0000
G00 X-21.8719 Y-1.4785
G01 F60.00
G01 Z-0.0000
G01 F120.00
G01 X-21.8705 Y-1.4785
G01 X-21.8705 Y-10.7950
G01 X-21.8703 Y-10.8039
G01 X-21.8684 Y-10.8308
G01 X-21.8650 Y-10.8523
G01 X-21.8632 Y-10.8610
G01 X-21.8579 Y-10.8809
G01 X-21.8557 Y-10.8882
G01 X-21.8481 Y-10.9087
G01 X-21.8446 Y-10.9169
G01 X-21.8351 Y-10.9365
G01 X-21.8314 Y-10.9432
G01 X-21.8199 Y-10.9617
G01 X-21.8149 Y-10.9690
G01 X-21.7983 Y-10.9903
G01 X-17.9883 Y-15.4353
G01 X-17.9726 Y-15.4522
G01 X-17.9671 Y-15.4576
G01 X-17.9517 Y-15.4712
G01 X-17.9448 Y-15.4768
G01 X-17.9281 Y-15.4889
G01 X-17.9218 Y-15.4931
G01 X-17.9029 Y-15.5041
G01 X-17.8940 Y-15.5087
G01 X-17.8693 Y-15.5197
G01 X-17.8475 Y-15.5272
G01 X-17.8402 Y-15.5293
G01 X-17.8201 Y-15.5341
G01 X-17.8114 Y-15.5357
G01 X-17.7898 Y-15.5387
G01 X-17.7822 Y-15.5393
G01 X-17.7616 Y-15.5401
G01 X-16.2022 Y-15.5401
G01 X-16.1921 Y-15.5611
G01 X-16.1581 Y-15.6179
G01 X-16.1157 Y-15.6750
G01 X-16.0686 Y-15.7267
G01 X-16.0195 Y-15.7711
G01 X-15.9653 Y-15.8113
G01 X-15.9054 Y-15.8473
G01 X-15.8410 Y-15.8776
G01 X-15.7786 Y-15.8999
G01 X-15.7144 Y-15.9160
G01 X-15.6440 Y-15.9266
G01 X-15.5754 Y-15.9300
G01 X-14.3754 Y-15.9300
G01 X-14.3092 Y-15.9268
G01 X-14.2388 Y-15.9165
G01 X-14.1722 Y-15.8999
G01 X-14.1075 Y-15.8767
G01 X-14.0454 Y-15.8473
G01 X-13.9845 Y-15.8106
G01 X-13.9313 Y-15.7711
G01 X-13.8804 Y-15.7250
G01 X-13.8343 Y-15.6741
G01 X-13.7948 Y-15.6209
G01 X-13.7580 Y-15.5600
G01 X-13.7278 Y-15.4956
G01 X-13.7055 Y-15.4332
G01 X-13.6888 Y-15.3666
G01 X-13.6788 Y-15.2986
G01 X-13.6755 Y-15.2325
G01 X-13.6788 Y-15.1614
G01 X-13.6894 Y-15.0910
G01 X-13.7055 Y-15.0268
G01 X-13.7287 Y-14.9621
G01 X-13.7580 Y-14.9000
G01 X-13.7921 Y-14.8432
G01 X-13.8343 Y-14.7859
G01 X-13.8822 Y-14.7333
G01 X-13.9313 Y-14.6889
G01 X-13.9865 Y-14.6480
G01 X-14.0454 Y-14.6127
G01 X-14.1053 Y-14.5843
G01 X-14.1746 Y-14.5595
G01 X-14.2388 Y-14.5435
G01 X-14.3043 Y-14.5337
G01 X-14.3742 Y-14.5300
G01 X-15.5754 Y-14.5300
G01 X-15.6440 Y-14.5334
G01 X-15.7144 Y-14.5440
G01 X-15.7786 Y-14.5601
G01 X-15.8410 Y-14.5824
G01 X-15.9054 Y-14.6127
G01 X-15.9653 Y-14.6487
G01 X-16.0195 Y-14.6889
G01 X-16.0686 Y-14.7333
G01 X-16.1157 Y-14.7850
G01 X-16.1581 Y-14.8421
G01 X-16.1927 Y-14.9000
G01 X-16.2117 Y-14.9399
G01 X-17.6224 Y-14.9399
G01 X-21.2703 Y-10.6840
G01 X-21.2703 Y-1.4785
G01 X-21.1862 Y-1.4744
G01 X-21.1043 Y-1.4623
G01 X-21.0240 Y-1.4422
G01 X-20.9461 Y-1.4143
G01 X-20.8713 Y-1.3789
G01 X-20.8003 Y-1.3363
G01 X-20.7338 Y-1.2870
G01 X-20.6724 Y-1.2314
G01 X-20.6169 Y-1.1701
G01 X-20.5675 Y-1.1036
G01 X-20.5250 Y-1.0326
G01 X-20.4896 Y-0.9578
G01 X-20.4617 Y-0.8799
G01 X-20.4416 Y-0.7996
G01 X-20.4295 Y-0.7177
G01 X-20.4255 Y-0.6375
G01 X-20.4295 Y-0.5523
G01 X-20.4421 Y-0.4680
G01 X-20.4617 Y-0.3901
G01 X-20.4887 Y-0.3145
G01 X-20.5250 Y-0.2374
G01 X-20.5675 Y-0.1664
G01 X-20.6185 Y-0.0980
G01 X-20.6724 Y-0.0386
G01 X-20.7319 Y0.0154
G01 X-20.7993 Y0.0657
G01 X-20.8713 Y0.1089
G01 X-20.9484 Y0.1452
G01 X-21.0240 Y0.1722
G01 X-21.1019 Y0.1918
G01 X-21.1850 Y0.2043
G01 X-21.2689 Y0.2085
G01 X-21.8719 Y0.2085
G01 X-21.9558 Y0.2043
G01 X-22.0365 Y0.1923
G01 X-22.1167 Y0.1722
G01 X-22.1947 Y0.1443
G01 X-22.2717 Y0.1077
G01 X-22.3425 Y0.0649
G01 X-22.4070 Y0.0170
G01 X-22.4666 Y-0.0369
G01 X-22.5239 Y-0.0999
G01 X-22.5725 Y-0.1654
G01 X-22.6169 Y-0.2396
G01 X-22.6512 Y-0.3122
G01 X-22.6783 Y-0.3878
G01 X-22.6992 Y-0.4704
G01 X-22.7115 Y-0.5548
G01 X-22.7154 Y-0.6350
G01 X-22.7115 Y-0.7152
G01 X-22.6992 Y-0.7996
G01 X-22.6783 Y-0.8822
G01 X-22.6512 Y-0.9578
G01 X-22.6158 Y-1.0326
G01 X-22.5718 Y-1.1056
G01 X-22.5239 Y-1.1701
G01 X-22.4700 Y-1.2297
G01 X-22.4070 Y-1.2870
G01 X-22.3384 Y-1.3377
G01 X-22.2695 Y-1.3789
G01 X-22.1969 Y-1.4133
G01 X-22.1167 Y-1.4422
G01 X-22.0340 Y-1.4627
G01 X-21.9546 Y-1.4744
G01 X-21.8719 Y-1.4785
G00 Z2.0000
G00 X-22.2157 Y-1.6173
G01 F60.00
G01 Z-0.0000
G01 F120.00
G01 X-22.2066 Y-1.6208
G01 X-22.1995 Y-1.6253
G01 X-22.1092 Y-1.6960
G01 X-22.1046 Y-1.7002
G01 X-22.1005 Y-1.7048
G01 X-22.0952 Y-1.7133
G01 X-22.0921 Y-1.7214
G01 X-22.0718 Y-1.7980
G01 X-22.0709 Y-1.8026
G01 X-22.0704 Y-1.8084
G01 X-22.0704 Y-10.7885
G01 X-22.0700 Y-10.7950
G01 X-22.0647 Y-10.8351
G01 X-22.0636 Y-10.8475
G01 X-22.0618 Y-10.8804
G01 X-22.0560 Y-10.9097
G01 X-22.0504 Y-10.9303
G01 X-22.0375 Y-10.9617
G01 X-22.0332 Y-10.9734
G01 X-22.0229 Y-11.0047
G01 X-22.0137 Y-11.0240
G01 X-21.9991 Y-11.0500
G01 X-21.9790 Y-11.0761
G01 X-21.9718 Y-11.0863
G01 X-21.9497 Y-11.1201
G01 X-21.9458 Y-11.1254
G01 X-18.1443 Y-15.5604
G01 X-18.1367 Y-15.5680
G01 X-18.1236 Y-15.5821
G01 X-18.1085 Y-15.5972
G01 X-18.0823 Y-15.6173
G01 X-18.0727 Y-15.6252
G01 X-18.0475 Y-15.6478
G01 X-18.0227 Y-15.6644
G01 X-18.0041 Y-15.6751
G01 X-17.9728 Y-15.6881
G01 X-17.9615 Y-15.6934
G01 X-17.9321 Y-15.7083
G01 X-17.9039 Y-15.7179
G01 X-17.8832 Y-15.7234
G01 X-17.8496 Y-15.7279
G01 X-17.8373 Y-15.7300
G01 X-17.8051 Y-15.7368
G01 X-17.7837 Y-15.7384
G01 X-17.7645 Y-15.7391
G01 X-17.7538 Y-15.7400
G01 X-16.4098 Y-15.7400
G01 X-16.4020 Y-15.7406
G01 X-16.3471 Y-15.7508
G01 X-16.3376 Y-15.7535
G01 X-16.3289 Y-15.7580
G01 X-16.2618 Y-15.8064
G01 X-16.2560 Y-15.8122
G01 X-16.2147 Y-15.8624
G01 X-16.2078 Y-15.8693
G01 X-16.0791 Y-15.9750
G01 X-16.0709 Y-15.9804
G01 X-15.9240 Y-16.0590
G01 X-15.9150 Y-16.0627
G01 X-15.7556 Y-16.1110
G01 X-15.7461 Y-16.1129
G01 X-15.5754 Y-16.1298
G01 X-14.3754 Y-16.1298
G01 X-14.2047 Y-16.1129
G01 X-14.1952 Y-16.1110
G01 X-14.0358 Y-16.0627
G01 X-14.0267 Y-16.0590
G01 X-13.8798 Y-15.9804
G01 X-13.8717 Y-15.9750
G01 X-13.7430 Y-15.8693
G01 X-13.7361 Y-15.8624
G01 X-13.6304 Y-15.7337
G01 X-13.6250 Y-15.7256
G01 X-13.5464 Y-15.5786
G01 X-13.5427 Y-15.5696
G01 X-13.4943 Y-15.4102
G01 X-13.4924 Y-15.4007
G01 X-13.4761 Y-15.2349
G01 X-13.4761 Y-15.2251
G01 X-13.4924 Y-15.0593
G01 X-13.4943 Y-15.0498
G01 X-13.5427 Y-14.8904
G01 X-13.5464 Y-14.8814
G01 X-13.6250 Y-14.7344
G01 X-13.6304 Y-14.7263
G01 X-13.7361 Y-14.5976
G01 X-13.7430 Y-14.5907
G01 X-13.8717 Y-14.4850
G01 X-13.8798 Y-14.4796
G01 X-14.0267 Y-14.4010
G01 X-14.0358 Y-14.3973
G01 X-14.1952 Y-14.3490
G01 X-14.2047 Y-14.3471
G01 X-14.3754 Y-14.3302
G01 X-15.5754 Y-14.3302
G01 X-15.7461 Y-14.3471
G01 X-15.7556 Y-14.3490
G01 X-15.9150 Y-14.3973
G01 X-15.9240 Y-14.4010
G01 X-16.0709 Y-14.4796
G01 X-16.0791 Y-14.4850
G01 X-16.2078 Y-14.5907
G01 X-16.2147 Y-14.5976
G01 X-16.2742 Y-14.6698
G01 X-16.2780 Y-14.6734
G01 X-16.3236 Y-14.7115
G01 X-16.3300 Y-14.7152
G01 X-16.3380 Y-14.7183
G01 X-16.4157 Y-14.7389
G01 X-16.4203 Y-14.7397
G01 X-16.4262 Y-14.7400
G01 X-17.4384 Y-14.7400
G01 X-17.4470 Y-14.7393
G01 X-17.4988 Y-14.7302
G01 X-17.5057 Y-14.7283
G01 X-17.5123 Y-14.7255
G01 X-17.5174 Y-14.7224
G01 X-17.5817 Y-14.6781
G01 X-17.5862 Y-14.6744
G01 X-17.5903 Y-14.6702
G01 X-21.0222 Y-10.6662
G01 X-21.0274 Y-10.6590
G01 X-21.0312 Y-10.6510
G01 X-21.0677 Y-10.5522
G01 X-21.0696 Y-10.5449
G01 X-21.0704 Y-10.5361
G01 X-21.0703 Y-1.8072
G01 X-21.0692 Y-1.7988
G01 X-21.0671 Y-1.7918
G01 X-21.0233 Y-1.6845
G01 X-21.0211 Y-1.6801
G01 X-21.0177 Y-1.6749
G01 X-21.0137 Y-1.6701
G01 X-21.0101 Y-1.6667
G01 X-21.0030 Y-1.6616
G01 X-20.9339 Y-1.6207
G01 X-20.9274 Y-1.6180
G01 X-20.8964 Y-1.6091
G01 X-20.8879 Y-1.6058
G01 X-20.7238 Y-1.5241
G01 X-20.7160 Y-1.5192
G01 X-20.5697 Y-1.4088
G01 X-20.5629 Y-1.4026
G01 X-20.4394 Y-1.2671
G01 X-20.4339 Y-1.2598
G01 X-20.3374 Y-1.1040
G01 X-20.3333 Y-1.0957
G01 X-20.2671 Y-0.9248
G01 X-20.2646 Y-0.9160
G01 X-20.2309 Y-0.7358
G01 X-20.2301 Y-0.7267
G01 X-20.2301 Y-0.5433
G01 X-20.2309 Y-0.5342
G01 X-20.2646 Y-0.3540
G01 X-20.2671 Y-0.3452
G01 X-20.3333 Y-0.1743
G01 X-20.3374 Y-0.1660
G01 X-20.4339 Y-0.0102
G01 X-20.4394 Y-0.0029
G01 X-20.5629 Y0.1326
G01 X-20.5697 Y0.1388
G01 X-20.7160 Y0.2492
G01 X-20.7238 Y0.2541
G01 X-20.8879 Y0.3358
G01 X-20.8964 Y0.3391
G01 X-21.0728 Y0.3893
G01 X-21.0818 Y0.3909
G01 X-21.2735 Y0.4085
G01 X-21.8673 Y0.4085
G01 X-22.0590 Y0.3909
G01 X-22.0680 Y0.3893
G01 X-22.2443 Y0.3391
G01 X-22.2529 Y0.3358
G01 X-22.4170 Y0.2541
G01 X-22.4248 Y0.2492
G01 X-22.5711 Y0.1388
G01 X-22.5779 Y0.1326
G01 X-22.7013 Y-0.0029
G01 X-22.7069 Y-0.0102
G01 X-22.8034 Y-0.1660
G01 X-22.8075 Y-0.1743
G01 X-22.8737 Y-0.3452
G01 X-22.8762 Y-0.3540
G01 X-22.9099 Y-0.5342
G01 X-22.9107 Y-0.5433
G01 X-22.9107 Y-0.7267
G01 X-22.9099 Y-0.7358
G01 X-22.8762 Y-0.9160
G01 X-22.8737 Y-0.9248
G01 X-22.8075 Y-1.0957
G01 X-22.8034 Y-1.1040
G01 X-22.7069 Y-1.2598
G01 X-22.7013 Y-1.2671
G01 X-22.5779 Y-1.4026
G01 X-22.5711 Y-1.4088
G01 X-22.4248 Y-1.5192
G01 X-22.4170 Y-1.5241
G01 X-22.2529 Y-1.6058
G01 X-22.2443 Y-1.6091
G01 X-22.2157 Y-1.6173
G00 Z2.0000
G00 X-24.4105 Y1.9050
G01 F60.00
G01 Z-0.0000
G01 F120.00
G01 X-24.4105 Y-10.7950
G01 X-24.4101 Y-10.8102
G01 X-24.4089 Y-10.8256
G01 X-24.4072 Y-10.8395
G01 X-24.4050 Y-10.8523
G01 X-24.4014 Y-10.8684
G01 X-24.3976 Y-10.8821
G01 X-24.3924 Y-10.8977
G01 X-24.3877 Y-10.9099
G01 X-24.3820 Y-10.9226
G01 X-24.3756 Y-10.9354
G01 X-24.3676 Y-10.9497
G01 X-24.3592 Y-10.9628
G01 X-24.3512 Y-10.9741
G01 X-24.3432 Y-10.9844
G01 X-24.3325 Y-10.9969
G01 X-17.9825 Y-17.9819
G01 X-17.9726 Y-17.9922
G01 X-17.9616 Y-18.0027
G01 X-17.9508 Y-18.0120
G01 X-17.9388 Y-18.0213
G01 X-17.9261 Y-18.0302
G01 X-17.9143 Y-18.0377
G01 X-17.9019 Y-18.0447
G01 X-17.8872 Y-18.0520
G01 X-17.8752 Y-18.0573
G01 X-17.8611 Y-18.0627
G01 X-17.8475 Y-18.0672
G01 X-17.8341 Y-18.0709
G01 X-17.8189 Y-18.0744
G01 X-17.8040 Y-18.0769
G01 X-17.7910 Y-18.0785
G01 X-17.7734 Y-18.0798
G01 X-17.7604 Y-18.0801
G01 X-16.2117 Y-18.0801
G01 X-16.1927 Y-18.1200
G01 X-16.1581 Y-18.1779
G01 X-16.1157 Y-18.2350
G01 X-16.0686 Y-18.2867
G01 X-16.0195 Y-18.3311
G01 X-15.9653 Y-18.3713
G01 X-15.9054 Y-18.4073
G01 X-15.8410 Y-18.4376
G01 X-15.7786 Y-18.4599
G01 X-15.7144 Y-18.4760
G01 X-15.6440 Y-18.4866
G01 X-15.5754 Y-18.4900
G01 X-14.3754 Y-18.4900
G01 X-14.3092 Y-18.4868
G01 X-14.2388 Y-18.4765
G01 X-14.1722 Y-18.4599
G01 X-14.1075 Y-18.4367
G01 X-14.0465 Y-18.4079
G01 X-13.9845 Y-18.3706
G01 X-13.9313 Y-18.3311
G01 X-13.8804 Y-18.2850
G01 X-13.8343 Y-18.2341
G01 X-13.7948 Y-18.1809
G01 X-13.7580 Y-18.1200
G01 X-13.7278 Y-18.0556
G01 X-13.7055 Y-17.9932
G01 X-13.6888 Y-17.9266
G01 X-13.6788 Y-17.8586
G01 X-13.6755 Y-17.7925
G01 X-13.6788 Y-17.7214
G01 X-13.6894 Y-17.6510
G01 X-13.7055 Y-17.5868
G01 X-13.7287 Y-17.5221
G01 X-13.7580 Y-17.4600
G01 X-13.7921 Y-17.4032
G01 X-13.8343 Y-17.3459
G01 X-13.8822 Y-17.2933
G01 X-13.9313 Y-17.2489
G01 X-13.9865 Y-17.2080
G01 X-14.0454 Y-17.1727
G01 X-14.1053 Y-17.1443
G01 X-14.1746 Y-17.1195
G01 X-14.2388 Y-17.1035
G01 X-14.3043 Y-17.0937
G01 X-14.3742 Y-17.0900
G01 X-15.5754 Y-17.0900
G01 X-15.6440 Y-17.0934
G01 X-15.7144 Y-17.1040
G01 X-15.7786 Y-17.1201
G01 X-15.8410 Y-17.1424
G01 X-15.9054 Y-17.1727
G01 X-15.9653 Y-17.2087
G01 X-16.0195 Y-17.2489
G01 X-16.0686 Y-17.2933
G01 X-16.1157 Y-17.3450
G01 X-16.1581 Y-17.4021
G01 X-16.1921 Y-17.4589
G01 X-16.2022 Y-17.4799
G01 X-17.6276 Y-17.4799
G01 X-23.8103 Y-10.6790
G01 X-23.8103 Y1.6049
G01 X-22.6594 Y1.6049
G01 X-22.6507 Y1.5811
G01 X-22.6164 Y1.5085
G01 X-22.5739 Y1.4374
G01 X-22.5239 Y1.3699
G01 X-22.4692 Y1.3094
G01 X-22.4070 Y1.2530
G01 X-22.3405 Y1.2037
G01 X-22.2695 Y1.1611
G01 X-22.1924 Y1.1248
G01 X-22.1167 Y1.0978
G01 X-22.0388 Y1.0782
G01 X-21.9521 Y1.0654
G01 X-21.8719 Y1.0615
G01 X-21.2689 Y1.0615
G01 X-21.1862 Y1.0656
G01 X-21.1043 Y1.0777
G01 X-21.0240 Y1.0978
G01 X-20.9461 Y1.1257
G01 X-20.8713 Y1.1611
G01 X-20.8003 Y1.2037
G01 X-20.7338 Y1.2530
G01 X-20.6724 Y1.3086
G01 X-20.6185 Y1.3680
G01 X-20.5675 Y1.4364
G01 X-20.5250 Y1.5074
G01 X-20.4896 Y1.5822
G01 X-20.4625 Y1.6578
G01 X-20.4412 Y1.7429
G01 X-20.4295 Y1.8223
G01 X-20.4255 Y1.9075
G01 X-20.4295 Y1.9877
G01 X-20.4412 Y2.0671
G01 X-20.4617 Y2.1499
G01 X-20.4906 Y2.2300
G01 X-20.5250 Y2.3026
G01 X-20.5662 Y2.3716
G01 X-20.6169 Y2.4401
G01 X-20.6742 Y2.5031
G01 X-20.7338 Y2.5570
G01 X-20.7983 Y2.6049
G01 X-20.8702 Y2.6483
G01 X-20.9461 Y2.6843
G01 X-21.0240 Y2.7122
G01 X-21.1043 Y2.7323
G01 X-21.1862 Y2.7444
G01 X-21.2689 Y2.7485
G01 X-21.8719 Y2.7485
G01 X-21.9570 Y2.7441
G01 X-22.0365 Y2.7323
G01 X-22.1167 Y2.7122
G01 X-22.1947 Y2.6843
G01 X-22.2673 Y2.6500
G01 X-22.3415 Y2.6057
G01 X-22.4070 Y2.5570
G01 X-22.4666 Y2.5031
G01 X-22.5247 Y2.4392
G01 X-22.5732 Y2.3736
G01 X-22.6152 Y2.3037
G01 X-22.6507 Y2.2289
G01 X-22.6594 Y2.2051
G01 X-24.1104 Y2.2051
G01 X-24.1398 Y2.2037
G01 X-24.1677 Y2.1996
G01 X-24.1975 Y2.1922
G01 X-24.2230 Y2.1832
G01 X-24.2540 Y2.1685
G01 X-24.2771 Y2.1545
G01 X-24.3008 Y2.1370
G01 X-24.3226 Y2.1172
G01 X-24.3424 Y2.0954
G01 X-24.3599 Y2.0717
G01 X-24.3751 Y2.0465
G01 X-24.3877 Y2.0199
G01 X-24.3968 Y1.9945
G01 X-24.4052 Y1.9611
G01 X-24.4091 Y1.9344
G01 X-24.4105 Y1.9050
G00 Z2.0000
G00 X-21.8719 Y3.6015
G01 F60.00
G01 Z-0.0000
G01 F120.00
G01 X-21.2664 Y3.6016
G01 X-21.1862 Y3.6056
G01 X-21.1068 Y3.6173
G01 X-21.0252 Y3.6375
G01 X-20.9461 Y3.6657
G01 X-20.8735 Y3.7000
G01 X-20.7983 Y3.7451
G01 X-20.7338 Y3.7930
G01 X-20.6724 Y3.8486
G01 X-20.6169 Y3.9099
G01 X-20.5682 Y3.9754
G01 X-20.5250 Y4.0474
G01 X-20.4896 Y4.1222
G01 X-20.4617 Y4.2001
G01 X-20.4416 Y4.2804
G01 X-20.4295 Y4.3623
G01 X-20.4254 Y4.4450
G01 X-20.4295 Y4.5277
G01 X-20.4416 Y4.6096
G01 X-20.4617 Y4.6899
G01 X-20.4896 Y4.7678
G01 X-20.5250 Y4.8426
G01 X-20.5675 Y4.9136
G01 X-20.6169 Y4.9801
G01 X-20.6724 Y5.0414
G01 X-20.7338 Y5.0970
G01 X-20.7993 Y5.1457
G01 X-20.8713 Y5.1889
G01 X-20.9484 Y5.2252
G01 X-21.0240 Y5.2522
G01 X-21.1019 Y5.2718
G01 X-21.1850 Y5.2843
G01 X-21.2689 Y5.2885
G01 X-21.8719 Y5.2885
G01 X-21.9558 Y5.2843
G01 X-22.0365 Y5.2723
G01 X-22.1167 Y5.2522
G01 X-22.1947 Y5.2243
G01 X-22.2717 Y5.1877
G01 X-22.3425 Y5.1449
G01 X-22.4070 Y5.0970
G01 X-22.4666 Y5.0431
G01 X-22.5239 Y4.9801
G01 X-22.5725 Y4.9146
G01 X-22.6169 Y4.8404
G01 X-22.6512 Y4.7678
G01 X-22.6783 Y4.6922
G01 X-22.6992 Y4.6096
G01 X-22.7115 Y4.5252
G01 X-22.7154 Y4.4450
G01 X-22.7115 Y4.3648
G01 X-22.6992 Y4.2804
G01 X-22.6783 Y4.1978
G01 X-22.6512 Y4.1222
G01 X-22.6158 Y4.0474
G01 X-22.5718 Y3.9744
G01 X-22.5239 Y3.9099
G01 X-22.4683 Y3.8486
G01 X-22.4051 Y3.7915
G01 X-22.3405 Y3.7437
G01 X-22.2717 Y3.7023
G01 X-22.1947 Y3.6657
G01 X-22.1144 Y3.6372
G01 X-22.0365 Y3.6177
G01 X-21.9570 Y3.6059
G01 X-21.8719 Y3.6015
G00 Z2.0000
G00 X-21.8719 Y6.1415
G01 F60.00
G01 Z-0.0000
G01 F120.00
G01 X-21.2689 Y6.1415
G01 X-21.1874 Y6.1455
G01 X-21.1019 Y6.1582
G01 X-21.0240 Y6.1778
G01 X-20.9472 Y6.2053
G01 X-20.8713 Y6.2411
G01 X-20.8003 Y6.2837
G01 X-20.7338 Y6.3330
G01 X-20.6716 Y6.3894
G01 X-20.6169 Y6.4499
G01 X-20.5669 Y6.5174
G01 X-20.5244 Y6.5885
G01 X-20.4901 Y6.6611
G01 X-20.4814 Y6.6849
G01 X-18.6529 Y6.6849
G01 X-17.4220 Y-1.3156
G01 X-17.4198 Y-1.3286
G01 X-17.4161 Y-1.3445
G01 X-17.4126 Y-1.3571
G01 X-17.4078 Y-1.3715
G01 X-17.4027 Y-1.3849
G01 X-17.3965 Y-1.3987
G01 X-17.3895 Y-1.4126
G01 X-17.3820 Y-1.4257
G01 X-17.3756 Y-1.4357
G01 X-17.3662 Y-1.4491
G01 X-17.3574 Y-1.4604
G01 X-17.3467 Y-1.4727
G01 X-17.3376 Y-1.4822
G01 X-17.3248 Y-1.4943
G01 X-17.3148 Y-1.5028
G01 X-17.3029 Y-1.5120
G01 X-17.2931 Y-1.5189
G01 X-17.2783 Y-1.5283
G01 X-17.2658 Y-1.5353
G01 X-17.2511 Y-1.5425
G01 X-17.2402 Y-1.5473
G01 X-17.2261 Y-1.5527
G01 X-17.2125 Y-1.5572
G01 X-17.1967 Y-1.5615
G01 X-17.1839 Y-1.5644
G01 X-17.1666 Y-1.5673
G01 X-17.1548 Y-1.5687
G01 X-17.1385 Y-1.5698
G01 X-17.1254 Y-1.5701
G01 X-17.1091 Y-1.5697
G01 X-17.0960 Y-1.5687
G01 X-17.0798 Y-1.5666
G01 X-17.0668 Y-1.5644
G01 X-17.0487 Y-1.5601
G01 X-16.2069 Y-1.5601
G01 X-16.1921 Y-1.5911
G01 X-16.1581 Y-1.6479
G01 X-16.1157 Y-1.7050
G01 X-16.0686 Y-1.7567
G01 X-16.0195 Y-1.8011
G01 X-15.9653 Y-1.8413
G01 X-15.9054 Y-1.8773
G01 X-15.8410 Y-1.9076
G01 X-15.7786 Y-1.9299
G01 X-15.7144 Y-1.9460
G01 X-15.6440 Y-1.9566
G01 X-15.5754 Y-1.9600
G01 X-14.3754 Y-1.9600
G01 X-14.3056 Y-1.9565
G01 X-14.2388 Y-1.9465
G01 X-14.1722 Y-1.9299
G01 X-14.1075 Y-1.9067
G01 X-14.0476 Y-1.8784
G01 X-13.9845 Y-1.8406
G01 X-13.9313 Y-1.8011
G01 X-13.8804 Y-1.7550
G01 X-13.8328 Y-1.7021
G01 X-13.7934 Y-1.6489
G01 X-13.7593 Y-1.5921
G01 X-13.7287 Y-1.5279
G01 X-13.7049 Y-1.4608
G01 X-13.6888 Y-1.3966
G01 X-13.6791 Y-1.3310
G01 X-13.6754 Y-1.2600
G01 X-13.6791 Y-1.1890
G01 X-13.6888 Y-1.1234
G01 X-13.7049 Y-1.0592
G01 X-13.7287 Y-0.9921
G01 X-13.7593 Y-0.9279
G01 X-13.7934 Y-0.8711
G01 X-13.8328 Y-0.8179
G01 X-13.8804 Y-0.7650
G01 X-13.9333 Y-0.7174
G01 X-13.9865 Y-0.6780
G01 X-14.0433 Y-0.6439
G01 X-14.1075 Y-0.6133
G01 X-14.1734 Y-0.5898
G01 X-14.2412 Y-0.5730
G01 X-14.3068 Y-0.5634
G01 X-14.3742 Y-0.5600
G01 X-15.5754 Y-0.5600
G01 X-15.6464 Y-0.5637
G01 X-15.7144 Y-0.5740
G01 X-15.7786 Y-0.5901
G01 X-15.8410 Y-0.6124
G01 X-15.9054 Y-0.6427
G01 X-15.9653 Y-0.6787
G01 X-16.0195 Y-0.7189
G01 X-16.0686 Y-0.7633
G01 X-16.1157 Y-0.8150
G01 X-16.1581 Y-0.8721
G01 X-16.1921 Y-0.9289
G01 X-16.2069 Y-0.9599
G01 X-16.8694 Y-0.9599
G01 X-18.0988 Y7.0306
G01 X-18.1010 Y7.0436
G01 X-18.1044 Y7.0583
G01 X-18.1082 Y7.0721
G01 X-18.1134 Y7.0876
G01 X-18.1177 Y7.0987
G01 X-18.1253 Y7.1159
G01 X-18.1307 Y7.1265
G01 X-18.1388 Y7.1407
G01 X-18.1458 Y7.1517
G01 X-18.1546 Y7.1641
G01 X-18.1642 Y7.1763
G01 X-18.1741 Y7.1877
G01 X-18.1832 Y7.1972
G01 X-18.1950 Y7.2085
G01 X-18.2050 Y7.2170
G01 X-18.2179 Y7.2270
G01 X-18.2276 Y7.2339
G01 X-18.2436 Y7.2439
G01 X-18.2539 Y7.2497
G01 X-18.2697 Y7.2575
G01 X-18.2805 Y7.2623
G01 X-18.2958 Y7.2681
G01 X-18.3083 Y7.2722
G01 X-18.3240 Y7.2765
G01 X-18.3368 Y7.2794
G01 X-18.3530 Y7.2821
G01 X-18.3660 Y7.2837
G01 X-18.3823 Y7.2848
G01 X-18.3954 Y7.2851
G01 X-20.4814 Y7.2851
G01 X-20.4901 Y7.3089
G01 X-20.5244 Y7.3815
G01 X-20.5669 Y7.4526
G01 X-20.6169 Y7.5201
G01 X-20.6733 Y7.5823
G01 X-20.7357 Y7.6385
G01 X-20.8003 Y7.6863
G01 X-20.8691 Y7.7277
G01 X-20.9461 Y7.7643
G01 X-21.0240 Y7.7922
G01 X-21.1043 Y7.8123
G01 X-21.1838 Y7.8241
G01 X-21.2689 Y7.8285
G01 X-21.8743 Y7.8284
G01 X-21.9546 Y7.8244
G01 X-22.0340 Y7.8127
G01 X-22.1156 Y7.7925
G01 X-22.1947 Y7.7643
G01 X-22.2673 Y7.7300
G01 X-22.3425 Y7.6849
G01 X-22.4070 Y7.6370
G01 X-22.4683 Y7.5814
G01 X-22.5239 Y7.5201
G01 X-22.5732 Y7.4536
G01 X-22.6158 Y7.3826
G01 X-22.6512 Y7.3078
G01 X-22.6791 Y7.2299
G01 X-22.6986 Y7.1520
G01 X-22.7113 Y7.0677
G01 X-22.7153 Y6.9875
G01 X-22.7110 Y6.8999
G01 X-22.6992 Y6.8204
G01 X-22.6791 Y6.7401
G01 X-22.6512 Y6.6622
G01 X-22.6158 Y6.5874
G01 X-22.5732 Y6.5164
G01 X-22.5239 Y6.4499
G01 X-22.4683 Y6.3886
G01 X-22.4089 Y6.3346
G01 X-22.3405 Y6.2837
G01 X-22.2717 Y6.2423
G01 X-22.1924 Y6.2048
G01 X-22.1167 Y6.1778
G01 X-22.0365 Y6.1577
G01 X-21.9546 Y6.1456
G01 X-21.8719 Y6.1415
G00 Z2.0000
G00 X-23.6087 Y6.4022
G01 F60.00
G01 Z-0.0000
G01 F120.00
G01 X-23.6100 Y6.4091
G01 X-23.6104 Y6.4150
G01 X-23.6104 Y8.8250
G01 X-23.6100 Y8.8311
G01 X-23.6089 Y8.8370
G01 X-23.5876 Y8.9147
G01 X-23.5851 Y8.9218
G01 X-23.5809 Y8.9295
G01 X-23.5779 Y8.9335
G01 X-23.5745 Y8.9371
G01 X-23.5197 Y8.9910
G01 X-23.5150 Y8.9950
G01 X-23.5099 Y8.9985
G01 X-23.5033 Y9.0017
G01 X-23.4974 Y9.0037
G01 X-23.4232 Y9.0233
G01 X-23.4151 Y9.0248
G01 X-22.8943 Y9.0250
G01 X-22.8844 Y9.0237
G01 X-22.8115 Y9.0052
G01 X-22.8069 Y9.0038
G01 X-22.8013 Y9.0014
G01 X-22.7961 Y8.9983
G01 X-22.7913 Y8.9947
G01 X-22.7320 Y8.9386
G01 X-22.7268 Y8.9323
G01 X-22.7069 Y8.9002
G01 X-22.7013 Y8.8929
G01 X-22.5779 Y8.7574
G01 X-22.5711 Y8.7512
G01 X-22.4248 Y8.6408
G01 X-22.4170 Y8.6359
G01 X-22.2529 Y8.5542
G01 X-22.2443 Y8.5509
G01 X-22.0680 Y8.5007
G01 X-22.0590 Y8.4991
G01 X-21.8719 Y8.4817
G01 X-21.2735 Y8.4815
G01 X-21.0818 Y8.4991
G01 X-21.0728 Y8.5007
G01 X-20.8964 Y8.5509
G01 X-20.8879 Y8.5542
G01 X-20.7238 Y8.6359
G01 X-20.7160 Y8.6408
G01 X-20.5697 Y8.7512
G01 X-20.5629 Y8.7574
G01 X-20.4394 Y8.8929
G01 X-20.4339 Y8.9002
G01 X-20.3374 Y9.0560
G01 X-20.3333 Y9.0643
G01 X-20.2671 Y9.2352
G01 X-20.2646 Y9.2440
G01 X-20.2309 Y9.4242
G01 X-20.2301 Y9.4333
G01 X-20.2301 Y9.6167
G01 X-20.2309 Y9.6258
G01 X-20.2646 Y9.8060
G01 X-20.2671 Y9.8148
G01 X-20.3333 Y9.9857
G01 X-20.3374 Y9.9940
G01 X-20.4339 Y10.1498
G01 X-20.4394 Y10.1571
G01 X-20.5629 Y10.2926
G01 X-20.5697 Y10.2988
G01 X-20.7160 Y10.4092
G01 X-20.7238 Y10.4141
G01 X-20.7994 Y10.4517
G01 X-20.8064 Y10.4562
G01 X-20.8126 Y10.4618
G01 X-20.8841 Y10.5382
G01 X-20.8887 Y10.5439
G01 X-20.8925 Y10.5503
G01 X-20.8952 Y10.5571
G01 X-20.8967 Y10.5631
G01 X-20.9078 Y10.6428
G01 X-20.9081 Y10.6502
G01 X-20.9070 Y10.6588
G01 X-20.9045 Y10.6670
G01 X-20.8760 Y10.7383
G01 X-20.8734 Y10.7439
G01 X-20.8701 Y10.7491
G01 X-20.8661 Y10.7539
G01 X-20.8617 Y10.7581
G01 X-20.8006 Y10.8067
G01 X-20.7958 Y10.8101
G01 X-20.7906 Y10.8129
G01 X-20.6333 Y10.8819
G01 X-20.6261 Y10.8858
G01 X-20.4473 Y11.0027
G01 X-20.4408 Y11.0077
G01 X-20.2836 Y11.1524
G01 X-20.2780 Y11.1584
G01 X-20.1468 Y11.3270
G01 X-20.1423 Y11.3339
G01 X-20.0407 Y11.5218
G01 X-20.0374 Y11.5293
G01 X-19.9680 Y11.7313
G01 X-19.9660 Y11.7393
G01 X-19.9450 Y11.8650
G01 X-20.4504 Y11.8650
G01 X-20.4621 Y11.8190
G01 X-20.4901 Y11.7411
G01 X-20.5047 Y11.7101
G01 X-20.5087 Y11.6996
G01 X-20.5142 Y11.6900
G01 X-20.5250 Y11.6674
G01 X-20.5669 Y11.5974
G01 X-20.6040 Y11.5472
G01 X-20.6083 Y11.5406
G01 X-20.6169 Y11.5299
G01 X-20.6708 Y11.4703
G01 X-20.7319 Y11.4146
G01 X-20.7435 Y11.4051
G01 X-20.7511 Y11.4001
G01 X-20.8003 Y11.3637
G01 X-20.8713 Y11.3211
G01 X-20.8939 Y11.3103
G01 X-20.9035 Y11.3048
G01 X-20.9140 Y11.3008
G01 X-20.9461 Y11.2857
G01 X-21.0217 Y11.2586
G01 X-21.0699 Y11.2463
G01 X-21.0806 Y11.2428
G01 X-21.0892 Y11.2414
G01 X-21.1068 Y11.2373
G01 X-21.1862 Y11.2256
G01 X-21.2689 Y11.2215
G01 X-21.8743 Y11.2216
G01 X-21.9546 Y11.2256
G01 X-22.0340 Y11.2373
G01 X-22.0515 Y11.2414
G01 X-22.0602 Y11.2428
G01 X-22.0709 Y11.2463
G01 X-22.1179 Y11.2582
G01 X-22.1935 Y11.2853
G01 X-22.2268 Y11.3008
G01 X-22.2373 Y11.3048
G01 X-22.2469 Y11.3103
G01 X-22.2706 Y11.3217
G01 X-22.3384 Y11.3623
G01 X-22.3897 Y11.4001
G01 X-22.3963 Y11.4044
G01 X-22.4070 Y11.4130
G01 X-22.4692 Y11.4694
G01 X-22.5223 Y11.5280
G01 X-22.5325 Y11.5406
G01 X-22.5368 Y11.5472
G01 X-22.5732 Y11.5964
G01 X-22.6152 Y11.6663
G01 X-22.6265 Y11.6900
G01 X-22.6321 Y11.6996
G01 X-22.6361 Y11.7101
G01 X-22.6516 Y11.7433
G01 X-22.6787 Y11.8190
G01 X-22.6904 Y11.8650
G01 X-23.1958 Y11.8650
G01 X-23.1748 Y11.7393
G01 X-23.1728 Y11.7313
G01 X-23.1034 Y11.5293
G01 X-23.1001 Y11.5218
G01 X-22.9985 Y11.3339
G01 X-22.9939 Y11.3270
G01 X-22.8627 Y11.1584
G01 X-22.8572 Y11.1524
G01 X-22.7000 Y11.0077
G01 X-22.6935 Y11.0027
G01 X-22.5147 Y10.8858
G01 X-22.5075 Y10.8819
G01 X-22.3501 Y10.8129
G01 X-22.3439 Y10.8094
G01 X-22.3374 Y10.8043
G01 X-22.2605 Y10.7298
G01 X-22.2557 Y10.7242
G01 X-22.2518 Y10.7179
G01 X-22.2489 Y10.7111
G01 X-22.2473 Y10.7052
G01 X-22.2326 Y10.6273
G01 X-22.2320 Y10.6175
G01 X-22.2331 Y10.6089
G01 X-22.2347 Y10.6030
G01 X-22.2606 Y10.5281
G01 X-22.2651 Y10.5193
G01 X-22.2688 Y10.5144
G01 X-22.2722 Y10.5108
G01 X-22.3354 Y10.4555
G01 X-22.3424 Y10.4512
G01 X-22.4170 Y10.4141
G01 X-22.4248 Y10.4092
G01 X-22.5711 Y10.2988
G01 X-22.5779 Y10.2926
G01 X-22.7013 Y10.1571
G01 X-22.7069 Y10.1498
G01 X-22.7262 Y10.1187
G01 X-22.7316 Y10.1118
G01 X-22.7884 Y10.0570
G01 X-22.7952 Y10.0520
G01 X-22.8039 Y10.0478
G01 X-22.8839 Y10.0264
G01 X-22.8897 Y10.0253
G01 X-22.8944 Y10.0250
G01 X-24.1038 Y10.0250
G01 X-24.1104 Y10.0246
G01 X-24.2332 Y10.0084
G01 X-24.2457 Y10.0050
G01 X-24.3541 Y9.9601
G01 X-24.3654 Y9.9537
G01 X-24.4585 Y9.8822
G01 X-24.4676 Y9.8731
G01 X-24.5391 Y9.7800
G01 X-24.5455 Y9.7688
G01 X-24.5904 Y9.6603
G01 X-24.5938 Y9.6478
G01 X-24.6100 Y9.5250
G01 X-24.6104 Y9.5185
G01 X-24.6104 Y5.7215
G01 X-24.6100 Y5.7150
G01 X-24.5938 Y5.5922
G01 X-24.5904 Y5.5797
G01 X-24.5455 Y5.4712
G01 X-24.5391 Y5.4600
G01 X-24.4676 Y5.3669
G01 X-24.4585 Y5.3578
G01 X-24.3654 Y5.2863
G01 X-24.3541 Y5.2799
G01 X-24.2457 Y5.2350
G01 X-24.2332 Y5.2316
G01 X-24.1104 Y5.2154
G01 X-24.1038 Y5.2150
G01 X-22.9737 Y5.2149
G01 X-22.9677 Y5.2143
G01 X-22.9631 Y5.2133
G01 X-22.8796 Y5.1888
G01 X-22.8705 Y5.1848
G01 X-22.8653 Y5.1815
G01 X-22.8615 Y5.1784
G01 X-22.8053 Y5.1172
G01 X-22.8016 Y5.1123
G01 X-22.7985 Y5.1070
G01 X-22.7960 Y5.1014
G01 X-22.7943 Y5.0955
G01 X-22.7771 Y5.0193
G01 X-22.7761 Y5.0095
G01 X-22.7765 Y5.0034
G01 X-22.7777 Y4.9973
G01 X-22.7940 Y4.9433
G01 X-22.7949 Y4.9350
G01 X-22.7969 Y4.9279
G01 X-22.7987 Y4.9233
G01 X-22.8075 Y4.9057
G01 X-22.8737 Y4.7348
G01 X-22.8762 Y4.7260
G01 X-22.9099 Y4.5458
G01 X-22.9107 Y4.5367
G01 X-22.9107 Y4.3533
G01 X-22.9099 Y4.3442
G01 X-22.8762 Y4.1640
G01 X-22.8737 Y4.1552
G01 X-22.8075 Y3.9843
G01 X-22.8034 Y3.9760
G01 X-22.7069 Y3.8202
G01 X-22.7013 Y3.8129
G01 X-22.5779 Y3.6774
G01 X-22.5711 Y3.6712
G01 X-22.4248 Y3.5608
G01 X-22.4170 Y3.5559
G01 X-22.2529 Y3.4742
G01 X-22.2443 Y3.4709
G01 X-22.0680 Y3.4207
G01 X-22.0590 Y3.4191
G01 X-21.8673 Y3.4015
G01 X-21.2735 Y3.4015
G01 X-21.0818 Y3.4191
G01 X-21.0728 Y3.4207
G01 X-20.8964 Y3.4709
G01 X-20.8879 Y3.4742
G01 X-20.7238 Y3.5559
G01 X-20.7160 Y3.5608
G01 X-20.5697 Y3.6712
G01 X-20.5629 Y3.6774
G01 X-20.4394 Y3.8129
G01 X-20.4339 Y3.8202
G01 X-20.3374 Y3.9760
G01 X-20.3333 Y3.9843
G01 X-20.3210 Y4.0160
G01 X-20.3170 Y4.0233
G01 X-20.2630 Y4.0939
G01 X-20.2571 Y4.1001
G01 X-20.2490 Y4.1059
G01 X-20.2424 Y4.1091
G01 X-20.1709 Y4.1371
G01 X-20.1650 Y4.1390
G01 X-20.1590 Y4.1402
G01 X-20.1528 Y4.1406
G01 X-20.1467 Y4.1402
G01 X-20.0682 Y4.1289
G01 X-20.0622 Y4.1275
G01 X-20.0564 Y4.1253
G01 X-20.0520 Y4.1231
G01 X-20.0468 Y4.1198
G01 X-19.9843 Y4.0711
G01 X-19.9781 Y4.0651
G01 X-19.9731 Y4.0581
G01 X-19.9698 Y4.0515
G01 X-19.9405 Y3.9805
G01 X-19.9385 Y3.9749
G01 X-19.9371 Y3.9680
G01 X-18.8919 Y-3.8795
G01 X-18.8906 Y-3.8859
G01 X-18.8851 Y-3.9065
G01 X-18.8808 Y-3.9282
G01 X-18.8788 Y-3.9428
G01 X-18.8754 Y-3.9553
G01 X-18.8694 Y-3.9699
G01 X-18.8628 Y-3.9893
G01 X-18.8583 Y-4.0056
G01 X-18.8534 Y-4.0175
G01 X-18.8460 Y-4.0303
G01 X-18.8362 Y-4.0501
G01 X-18.8305 Y-4.0638
G01 X-18.8241 Y-4.0750
G01 X-18.8145 Y-4.0875
G01 X-18.8025 Y-4.1054
G01 X-18.7945 Y-4.1191
G01 X-18.7866 Y-4.1293
G01 X-18.7762 Y-4.1398
G01 X-18.7617 Y-4.1564
G01 X-18.7526 Y-4.1681
G01 X-18.7435 Y-4.1772
G01 X-18.7301 Y-4.1876
G01 X-18.7147 Y-4.2011
G01 X-18.7035 Y-4.2122
G01 X-18.6933 Y-4.2200
G01 X-18.6805 Y-4.2275
G01 X-18.6621 Y-4.2397
G01 X-18.6504 Y-4.2487
G01 X-18.6391 Y-4.2551
G01 X-18.6246 Y-4.2612
G01 X-18.6052 Y-4.2707
G01 X-18.5915 Y-4.2786
G01 X-18.5796 Y-4.2835
G01 X-18.5653 Y-4.2874
G01 X-18.5444 Y-4.2944
G01 X-18.5307 Y-4.3000
G01 X-18.5182 Y-4.3034
G01 X-18.5015 Y-4.3057
G01 X-18.4814 Y-4.3097
G01 X-18.4662 Y-4.3137
G01 X-18.4533 Y-4.3154
G01 X-18.4385 Y-4.3154
G01 X-18.4165 Y-4.3168
G01 X-18.3954 Y-4.3196
G01 X-18.3888 Y-4.3200
G01 X-16.4180 Y-4.3200
G01 X-16.4102 Y-4.3206
G01 X-16.3529 Y-4.3313
G01 X-16.3436 Y-4.3344
G01 X-16.3361 Y-4.3387
G01 X-16.2691 Y-4.3872
G01 X-16.2634 Y-4.3931
G01 X-16.2147 Y-4.4524
G01 X-16.2078 Y-4.4593
G01 X-16.0791 Y-4.5650
G01 X-16.0709 Y-4.5704
G01 X-15.9240 Y-4.6490
G01 X-15.9150 Y-4.6527
G01 X-15.7556 Y-4.7010
G01 X-15.7461 Y-4.7029
G01 X-15.5754 Y-4.7198
G01 X-14.3803 Y-4.7200
G01 X-14.2047 Y-4.7029
G01 X-14.1952 Y-4.7010
G01 X-14.0358 Y-4.6527
G01 X-14.0267 Y-4.6490
G01 X-13.8798 Y-4.5704
G01 X-13.8717 Y-4.5650
G01 X-13.7430 Y-4.4593
G01 X-13.7361 Y-4.4524
G01 X-13.6304 Y-4.3237
G01 X-13.6250 Y-4.3156
G01 X-13.5464 Y-4.1686
G01 X-13.5427 Y-4.1596
G01 X-13.4943 Y-4.0002
G01 X-13.4924 Y-3.9907
G01 X-13.4761 Y-3.8249
G01 X-13.4761 Y-3.8151
G01 X-13.4924 Y-3.6493
G01 X-13.4943 Y-3.6398
G01 X-13.5427 Y-3.4804
G01 X-13.5464 Y-3.4714
G01 X-13.6250 Y-3.3244
G01 X-13.6304 Y-3.3163
G01 X-13.7361 Y-3.1876
G01 X-13.7430 Y-3.1807
G01 X-13.8717 Y-3.0750
G01 X-13.8798 Y-3.0696
G01 X-14.0267 Y-2.9910
G01 X-14.0358 Y-2.9873
G01 X-14.1952 Y-2.9390
G01 X-14.2047 Y-2.9371
G01 X-14.3803 Y-2.9200
G01 X-15.5705 Y-2.9200
G01 X-15.7461 Y-2.9371
G01 X-15.7556 Y-2.9390
G01 X-15.9150 Y-2.9873
G01 X-15.9240 Y-2.9910
G01 X-16.0709 Y-3.0696
G01 X-16.0791 Y-3.0750
G01 X-16.2078 Y-3.1807
G01 X-16.2147 Y-3.1876
G01 X-16.2660 Y-3.2498
G01 X-16.2698 Y-3.2534
G01 X-16.3144 Y-3.2908
G01 X-16.3218 Y-3.2952
G01 X-16.3298 Y-3.2983
G01 X-16.4063 Y-3.3186
G01 X-16.4157 Y-3.3199
G01 X-17.7824 Y-3.3200
G01 X-17.7875 Y-3.3197
G01 X-17.8524 Y-3.3067
G01 X-17.8582 Y-3.3050
G01 X-17.8627 Y-3.3032
G01 X-17.8710 Y-3.2982
G01 X-17.9345 Y-3.2487
G01 X-17.9413 Y-3.2416
G01 X-17.9441 Y-3.2375
G01 X-17.9471 Y-3.2321
G01 X-17.9782 Y-3.1567
G01 X-17.9796 Y-3.1522
G01 X-17.9807 Y-3.1464
G01 X-19.1689 Y5.7745
G01 X-19.1702 Y5.7809
G01 X-19.1759 Y5.8026
G01 X-19.1800 Y5.8232
G01 X-19.1820 Y5.8378
G01 X-19.1853 Y5.8503
G01 X-19.1913 Y5.8649
G01 X-19.1983 Y5.8853
G01 X-19.2024 Y5.9006
G01 X-19.2074 Y5.9125
G01 X-19.2148 Y5.9253
G01 X-19.2246 Y5.9451
G01 X-19.2303 Y5.9588
G01 X-19.2367 Y5.9700
G01 X-19.2469 Y5.9834
G01 X-19.2583 Y6.0004
G01 X-19.2662 Y6.0141
G01 X-19.2741 Y6.0243
G01 X-19.2846 Y6.0348
G01 X-19.2991 Y6.0514
G01 X-19.3082 Y6.0631
G01 X-19.3173 Y6.0722
G01 X-19.3298 Y6.0819
G01 X-19.3460 Y6.0961
G01 X-19.3573 Y6.1072
G01 X-19.3779 Y6.1230
G01 X-19.3826 Y6.1270
G01 X-19.3882 Y6.1335
G01 X-19.3922 Y6.1403
G01 X-19.4292 Y6.1780
G01 X-19.4339 Y6.1836
G01 X-19.4383 Y6.1908
G01 X-19.4417 Y6.1999
G01 X-19.4613 Y6.2805
G01 X-19.4618 Y6.2903
G01 X-19.4603 Y6.3000
G01 X-19.4387 Y6.3763
G01 X-19.4370 Y6.3809
G01 X-19.4342 Y6.3865
G01 X-19.4308 Y6.3916
G01 X-19.4268 Y6.3963
G01 X-19.3703 Y6.4518
G01 X-19.3635 Y6.4572
G01 X-19.3559 Y6.4613
G01 X-19.3489 Y6.4637
G01 X-19.2747 Y6.4833
G01 X-19.2689 Y6.4845
G01 X-19.2631 Y6.4850
G01 X-18.9935 Y6.4849
G01 X-18.9864 Y6.4841
G01 X-18.9280 Y6.4727
G01 X-18.9197 Y6.4699
G01 X-18.9111 Y6.4650
G01 X-18.8475 Y6.4175
G01 X-18.8404 Y6.4107
G01 X-18.8367 Y6.4058
G01 X-18.8331 Y6.3993
G01 X-18.8019 Y6.3278
G01 X-18.7989 Y6.3189
G01 X-17.6206 Y-1.3396
G01 X-17.6192 Y-1.3459
G01 X-17.6151 Y-1.3600
G01 X-17.6099 Y-1.3849
G01 X-17.6088 Y-1.3928
G01 X-17.6054 Y-1.4053
G01 X-17.5970 Y-1.4257
G01 X-17.5911 Y-1.4424
G01 X-17.5845 Y-1.4649
G01 X-17.5793 Y-1.4767
G01 X-17.5746 Y-1.4848
G01 X-17.5637 Y-1.5064
G01 X-17.5605 Y-1.5138
G01 X-17.5541 Y-1.5250
G01 X-17.5407 Y-1.5425
G01 X-17.5306 Y-1.5571
G01 X-17.5184 Y-1.5771
G01 X-17.5103 Y-1.5872
G01 X-17.5037 Y-1.5937
G01 X-17.4876 Y-1.6117
G01 X-17.4826 Y-1.6181
G01 X-17.4735 Y-1.6272
G01 X-17.4560 Y-1.6407
G01 X-17.4425 Y-1.6522
G01 X-17.4255 Y-1.6683
G01 X-17.4151 Y-1.6760
G01 X-17.4070 Y-1.6806
G01 X-17.3868 Y-1.6938
G01 X-17.3804 Y-1.6987
G01 X-17.3691 Y-1.7051
G01 X-17.3475 Y-1.7142
G01 X-17.3316 Y-1.7219
G01 X-17.3122 Y-1.7325
G01 X-17.3001 Y-1.7371
G01 X-17.2911 Y-1.7395
G01 X-17.2682 Y-1.7470
G01 X-17.2607 Y-1.7500
G01 X-17.2482 Y-1.7534
G01 X-17.2264 Y-1.7563
G01 X-17.2089 Y-1.7595
G01 X-17.1862 Y-1.7650
G01 X-17.1733 Y-1.7665
G01 X-17.1640 Y-1.7664
G01 X-17.1398 Y-1.7677
G01 X-17.1319 Y-1.7687
G01 X-17.1189 Y-1.7687
G01 X-17.0957 Y-1.7657
G01 X-17.0780 Y-1.7644
G01 X-17.0560 Y-1.7639
G01 X-17.0432 Y-1.7620
G01 X-17.0153 Y-1.7600
G01 X-16.4180 Y-1.7600
G01 X-16.4089 Y-1.7608
G01 X-16.3553 Y-1.7708
G01 X-16.3493 Y-1.7722
G01 X-16.3425 Y-1.7750
G01 X-16.3361 Y-1.7787
G01 X-16.2691 Y-1.8272
G01 X-16.2634 Y-1.8331
G01 X-16.2147 Y-1.8924
G01 X-16.2078 Y-1.8993
G01 X-16.0791 Y-2.0050
G01 X-16.0709 Y-2.0104
G01 X-15.9240 Y-2.0890
G01 X-15.9150 Y-2.0927
G01 X-15.7556 Y-2.1410
G01 X-15.7461 Y-2.1429
G01 X-15.5705 Y-2.1600
G01 X-14.3754 Y-2.1598
G01 X-14.2047 Y-2.1429
G01 X-14.1952 Y-2.1410
G01 X-14.0358 Y-2.0927
G01 X-14.0267 Y-2.0890
G01 X-13.8798 Y-2.0104
G01 X-13.8717 Y-2.0050
G01 X-13.7430 Y-1.8993
G01 X-13.7361 Y-1.8924
G01 X-13.6304 Y-1.7637
G01 X-13.6250 Y-1.7556
G01 X-13.5464 Y-1.6086
G01 X-13.5427 Y-1.5996
G01 X-13.4943 Y-1.4402
G01 X-13.4924 Y-1.4307
G01 X-13.4761 Y-1.2649
G01 X-13.4761 Y-1.2551
G01 X-13.4924 Y-1.0893
G01 X-13.4943 Y-1.0798
G01 X-13.5427 Y-0.9204
G01 X-13.5464 Y-0.9114
G01 X-13.6250 Y-0.7644
G01 X-13.6304 Y-0.7563
G01 X-13.7361 Y-0.6276
G01 X-13.7430 Y-0.6207
G01 X-13.8717 Y-0.5150
G01 X-13.8798 Y-0.5096
G01 X-14.0267 Y-0.4310
G01 X-14.0358 Y-0.4273
G01 X-14.1952 Y-0.3790
G01 X-14.2047 Y-0.3771
G01 X-14.3803 Y-0.3600
G01 X-15.5705 Y-0.3600
G01 X-15.7461 Y-0.3771
G01 X-15.7556 Y-0.3790
G01 X-15.9150 Y-0.4273
G01 X-15.9240 Y-0.4310
G01 X-16.0709 Y-0.5096
G01 X-16.0791 Y-0.5150
G01 X-16.2078 Y-0.6207
G01 X-16.2147 Y-0.6276
G01 X-16.2634 Y-0.6869
G01 X-16.2669 Y-0.6907
G01 X-16.3134 Y-0.7301
G01 X-16.3207 Y-0.7347
G01 X-16.3286 Y-0.7380
G01 X-16.4052 Y-0.7583
G01 X-16.4133 Y-0.7598
G01 X-16.5264 Y-0.7600
G01 X-16.5347 Y-0.7593
G01 X-16.5931 Y-0.7480
G01 X-16.5991 Y-0.7463
G01 X-16.6060 Y-0.7432
G01 X-16.6123 Y-0.7392
G01 X-16.6758 Y-0.6917
G01 X-16.6827 Y-0.6848
G01 X-16.6881 Y-0.6765
G01 X-16.7209 Y-0.6017
G01 X-16.7228 Y-0.5962
G01 X-16.7241 Y-0.5904
G01 X-17.9002 Y7.0546
G01 X-17.9016 Y7.0609
G01 X-17.9057 Y7.0750
G01 X-17.9109 Y7.0999
G01 X-17.9120 Y7.1078
G01 X-17.9153 Y7.1203
G01 X-17.9242 Y7.1420
G01 X-17.9301 Y7.1587
G01 X-17.9363 Y7.1799
G01 X-17.9415 Y7.1918
G01 X-17.9456 Y7.1987
G01 X-17.9566 Y7.2202
G01 X-17.9603 Y7.2288
G01 X-17.9667 Y7.2400
G01 X-17.9801 Y7.2575
G01 X-17.9902 Y7.2721
G01 X-18.0024 Y7.2921
G01 X-18.0105 Y7.3022
G01 X-18.0162 Y7.3078
G01 X-18.0324 Y7.3258
G01 X-18.0382 Y7.3331
G01 X-18.0473 Y7.3422
G01 X-18.0659 Y7.3565
G01 X-18.0793 Y7.3681
G01 X-18.0953 Y7.3833
G01 X-18.1057 Y7.3910
G01 X-18.1138 Y7.3956
G01 X-18.1340 Y7.4088
G01 X-18.1404 Y7.4137
G01 X-18.1516 Y7.4201
G01 X-18.1733 Y7.4292
G01 X-18.1892 Y7.4369
G01 X-18.2086 Y7.4474
G01 X-18.2206 Y7.4521
G01 X-18.2284 Y7.4541
G01 X-18.2514 Y7.4616
G01 X-18.2601 Y7.4650
G01 X-18.2726 Y7.4684
G01 X-18.2958 Y7.4715
G01 X-18.3132 Y7.4748
G01 X-18.3346 Y7.4800
G01 X-18.3475 Y7.4815
G01 X-18.3556 Y7.4813
G01 X-18.3797 Y7.4826
G01 X-18.3954 Y7.4846
G01 X-18.4019 Y7.4850
G01 X-20.2452 Y7.4850
G01 X-20.2539 Y7.4858
G01 X-20.3316 Y7.5055
G01 X-20.3405 Y7.5092
G01 X-20.3486 Y7.5145
G01 X-20.4096 Y7.5722
G01 X-20.4146 Y7.5787
G01 X-20.4339 Y7.6098
G01 X-20.4394 Y7.6171
G01 X-20.5629 Y7.7526
G01 X-20.5697 Y7.7588
G01 X-20.7160 Y7.8692
G01 X-20.7238 Y7.8741
G01 X-20.8879 Y7.9558
G01 X-20.8964 Y7.9591
G01 X-21.0728 Y8.0093
G01 X-21.0818 Y8.0109
G01 X-21.2735 Y8.0285
G01 X-21.8673 Y8.0285
G01 X-22.0590 Y8.0109
G01 X-22.0680 Y8.0093
G01 X-22.2443 Y7.9591
G01 X-22.2529 Y7.9558
G01 X-22.4170 Y7.8741
G01 X-22.4248 Y7.8692
G01 X-22.5711 Y7.7588
G01 X-22.5779 Y7.7526
G01 X-22.7013 Y7.6171
G01 X-22.7069 Y7.6098
G01 X-22.8034 Y7.4540
G01 X-22.8075 Y7.4457
G01 X-22.8737 Y7.2748
G01 X-22.8762 Y7.2660
G01 X-22.9099 Y7.0858
G01 X-22.9107 Y7.0767
G01 X-22.9107 Y6.8933
G01 X-22.9099 Y6.8842
G01 X-22.8762 Y6.7040
G01 X-22.8737 Y6.6952
G01 X-22.8075 Y6.5243
G01 X-22.7987 Y6.5067
G01 X-22.7969 Y6.5021
G01 X-22.7947 Y6.4938
G01 X-22.7940 Y6.4844
G01 X-22.7779 Y6.4257
G01 X-22.7764 Y6.4184
G01 X-22.7761 Y6.4097
G01 X-22.7773 Y6.4012
G01 X-22.7993 Y6.3237
G01 X-22.8014 Y6.3179
G01 X-22.8037 Y6.3135
G01 X-22.8071 Y6.3084
G01 X-22.8111 Y6.3037
G01 X-22.8676 Y6.2482
G01 X-22.8724 Y6.2442
G01 X-22.8776 Y6.2409
G01 X-22.8831 Y6.2383
G01 X-22.8890 Y6.2363
G01 X-22.9632 Y6.2167
G01 X-22.9690 Y6.2155
G01 X-22.9760 Y6.2150
G01 X-23.4104 Y6.2150
G01 X-23.4165 Y6.2154
G01 X-23.4236 Y6.2168
G01 X-23.5025 Y6.2385
G01 X-23.5072 Y6.2403
G01 X-23.5127 Y6.2432
G01 X-23.5179 Y6.2467
G01 X-23.5217 Y6.2500
G01 X-23.5772 Y6.3066
G01 X-23.5804 Y6.3104
G01 X-23.5839 Y6.3155
G01 X-23.5866 Y6.3210
G01 X-23.5887 Y6.3268
G01 X-23.6087 Y6.4022
G00 Z2.0000
G00 X-24.4105 Y5.7125
G01 F60.00
G01 Z-0.0000
G01 F120.00
G01 X-24.4091 Y5.6856
G01 X-24.4048 Y5.6564
G01 X-24.3976 Y5.6279
G01 X-24.3877 Y5.6001
G01 X-24.3751 Y5.5735
G01 X-24.3599 Y5.5483
G01 X-24.3424 Y5.5246
G01 X-24.3243 Y5.5046
G01 X-24.3008 Y5.4830
G01 X-24.2791 Y5.4669
G01 X-24.2497 Y5.4492
G01 X-24.2252 Y5.4377
G01 X-24.1975 Y5.4278
G01 X-24.1689 Y5.4206
G01 X-24.1386 Y5.4162
G01 X-24.1104 Y5.4149
G01 X-19.9282 Y5.4149
G01 X-18.6929 Y-3.8596
G01 X-18.6900 Y-3.8773
G01 X-18.6878 Y-3.8874
G01 X-18.6822 Y-3.9083
G01 X-18.6790 Y-3.9181
G01 X-18.6727 Y-3.9349
G01 X-18.6681 Y-3.9454
G01 X-18.6606 Y-3.9604
G01 X-18.6551 Y-3.9705
G01 X-18.6456 Y-3.9857
G01 X-18.6384 Y-3.9962
G01 X-18.6282 Y-4.0094
G01 X-18.6207 Y-4.0182
G01 X-18.6085 Y-4.0313
G01 X-18.6002 Y-4.0394
G01 X-18.5867 Y-4.0512
G01 X-18.5787 Y-4.0576
G01 X-18.5611 Y-4.0702
G01 X-18.5524 Y-4.0757
G01 X-18.5369 Y-4.0847
G01 X-18.5266 Y-4.0899
G01 X-18.5114 Y-4.0968
G01 X-18.5007 Y-4.1010
G01 X-18.4837 Y-4.1068
G01 X-18.4714 Y-4.1103
G01 X-18.4551 Y-4.1141
G01 X-18.4438 Y-4.1162
G01 X-18.4260 Y-4.1185
G01 X-18.4133 Y-4.1196
G01 X-18.3954 Y-4.1201
G01 X-16.2069 Y-4.1201
G01 X-16.1921 Y-4.1511
G01 X-16.1581 Y-4.2079
G01 X-16.1157 Y-4.2650
G01 X-16.0686 Y-4.3167
G01 X-16.0195 Y-4.3611
G01 X-15.9653 Y-4.4013
G01 X-15.9032 Y-4.4384
G01 X-15.8433 Y-4.4667
G01 X-15.7809 Y-4.4891
G01 X-15.7120 Y-4.5065
G01 X-15.6416 Y-4.5168
G01 X-15.5754 Y-4.5200
G01 X-14.3754 Y-4.5200
G01 X-14.3056 Y-4.5165
G01 X-14.2388 Y-4.5065
G01 X-14.1722 Y-4.4899
G01 X-14.1075 Y-4.4667
G01 X-14.0476 Y-4.4384
G01 X-13.9845 Y-4.4006
G01 X-13.9313 Y-4.3611
G01 X-13.8796 Y-4.3141
G01 X-13.8343 Y-4.2641
G01 X-13.7948 Y-4.2109
G01 X-13.7580 Y-4.1500
G01 X-13.7278 Y-4.0856
G01 X-13.7055 Y-4.0232
G01 X-13.6894 Y-3.9590
G01 X-13.6788 Y-3.8886
G01 X-13.6755 Y-3.8175
G01 X-13.6788 Y-3.7514
G01 X-13.6884 Y-3.6859
G01 X-13.7055 Y-3.6168
G01 X-13.7297 Y-3.5499
G01 X-13.7580 Y-3.4900
G01 X-13.7921 Y-3.4332
G01 X-13.8343 Y-3.3759
G01 X-13.8822 Y-3.3233
G01 X-13.9313 Y-3.2789
G01 X-13.9845 Y-3.2394
G01 X-14.0454 Y-3.2027
G01 X-14.1098 Y-3.1724
G01 X-14.1722 Y-3.1501
G01 X-14.2388 Y-3.1335
G01 X-14.3068 Y-3.1234
G01 X-14.3754 Y-3.1200
G01 X-15.5754 Y-3.1200
G01 X-15.6440 Y-3.1234
G01 X-15.7120 Y-3.1335
G01 X-15.7786 Y-3.1501
G01 X-15.8455 Y-3.1743
G01 X-15.9054 Y-3.2027
G01 X-15.9622 Y-3.2367
G01 X-16.0185 Y-3.2781
G01 X-16.0704 Y-3.3250
G01 X-16.1173 Y-3.3769
G01 X-16.1581 Y-3.4321
G01 X-16.1921 Y-3.4889
G01 X-16.2069 Y-3.5199
G01 X-18.1326 Y-3.5199
G01 X-19.3679 Y5.7546
G01 X-19.3713 Y5.7748
G01 X-19.3735 Y5.7848
G01 X-19.3779 Y5.8009
G01 X-19.3818 Y5.8131
G01 X-19.3881 Y5.8299
G01 X-19.3927 Y5.8404
G01 X-19.4001 Y5.8554
G01 X-19.4051 Y5.8644
G01 X-19.4165 Y5.8828
G01 X-19.4224 Y5.8912
G01 X-19.4334 Y5.9054
G01 X-19.4409 Y5.9141
G01 X-19.4523 Y5.9263
G01 X-19.4615 Y5.9352
G01 X-19.4750 Y5.9470
G01 X-19.4840 Y5.9541
G01 X-19.4987 Y5.9645
G01 X-19.5083 Y5.9707
G01 X-19.5239 Y5.9797
G01 X-19.5342 Y5.9849
G01 X-19.5505 Y5.9923
G01 X-19.5613 Y5.9965
G01 X-19.5783 Y6.0022
G01 X-19.5893 Y6.0053
G01 X-19.6068 Y6.0094
G01 X-19.6182 Y6.0114
G01 X-19.6360 Y6.0137
G01 X-19.6474 Y6.0146
G01 X-19.6642 Y6.0151
G01 X-23.8103 Y6.0151
G01 X-23.8103 Y9.2249
G01 X-22.6594 Y9.2249
G01 X-22.6507 Y9.2011
G01 X-22.6164 Y9.1285
G01 X-22.5739 Y9.0574
G01 X-22.5239 Y8.9899
G01 X-22.4675 Y8.9277
G01 X-22.4051 Y8.8715
G01 X-22.3405 Y8.8237
G01 X-22.2717 Y8.7823
G01 X-22.1947 Y8.7457
G01 X-22.1167 Y8.7178
G01 X-22.0340 Y8.6973
G01 X-21.9546 Y8.6856
G01 X-21.8743 Y8.6816
G01 X-21.2689 Y8.6815
G01 X-21.1838 Y8.6859
G01 X-21.1043 Y8.6977
G01 X-21.0240 Y8.7178
G01 X-20.9439 Y8.7467
G01 X-20.8713 Y8.7811
G01 X-20.8023 Y8.8223
G01 X-20.7338 Y8.8730
G01 X-20.6708 Y8.9303
G01 X-20.6169 Y8.9899
G01 X-20.5690 Y9.0544
G01 X-20.5250 Y9.1274
G01 X-20.4896 Y9.2022
G01 X-20.4625 Y9.2778
G01 X-20.4416 Y9.3604
G01 X-20.4293 Y9.4448
G01 X-20.4254 Y9.5250
G01 X-20.4293 Y9.6052
G01 X-20.4416 Y9.6896
G01 X-20.4625 Y9.7722
G01 X-20.4896 Y9.8478
G01 X-20.5239 Y9.9204
G01 X-20.5675 Y9.9936
G01 X-20.6169 Y10.0601
G01 X-20.6708 Y10.1197
G01 X-20.7338 Y10.1770
G01 X-20.8023 Y10.2277
G01 X-20.8713 Y10.2689
G01 X-20.9439 Y10.3033
G01 X-21.0240 Y10.3322
G01 X-21.1068 Y10.3527
G01 X-21.1862 Y10.3644
G01 X-21.2677 Y10.3685
G01 X-21.8719 Y10.3685
G01 X-21.9558 Y10.3643
G01 X-22.0365 Y10.3523
G01 X-22.1144 Y10.3328
G01 X-22.1947 Y10.3043
G01 X-22.2717 Y10.2677
G01 X-22.3405 Y10.2263
G01 X-22.4060 Y10.1778
G01 X-22.4700 Y10.1197
G01 X-22.5239 Y10.0601
G01 X-22.5725 Y9.9946
G01 X-22.6164 Y9.9215
G01 X-22.6507 Y9.8489
G01 X-22.6594 Y9.8251
G01 X-24.1104 Y9.8251
G01 X-24.1386 Y9.8238
G01 X-24.1689 Y9.8194
G01 X-24.1975 Y9.8122
G01 X-24.2252 Y9.8023
G01 X-24.2519 Y9.7897
G01 X-24.2771 Y9.7745
G01 X-24.3008 Y9.7570
G01 X-24.3226 Y9.7372
G01 X-24.3424 Y9.7154
G01 X-24.3599 Y9.6917
G01 X-24.3739 Y9.6686
G01 X-24.3886 Y9.6376
G01 X-24.3976 Y9.6121
G01 X-24.4048 Y9.5836
G01 X-24.4091 Y9.5544
G01 X-24.4105 Y9.5262
G01 X-24.4105 Y5.7125
G00 Z2.0000
G00 X-23.1958 Y12.2650
G01 F60.00
G01 Z-0.0000
G01 F120.00
G01 X-22.6904 Y12.2650
G01 X-22.6787 Y12.3110
G01 X-22.6507 Y12.3889
G01 X-22.6361 Y12.4199
G01 X-22.6321 Y12.4304
G01 X-22.6265 Y12.4400
G01 X-22.6158 Y12.4626
G01 X-22.5739 Y12.5326
G01 X-22.5368 Y12.5828
G01 X-22.5325 Y12.5894
G01 X-22.5239 Y12.6001
G01 X-22.4700 Y12.6597
G01 X-22.4089 Y12.7154
G01 X-22.3973 Y12.7249
G01 X-22.3897 Y12.7299
G01 X-22.3405 Y12.7663
G01 X-22.2695 Y12.8089
G01 X-22.2469 Y12.8197
G01 X-22.2373 Y12.8252
G01 X-22.2268 Y12.8292
G01 X-22.1947 Y12.8443
G01 X-22.1191 Y12.8714
G01 X-22.0709 Y12.8837
G01 X-22.0602 Y12.8872
G01 X-22.0515 Y12.8886
G01 X-22.0340 Y12.8927
G01 X-21.9546 Y12.9044
G01 X-21.8719 Y12.9085
G01 X-21.2664 Y12.9084
G01 X-21.1862 Y12.9044
G01 X-21.1068 Y12.8927
G01 X-21.0892 Y12.8886
G01 X-21.0806 Y12.8872
G01 X-21.0699 Y12.8837
G01 X-21.0229 Y12.8718
G01 X-20.9472 Y12.8447
G01 X-20.9140 Y12.8292
G01 X-20.9035 Y12.8252
G01 X-20.8939 Y12.8197
G01 X-20.8702 Y12.8083
G01 X-20.8023 Y12.7677
G01 X-20.7511 Y12.7299
G01 X-20.7445 Y12.7256
G01 X-20.7338 Y12.7170
G01 X-20.6716 Y12.6606
G01 X-20.6185 Y12.6020
G01 X-20.6083 Y12.5894
G01 X-20.6040 Y12.5828
G01 X-20.5675 Y12.5336
G01 X-20.5256 Y12.4637
G01 X-20.5142 Y12.4400
G01 X-20.5087 Y12.4304
G01 X-20.5047 Y12.4199
G01 X-20.4891 Y12.3867
G01 X-20.4621 Y12.3110
G01 X-20.4504 Y12.2650
G01 X-19.9450 Y12.2650
G01 X-19.9660 Y12.3907
G01 X-19.9680 Y12.3987
G01 X-20.0374 Y12.6007
G01 X-20.0407 Y12.6082
G01 X-20.1423 Y12.7961
G01 X-20.1468 Y12.8030
G01 X-20.2780 Y12.9716
G01 X-20.2836 Y12.9776
G01 X-20.4408 Y13.1223
G01 X-20.4473 Y13.1273
G01 X-20.6261 Y13.2442
G01 X-20.6333 Y13.2481
G01 X-20.7896 Y13.3166
G01 X-20.7969 Y13.3206
G01 X-20.8043 Y13.3265
G01 X-20.8803 Y13.4002
G01 X-20.8865 Y13.4079
G01 X-20.8910 Y13.4166
G01 X-20.8938 Y13.4260
G01 X-20.9080 Y13.5015
G01 X-20.9088 Y13.5088
G01 X-20.9085 Y13.5162
G01 X-20.9065 Y13.5259
G01 X-20.8802 Y13.6019
G01 X-20.8756 Y13.6107
G01 X-20.8720 Y13.6156
G01 X-20.8686 Y13.6192
G01 X-20.8091 Y13.6716
G01 X-20.8015 Y13.6771
G01 X-20.7238 Y13.7159
G01 X-20.7140 Y13.7215
G01 X-20.6619 Y13.7421
G01 X-20.6526 Y13.7448
G01 X-20.6429 Y13.7456
G01 X-20.5638 Y13.7407
G01 X-20.5556 Y13.7395
G01 X-20.0948 Y13.5859
G01 X-20.0554 Y13.5667
G01 X-20.0501 Y13.5635
G01 X-20.0462 Y13.5605
G01 X-20.0410 Y13.5554
G01 X-19.9902 Y13.4978
G01 X-19.9852 Y13.4912
G01 X-18.2132 Y9.9475
G01 X-18.2073 Y9.9346
G01 X-18.1955 Y9.9062
G01 X-18.1891 Y9.8950
G01 X-18.1176 Y9.8019
G01 X-18.1085 Y9.7928
G01 X-18.0154 Y9.7213
G01 X-18.0041 Y9.7149
G01 X-17.8957 Y9.6700
G01 X-17.8832 Y9.6666
G01 X-17.7604 Y9.6504
G01 X-17.7538 Y9.6500
G01 X-16.4180 Y9.6500
G01 X-16.4089 Y9.6492
G01 X-16.3541 Y9.6390
G01 X-16.3459 Y9.6365
G01 X-16.3372 Y9.6320
G01 X-16.2700 Y9.5836
G01 X-16.2634 Y9.5769
G01 X-16.2147 Y9.5176
G01 X-16.2078 Y9.5107
G01 X-16.0791 Y9.4050
G01 X-16.0709 Y9.3996
G01 X-15.9240 Y9.3210
G01 X-15.9150 Y9.3173
G01 X-15.7556 Y9.2690
G01 X-15.7461 Y9.2671
G01 X-15.5705 Y9.2500
G01 X-14.3754 Y9.2502
G01 X-14.2047 Y9.2671
G01 X-14.1952 Y9.2690
G01 X-14.0358 Y9.3173
G01 X-14.0267 Y9.3210
G01 X-13.8798 Y9.3996
G01 X-13.8717 Y9.4050
G01 X-13.7430 Y9.5107
G01 X-13.7361 Y9.5176
G01 X-13.6304 Y9.6463
G01 X-13.6250 Y9.6544
G01 X-13.5464 Y9.8014
G01 X-13.5427 Y9.8104
G01 X-13.4943 Y9.9698
G01 X-13.4924 Y9.9793
G01 X-13.4761 Y10.1451
G01 X-13.4761 Y10.1549
G01 X-13.4924 Y10.3207
G01 X-13.4943 Y10.3302
G01 X-13.5427 Y10.4896
G01 X-13.5464 Y10.4986
G01 X-13.6250 Y10.6456
G01 X-13.6304 Y10.6537
G01 X-13.7361 Y10.7824
G01 X-13.7430 Y10.7893
G01 X-13.8717 Y10.8950
G01 X-13.8798 Y10.9004
G01 X-14.0267 Y10.9790
G01 X-14.0358 Y10.9827
G01 X-14.1952 Y11.0310
G01 X-14.2047 Y11.0329
G01 X-14.3803 Y11.0500
G01 X-15.5705 Y11.0500
G01 X-15.7461 Y11.0329
G01 X-15.7556 Y11.0310
G01 X-15.9150 Y10.9827
G01 X-15.9240 Y10.9790
G01 X-16.0709 Y10.9004
G01 X-16.0791 Y10.8950
G01 X-16.2078 Y10.7893
G01 X-16.2147 Y10.7824
G01 X-16.2660 Y10.7202
G01 X-16.2698 Y10.7166
G01 X-16.3144 Y10.6792
G01 X-16.3218 Y10.6748
G01 X-16.3298 Y10.6717
G01 X-16.4075 Y10.6511
G01 X-16.4121 Y10.6503
G01 X-16.4180 Y10.6500
G01 X-17.3240 Y10.6500
G01 X-17.3301 Y10.6505
G01 X-17.3361 Y10.6518
G01 X-17.4207 Y10.6775
G01 X-17.4285 Y10.6806
G01 X-17.4357 Y10.6849
G01 X-17.4428 Y10.6913
G01 X-17.4944 Y10.7499
G01 X-17.4981 Y10.7545
G01 X-17.5017 Y10.7606
G01 X-19.2133 Y14.1839
G01 X-19.2182 Y14.1909
G01 X-19.2225 Y14.1993
G01 X-19.2880 Y14.2960
G01 X-19.2965 Y14.3057
G01 X-19.3852 Y14.3826
G01 X-19.3960 Y14.3898
G01 X-19.5074 Y14.4439
G01 X-19.5135 Y14.4464
G01 X-20.1163 Y14.6474
G01 X-20.1209 Y14.6493
G01 X-20.1263 Y14.6523
G01 X-20.1964 Y14.6998
G01 X-20.2010 Y14.7037
G01 X-20.2043 Y14.7072
G01 X-20.2073 Y14.7110
G01 X-20.2104 Y14.7161
G01 X-20.2463 Y14.7920
G01 X-20.2485 Y14.8000
G01 X-20.2646 Y14.8860
G01 X-20.2671 Y14.8948
G01 X-20.3333 Y15.0657
G01 X-20.3374 Y15.0740
G01 X-20.4339 Y15.2298
G01 X-20.4394 Y15.2371
G01 X-20.5629 Y15.3726
G01 X-20.5697 Y15.3788
G01 X-20.7160 Y15.4892
G01 X-20.7238 Y15.4941
G01 X-20.8879 Y15.5758
G01 X-20.8964 Y15.5791
G01 X-21.0728 Y15.6293
G01 X-21.0818 Y15.6309
G01 X-21.2735 Y15.6485
G01 X-21.8673 Y15.6485
G01 X-22.0590 Y15.6309
G01 X-22.0680 Y15.6293
G01 X-22.2443 Y15.5791
G01 X-22.2529 Y15.5758
G01 X-22.4170 Y15.4941
G01 X-22.4248 Y15.4892
G01 X-22.5711 Y15.3788
G01 X-22.5779 Y15.3726
G01 X-22.7013 Y15.2371
G01 X-22.7069 Y15.2298
G01 X-22.8034 Y15.0740
G01 X-22.8075 Y15.0657
G01 X-22.8737 Y14.8948
G01 X-22.8762 Y14.8860
G01 X-22.9099 Y14.7058
G01 X-22.9107 Y14.6967
G01 X-22.9107 Y14.5133
G01 X-22.9099 Y14.5042
G01 X-22.8762 Y14.3240
G01 X-22.8737 Y14.3152
G01 X-22.8075 Y14.1443
G01 X-22.8034 Y14.1360
G01 X-22.7069 Y13.9802
G01 X-22.7013 Y13.9729
G01 X-22.5779 Y13.8374
G01 X-22.5711 Y13.8312
G01 X-22.4248 Y13.7208
G01 X-22.4170 Y13.7159
G01 X-22.3403 Y13.6777
G01 X-22.3344 Y13.6738
G01 X-22.3282 Y13.6682
G01 X-22.2559 Y13.5909
G01 X-22.2521 Y13.5861
G01 X-22.2483 Y13.5797
G01 X-22.2452 Y13.5717
G01 X-22.2437 Y13.5645
G01 X-22.2330 Y13.4872
G01 X-22.2327 Y13.4798
G01 X-22.2333 Y13.4736
G01 X-22.2358 Y13.4641
G01 X-22.2658 Y13.3894
G01 X-22.2687 Y13.3840
G01 X-22.2715 Y13.3799
G01 X-22.2755 Y13.3752
G01 X-22.2801 Y13.3711
G01 X-22.3402 Y13.3233
G01 X-22.3460 Y13.3193
G01 X-22.3512 Y13.3166
G01 X-22.5075 Y13.2481
G01 X-22.5147 Y13.2442
G01 X-22.6935 Y13.1273
G01 X-22.7000 Y13.1223
G01 X-22.8572 Y12.9776
G01 X-22.8627 Y12.9716
G01 X-22.9939 Y12.8030
G01 X-22.9985 Y12.7961
G01 X-23.1001 Y12.6082
G01 X-23.1034 Y12.6007
G01 X-23.1728 Y12.3987
G01 X-23.1748 Y12.3907
G01 X-23.1958 Y12.2650
G00 Z2.0000
G00 X-21.8719 Y13.7615
G01 F60.00
G01 Z-0.0000
G01 F120.00
G01 X-21.2677 Y13.7615
G01 X-21.1862 Y13.7656
G01 X-21.1043 Y13.7777
G01 X-21.0217 Y13.7986
G01 X-20.9461 Y13.8257
G01 X-20.8713 Y13.8611
G01 X-20.7983 Y13.9051
G01 X-20.7338 Y13.9530
G01 X-20.6879 Y13.9945
G01 X-19.8782 Y13.7246
G01 X-18.0479 Y10.0639
G01 X-18.0377 Y10.0351
G01 X-18.0256 Y10.0096
G01 X-18.0085 Y9.9813
G01 X-17.9924 Y9.9596
G01 X-17.9726 Y9.9378
G01 X-17.9508 Y9.9180
G01 X-17.9291 Y9.9019
G01 X-17.8997 Y9.8842
G01 X-17.8752 Y9.8727
G01 X-17.8498 Y9.8636
G01 X-17.8213 Y9.8562
G01 X-17.7898 Y9.8513
G01 X-17.7616 Y9.8499
G01 X-16.2069 Y9.8499
G01 X-16.1921 Y9.8189
G01 X-16.1581 Y9.7621
G01 X-16.1157 Y9.7050
G01 X-16.0704 Y9.6550
G01 X-16.0213 Y9.6105
G01 X-15.9633 Y9.5673
G01 X-15.9054 Y9.5327
G01 X-15.8455 Y9.5043
G01 X-15.7786 Y9.4801
G01 X-15.7095 Y9.4630
G01 X-15.6440 Y9.4534
G01 X-15.5766 Y9.4500
G01 X-14.3754 Y9.4500
G01 X-14.3068 Y9.4534
G01 X-14.2388 Y9.4635
G01 X-14.1722 Y9.4801
G01 X-14.1053 Y9.5043
G01 X-14.0454 Y9.5327
G01 X-13.9886 Y9.5667
G01 X-13.9333 Y9.6074
G01 X-13.8804 Y9.6550
G01 X-13.8343 Y9.7059
G01 X-13.7934 Y9.7611
G01 X-13.7569 Y9.8222
G01 X-13.7278 Y9.8844
G01 X-13.7055 Y9.9468
G01 X-13.6894 Y10.0110
G01 X-13.6788 Y10.0814
G01 X-13.6754 Y10.1500
G01 X-13.6788 Y10.2186
G01 X-13.6894 Y10.2890
G01 X-13.7063 Y10.3555
G01 X-13.7287 Y10.4179
G01 X-13.7569 Y10.4778
G01 X-13.7934 Y10.5389
G01 X-13.8343 Y10.5941
G01 X-13.8804 Y10.6450
G01 X-13.9333 Y10.6926
G01 X-13.9886 Y10.7333
G01 X-14.0454 Y10.7673
G01 X-14.1053 Y10.7957
G01 X-14.1722 Y10.8199
G01 X-14.2400 Y10.8368
G01 X-14.3068 Y10.8466
G01 X-14.3754 Y10.8500
G01 X-15.5754 Y10.8500
G01 X-15.6452 Y10.8465
G01 X-15.7144 Y10.8360
G01 X-15.7786 Y10.8199
G01 X-15.8410 Y10.7976
G01 X-15.9054 Y10.7673
G01 X-15.9653 Y10.7313
G01 X-16.0195 Y10.6911
G01 X-16.0686 Y10.6467
G01 X-16.1157 Y10.5950
G01 X-16.1581 Y10.5379
G01 X-16.1921 Y10.4811
G01 X-16.2069 Y10.4501
G01 X-17.5699 Y10.4501
G01 X-19.3970 Y14.1042
G01 X-19.4121 Y14.1309
G01 X-19.4283 Y14.1540
G01 X-19.4458 Y14.1745
G01 X-19.4688 Y14.1967
G01 X-19.4919 Y14.2149
G01 X-19.5147 Y14.2295
G01 X-19.5442 Y14.2445
G01 X-19.5705 Y14.2547
G01 X-20.4285 Y14.5407
G01 X-20.4254 Y14.6050
G01 X-20.4293 Y14.6852
G01 X-20.4416 Y14.7696
G01 X-20.4625 Y14.8522
G01 X-20.4896 Y14.9278
G01 X-20.5250 Y15.0026
G01 X-20.5690 Y15.0756
G01 X-20.6169 Y15.1401
G01 X-20.6724 Y15.2014
G01 X-20.7338 Y15.2570
G01 X-20.7983 Y15.3049
G01 X-20.8735 Y15.3500
G01 X-20.9461 Y15.3843
G01 X-21.0240 Y15.4122
G01 X-21.1043 Y15.4323
G01 X-21.1874 Y15.4445
G01 X-21.2689 Y15.4485
G01 X-21.8731 Y15.4485
G01 X-21.9546 Y15.4444
G01 X-22.0352 Y15.4325
G01 X-22.1167 Y15.4122
G01 X-22.1947 Y15.3843
G01 X-22.2695 Y15.3489
G01 X-22.3405 Y15.3063
G01 X-22.4070 Y15.2570
G01 X-22.4683 Y15.2014
G01 X-22.5239 Y15.1401
G01 X-22.5739 Y15.0726
G01 X-22.6158 Y15.0026
G01 X-22.6502 Y14.9300
G01 X-22.6791 Y14.8499
G01 X-22.6996 Y14.7671
G01 X-22.7113 Y14.6877
G01 X-22.7153 Y14.6075
G01 X-22.7113 Y14.5223
G01 X-22.6986 Y14.4380
G01 X-22.6791 Y14.3601
G01 X-22.6521 Y14.2845
G01 X-22.6158 Y14.2074
G01 X-22.5718 Y14.1344
G01 X-22.5239 Y14.0699
G01 X-22.4683 Y14.0086
G01 X-22.4051 Y13.9515
G01 X-22.3405 Y13.9037
G01 X-22.2717 Y13.8623
G01 X-22.1947 Y13.8257
G01 X-22.1144 Y13.7972
G01 X-22.0365 Y13.7777
G01 X-21.9570 Y13.7659
G01 X-21.8719 Y13.7615
G00 Z2.0000
G00 X-22.6654 Y16.3015
G01 F60.00
G01 Z-0.0000
G01 F120.00
G01 X-20.4754 Y16.3015
G01 X-20.4681 Y16.3020
G01 X-20.4597 Y16.3040
G01 X-20.4529 Y16.3068
G01 X-20.4456 Y16.3113
G01 X-20.4392 Y16.3170
G01 X-20.4338 Y16.3237
G01 X-20.4297 Y16.3312
G01 X-20.4269 Y16.3394
G01 X-20.4255 Y16.3478
G01 X-20.4254 Y16.8449
G01 X-19.2281 Y16.8449
G01 X-17.4012 Y12.5915
G01 X-17.3906 Y12.5696
G01 X-17.3870 Y12.5630
G01 X-17.3727 Y12.5400
G01 X-17.3582 Y12.5206
G01 X-17.3541 Y12.5157
G01 X-17.3376 Y12.4978
G01 X-17.3128 Y12.4755
G01 X-17.2921 Y12.4605
G01 X-17.2679 Y12.4459
G01 X-17.2612 Y12.4424
G01 X-17.2366 Y12.4313
G01 X-17.2125 Y12.4228
G01 X-17.1851 Y12.4159
G01 X-17.1777 Y12.4145
G01 X-17.1497 Y12.4109
G01 X-17.1254 Y12.4099
G01 X-16.2069 Y12.4099
G01 X-16.1921 Y12.3789
G01 X-16.1581 Y12.3221
G01 X-16.1157 Y12.2650
G01 X-16.0704 Y12.2150
G01 X-16.0213 Y12.1705
G01 X-15.9633 Y12.1273
G01 X-15.9054 Y12.0927
G01 X-15.8455 Y12.0643
G01 X-15.7786 Y12.0401
G01 X-15.7095 Y12.0230
G01 X-15.6440 Y12.0134
G01 X-15.5754 Y12.0100
G01 X-14.3754 Y12.0100
G01 X-14.3068 Y12.0134
G01 X-14.2376 Y12.0237
G01 X-14.1699 Y12.0409
G01 X-14.1075 Y12.0633
G01 X-14.0476 Y12.0916
G01 X-13.9865 Y12.1280
G01 X-13.9313 Y12.1689
G01 X-13.8804 Y12.2150
G01 X-13.8328 Y12.2679
G01 X-13.7934 Y12.3211
G01 X-13.7593 Y12.3779
G01 X-13.7292 Y12.4410
G01 X-13.7055 Y12.5068
G01 X-13.6888 Y12.5734
G01 X-13.6788 Y12.6414
G01 X-13.6755 Y12.7125
G01 X-13.6788 Y12.7786
G01 X-13.6884 Y12.8441
G01 X-13.7049 Y12.9108
G01 X-13.7287 Y12.9779
G01 X-13.7580 Y13.0400
G01 X-13.7934 Y13.0989
G01 X-13.8359 Y13.1559
G01 X-13.8822 Y13.2067
G01 X-13.9313 Y13.2511
G01 X-13.9845 Y13.2906
G01 X-14.0454 Y13.3273
G01 X-14.1075 Y13.3567
G01 X-14.1722 Y13.3799
G01 X-14.2400 Y13.3968
G01 X-14.3068 Y13.4066
G01 X-14.3754 Y13.4100
G01 X-15.5754 Y13.4100
G01 X-15.6464 Y13.4063
G01 X-15.7144 Y13.3960
G01 X-15.7786 Y13.3799
G01 X-15.8410 Y13.3576
G01 X-15.9054 Y13.3273
G01 X-15.9653 Y13.2913
G01 X-16.0195 Y13.2511
G01 X-16.0686 Y13.2067
G01 X-16.1157 Y13.1550
G01 X-16.1581 Y13.0979
G01 X-16.1921 Y13.0411
G01 X-16.2069 Y13.0101
G01 X-16.9277 Y13.0101
G01 X-18.7551 Y17.2646
G01 X-18.7676 Y17.2899
G01 X-18.7830 Y17.3150
G01 X-18.8009 Y17.3384
G01 X-18.8210 Y17.3600
G01 X-18.8400 Y17.3770
G01 X-18.8637 Y17.3945
G01 X-18.8889 Y17.4097
G01 X-18.9144 Y17.4218
G01 X-18.9203 Y17.4242
G01 X-18.9433 Y17.4322
G01 X-18.9718 Y17.4394
G01 X-19.0010 Y17.4437
G01 X-19.0292 Y17.4451
G01 X-20.4254 Y17.4451
G01 X-20.4255 Y17.9422
G01 X-20.4269 Y17.9506
G01 X-20.4297 Y17.9588
G01 X-20.4338 Y17.9663
G01 X-20.4392 Y17.9730
G01 X-20.4456 Y17.9787
G01 X-20.4529 Y17.9832
G01 X-20.4597 Y17.9860
G01 X-20.4681 Y17.9880
G01 X-20.4754 Y17.9885
G01 X-22.6654 Y17.9885
G01 X-22.6727 Y17.9880
G01 X-22.6799 Y17.9863
G01 X-22.6879 Y17.9832
G01 X-22.6942 Y17.9794
G01 X-22.7007 Y17.9739
G01 X-22.7056 Y17.9683
G01 X-22.7095 Y17.9621
G01 X-22.7129 Y17.9542
G01 X-22.7147 Y17.9470
G01 X-22.7154 Y17.9397
G01 X-22.7154 Y16.3515
G01 X-22.7144 Y16.3417
G01 X-22.7116 Y16.3324
G01 X-22.7070 Y16.3237
G01 X-22.7007 Y16.3161
G01 X-22.6932 Y16.3099
G01 X-22.6845 Y16.3053
G01 X-22.6751 Y16.3025
G01 X-22.6654 Y16.3015
G00 Z2.0000
G00 X-20.2254 Y16.4450
G01 F60.00
G01 Z-0.0000
G01 F120.00
G01 X-20.2250 Y16.4511
G01 X-20.2239 Y16.4570
G01 X-20.2023 Y16.5359
G01 X-20.2001 Y16.5418
G01 X-20.1979 Y16.5463
G01 X-20.1944 Y16.5515
G01 X-20.1904 Y16.5563
G01 X-20.1338 Y16.6118
G01 X-20.1291 Y16.6158
G01 X-20.1239 Y16.6191
G01 X-20.1183 Y16.6217
G01 X-20.1124 Y16.6237
G01 X-20.0382 Y16.6433
G01 X-20.0301 Y16.6448
G01 X-19.4916 Y16.6450
G01 X-19.4841 Y16.6444
G01 X-19.4757 Y16.6424
G01 X-19.3852 Y16.6121
G01 X-19.3785 Y16.6093
G01 X-19.3733 Y16.6062
G01 X-19.3675 Y16.6017
G01 X-19.3625 Y16.5964
G01 X-19.3123 Y16.5322
G01 X-19.3078 Y16.5239
G01 X-17.5874 Y12.5187
G01 X-17.5844 Y12.5129
G01 X-17.5755 Y12.4978
G01 X-17.5648 Y12.4763
G01 X-17.5605 Y12.4662
G01 X-17.5541 Y12.4550
G01 X-17.5416 Y12.4387
G01 X-17.5309 Y12.4228
G01 X-17.5211 Y12.4064
G01 X-17.5131 Y12.3962
G01 X-17.5044 Y12.3876
G01 X-17.4893 Y12.3706
G01 X-17.4826 Y12.3619
G01 X-17.4735 Y12.3528
G01 X-17.4572 Y12.3402
G01 X-17.4427 Y12.3276
G01 X-17.4290 Y12.3143
G01 X-17.4186 Y12.3066
G01 X-17.4081 Y12.3005
G01 X-17.3891 Y12.2880
G01 X-17.3804 Y12.2813
G01 X-17.3691 Y12.2749
G01 X-17.3502 Y12.2669
G01 X-17.3329 Y12.2585
G01 X-17.3162 Y12.2492
G01 X-17.3042 Y12.2444
G01 X-17.2925 Y12.2413
G01 X-17.2709 Y12.2341
G01 X-17.2607 Y12.2300
G01 X-17.2482 Y12.2266
G01 X-17.2278 Y12.2238
G01 X-17.2090 Y12.2202
G01 X-17.1905 Y12.2155
G01 X-17.1776 Y12.2140
G01 X-17.1667 Y12.2141
G01 X-17.1439 Y12.2127
G01 X-17.1254 Y12.2104
G01 X-17.1189 Y12.2100
G01 X-16.4167 Y12.2100
G01 X-16.4089 Y12.2092
G01 X-16.3517 Y12.1984
G01 X-16.3436 Y12.1956
G01 X-16.3361 Y12.1913
G01 X-16.2691 Y12.1428
G01 X-16.2634 Y12.1369
G01 X-16.2147 Y12.0776
G01 X-16.2078 Y12.0707
G01 X-16.0791 Y11.9650
G01 X-16.0709 Y11.9596
G01 X-15.9240 Y11.8810
G01 X-15.9150 Y11.8773
G01 X-15.7556 Y11.8290
G01 X-15.7461 Y11.8271
G01 X-15.5705 Y11.8100
G01 X-14.3803 Y11.8100
G01 X-14.2047 Y11.8271
G01 X-14.1952 Y11.8290
G01 X-14.0358 Y11.8773
G01 X-14.0267 Y11.8810
G01 X-13.8798 Y11.9596
G01 X-13.8717 Y11.9650
G01 X-13.7430 Y12.0707
G01 X-13.7361 Y12.0776
G01 X-13.6304 Y12.2063
G01 X-13.6250 Y12.2144
G01 X-13.5464 Y12.3614
G01 X-13.5427 Y12.3704
G01 X-13.4943 Y12.5298
G01 X-13.4924 Y12.5393
G01 X-13.4761 Y12.7051
G01 X-13.4761 Y12.7149
G01 X-13.4924 Y12.8807
G01 X-13.4943 Y12.8902
G01 X-13.5427 Y13.0496
G01 X-13.5464 Y13.0586
G01 X-13.6250 Y13.2056
G01 X-13.6304 Y13.2137
G01 X-13.7361 Y13.3424
G01 X-13.7430 Y13.3493
G01 X-13.8717 Y13.4550
G01 X-13.8798 Y13.4604
G01 X-14.0267 Y13.5390
G01 X-14.0358 Y13.5427
G01 X-14.1952 Y13.5910
G01 X-14.2047 Y13.5929
G01 X-14.3803 Y13.6100
G01 X-15.5705 Y13.6100
G01 X-15.7461 Y13.5929
G01 X-15.7556 Y13.5910
G01 X-15.9150 Y13.5427
G01 X-15.9240 Y13.5390
G01 X-16.0709 Y13.4604
G01 X-16.0791 Y13.4550
G01 X-16.2078 Y13.3493
G01 X-16.2147 Y13.3424
G01 X-16.2634 Y13.2831
G01 X-16.2669 Y13.2793
G01 X-16.3134 Y13.2399
G01 X-16.3207 Y13.2353
G01 X-16.3286 Y13.2320
G01 X-16.4052 Y13.2117
G01 X-16.4145 Y13.2101
G01 X-16.6667 Y13.2101
G01 X-16.6729 Y13.2108
G01 X-16.6789 Y13.2122
G01 X-16.7717 Y13.2433
G01 X-16.7773 Y13.2457
G01 X-16.7825 Y13.2488
G01 X-16.7864 Y13.2517
G01 X-16.7909 Y13.2558
G01 X-16.8421 Y13.3209
G01 X-16.8454 Y13.3258
G01 X-16.8480 Y13.3311
G01 X-18.5684 Y17.3363
G01 X-18.5714 Y17.3421
G01 X-18.5803 Y17.3572
G01 X-18.5910 Y17.3787
G01 X-18.5953 Y17.3888
G01 X-18.6017 Y17.4000
G01 X-18.6142 Y17.4163
G01 X-18.6249 Y17.4322
G01 X-18.6347 Y17.4486
G01 X-18.6427 Y17.4588
G01 X-18.6513 Y17.4674
G01 X-18.6665 Y17.4844
G01 X-18.6732 Y17.4931
G01 X-18.6823 Y17.5022
G01 X-18.6986 Y17.5148
G01 X-18.7131 Y17.5274
G01 X-18.7268 Y17.5407
G01 X-18.7371 Y17.5484
G01 X-18.7477 Y17.5545
G01 X-18.7667 Y17.5670
G01 X-18.7754 Y17.5737
G01 X-18.7866 Y17.5801
G01 X-18.8056 Y17.5881
G01 X-18.8228 Y17.5965
G01 X-18.8395 Y17.6058
G01 X-18.8516 Y17.6106
G01 X-18.8633 Y17.6137
G01 X-18.8849 Y17.6209
G01 X-18.8951 Y17.6250
G01 X-18.9076 Y17.6284
G01 X-18.9280 Y17.6312
G01 X-18.9468 Y17.6348
G01 X-18.9653 Y17.6395
G01 X-18.9782 Y17.6410
G01 X-18.9891 Y17.6409
G01 X-19.0118 Y17.6423
G01 X-19.0304 Y17.6446
G01 X-19.0369 Y17.6450
G01 X-20.0266 Y17.6450
G01 X-20.0327 Y17.6455
G01 X-20.0374 Y17.6465
G01 X-20.1187 Y17.6689
G01 X-20.1244 Y17.6713
G01 X-20.1288 Y17.6738
G01 X-20.1329 Y17.6767
G01 X-20.1375 Y17.6809
G01 X-20.1931 Y17.7375
G01 X-20.1982 Y17.7444
G01 X-20.2026 Y17.7532
G01 X-20.2237 Y17.8322
G01 X-20.2249 Y17.8380
G01 X-20.2254 Y17.8450
G01 X-20.2254 Y17.9306
G01 X-20.2260 Y17.9384
G01 X-20.2370 Y18.0078
G01 X-20.2418 Y18.0225
G01 X-20.2701 Y18.0781
G01 X-20.2792 Y18.0906
G01 X-20.3233 Y18.1347
G01 X-20.3358 Y18.1438
G01 X-20.3914 Y18.1721
G01 X-20.4061 Y18.1769
G01 X-20.4755 Y18.1879
G01 X-20.4832 Y18.1885
G01 X-22.6575 Y18.1885
G01 X-22.6653 Y18.1879
G01 X-22.7347 Y18.1769
G01 X-22.7494 Y18.1721
G01 X-22.8050 Y18.1438
G01 X-22.8175 Y18.1347
G01 X-22.8616 Y18.0906
G01 X-22.8707 Y18.0781
G01 X-22.8990 Y18.0225
G01 X-22.9038 Y18.0078
G01 X-22.9148 Y17.9384
G01 X-22.9154 Y17.9306
G01 X-22.9154 Y16.3594
G01 X-22.9148 Y16.3516
G01 X-22.9038 Y16.2822
G01 X-22.8990 Y16.2675
G01 X-22.8707 Y16.2119
G01 X-22.8616 Y16.1994
G01 X-22.8175 Y16.1553
G01 X-22.8050 Y16.1462
G01 X-22.7494 Y16.1179
G01 X-22.7347 Y16.1131
G01 X-22.6653 Y16.1021
G01 X-22.6575 Y16.1015
G01 X-20.4832 Y16.1015
G01 X-20.4755 Y16.1021
G01 X-20.4061 Y16.1131
G01 X-20.3914 Y16.1179
G01 X-20.3358 Y16.1462
G01 X-20.3233 Y16.1553
G01 X-20.2792 Y16.1994
G01 X-20.2701 Y16.2119
G01 X-20.2418 Y16.2675
G01 X-20.2370 Y16.2822
G01 X-20.2260 Y16.3516
G01 X-20.2254 Y16.3594
G01 X-20.2254 Y16.4450
G00 Z2.0000
G00 X-16.7577 Y7.8100
G01 F60.00
G01 Z-0.0000
G01 F120.00
G01 X-16.2461 Y7.8100
G01 X-16.2445 Y7.8155
G01 X-16.2327 Y7.8486
G01 X-16.2303 Y7.8571
G01 X-16.2268 Y7.8649
G01 X-16.2221 Y7.8779
G01 X-16.1927 Y7.9400
G01 X-16.1574 Y7.9989
G01 X-16.1501 Y8.0096
G01 X-16.1461 Y8.0143
G01 X-16.1149 Y8.0559
G01 X-16.0712 Y8.1041
G01 X-16.0465 Y8.1267
G01 X-16.0396 Y8.1340
G01 X-16.0329 Y8.1390
G01 X-16.0185 Y8.1519
G01 X-15.9663 Y8.1906
G01 X-15.9054 Y8.2273
G01 X-15.8985 Y8.2309
G01 X-15.8455 Y8.2557
G01 X-15.7798 Y8.2795
G01 X-15.7522 Y8.2865
G01 X-15.7429 Y8.2897
G01 X-15.7339 Y8.2911
G01 X-15.7108 Y8.2968
G01 X-15.6428 Y8.3067
G01 X-15.5754 Y8.3100
G01 X-15.1754 Y8.3100
G01 X-15.1754 Y8.8100
G01 X-15.5710 Y8.8100
G01 X-15.7794 Y8.7920
G01 X-15.7880 Y8.7905
G01 X-15.9815 Y8.7386
G01 X-15.9897 Y8.7356
G01 X-16.1714 Y8.6509
G01 X-16.1789 Y8.6466
G01 X-16.3430 Y8.5316
G01 X-16.3497 Y8.5260
G01 X-16.4914 Y8.3843
G01 X-16.4970 Y8.3777
G01 X-16.6120 Y8.2135
G01 X-16.6163 Y8.2060
G01 X-16.7010 Y8.0243
G01 X-16.7040 Y8.0161
G01 X-16.7558 Y7.8226
G01 X-16.7577 Y7.8100
G00 Z2.0000
G00 X-16.7577 Y7.4100
G01 F60.00
G01 Z-0.0000
G01 F120.00
G01 X-16.7558 Y7.3974
G01 X-16.7040 Y7.2039
G01 X-16.7010 Y7.1957
G01 X-16.6163 Y7.0140
G01 X-16.6120 Y7.0065
G01 X-16.4970 Y6.8423
G01 X-16.4914 Y6.8357
G01 X-16.3497 Y6.6940
G01 X-16.3430 Y6.6884
G01 X-16.1789 Y6.5734
G01 X-16.1714 Y6.5691
G01 X-15.9897 Y6.4844
G01 X-15.9815 Y6.4814
G01 X-15.7880 Y6.4295
G01 X-15.7794 Y6.4280
G01 X-15.5710 Y6.4100
G01 X-15.1754 Y6.4100
G01 X-15.1754 Y6.9100
G01 X-15.5754 Y6.9100
G01 X-15.6428 Y6.9133
G01 X-15.7108 Y6.9232
G01 X-15.7339 Y6.9289
G01 X-15.7429 Y6.9303
G01 X-15.7522 Y6.9335
G01 X-15.7798 Y6.9405
G01 X-15.8455 Y6.9643
G01 X-15.8985 Y6.9891
G01 X-15.9054 Y6.9927
G01 X-15.9663 Y7.0294
G01 X-16.0185 Y7.0681
G01 X-16.0329 Y7.0810
G01 X-16.0396 Y7.0860
G01 X-16.0465 Y7.0933
G01 X-16.0712 Y7.1159
G01 X-16.1149 Y7.1641
G01 X-16.1461 Y7.2057
G01 X-16.1501 Y7.2104
G01 X-16.1574 Y7.2211
G01 X-16.1927 Y7.2800
G01 X-16.2221 Y7.3421
G01 X-16.2268 Y7.3551
G01 X-16.2303 Y7.3629
G01 X-16.2327 Y7.3714
G01 X-16.2445 Y7.4045
G01 X-16.2461 Y7.4100
G01 X-16.7577 Y7.4100
G00 Z2.0000
G00 X-14.7754 Y6.9100
G01 F60.00
G01 Z-0.0000
G01 F120.00
G01 X-14.7754 Y6.4100
G01 X-14.3798 Y6.4100
G01 X-14.1714 Y6.4280
G01 X-14.1628 Y6.4295
G01 X-13.9692 Y6.4814
G01 X-13.9611 Y6.4844
G01 X-13.7794 Y6.5691
G01 X-13.7719 Y6.5734
G01 X-13.6077 Y6.6884
G01 X-13.6011 Y6.6940
G01 X-13.4594 Y6.8357
G01 X-13.4538 Y6.8423
G01 X-13.3388 Y7.0065
G01 X-13.3345 Y7.0140
G01 X-13.2498 Y7.1957
G01 X-13.2468 Y7.2039
G01 X-13.1949 Y7.3974
G01 X-13.1931 Y7.4100
G01 X-13.7047 Y7.4100
G01 X-13.7063 Y7.4045
G01 X-13.7181 Y7.3714
G01 X-13.7205 Y7.3629
G01 X-13.7240 Y7.3551
G01 X-13.7287 Y7.3421
G01 X-13.7580 Y7.2800
G01 X-13.7934 Y7.2211
G01 X-13.8007 Y7.2104
G01 X-13.8047 Y7.2057
G01 X-13.8359 Y7.1641
G01 X-13.8796 Y7.1159
G01 X-13.9043 Y7.0933
G01 X-13.9112 Y7.0860
G01 X-13.9179 Y7.0810
G01 X-13.9323 Y7.0681
G01 X-13.9845 Y7.0294
G01 X-14.0454 Y6.9927
G01 X-14.0523 Y6.9891
G01 X-14.1053 Y6.9643
G01 X-14.1710 Y6.9405
G01 X-14.1986 Y6.9335
G01 X-14.2079 Y6.9303
G01 X-14.2169 Y6.9289
G01 X-14.2400 Y6.9232
G01 X-14.3080 Y6.9133
G01 X-14.3754 Y6.9100
G01 X-14.7754 Y6.9100
G00 Z2.0000
G00 X-14.7754 Y8.8100
G01 F60.00
G01 Z-0.0000
G01 F120.00
G01 X-14.7754 Y8.3100
G01 X-14.3754 Y8.3100
G01 X-14.3080 Y8.3067
G01 X-14.2400 Y8.2968
G01 X-14.2169 Y8.2911
G01 X-14.2079 Y8.2897
G01 X-14.1986 Y8.2865
G01 X-14.1710 Y8.2795
G01 X-14.1053 Y8.2557
G01 X-14.0523 Y8.2309
G01 X-14.0454 Y8.2273
G01 X-13.9845 Y8.1906
G01 X-13.9323 Y8.1519
G01 X-13.9179 Y8.1390
G01 X-13.9112 Y8.1340
G01 X-13.9043 Y8.1267
G01 X-13.8796 Y8.1041
G01 X-13.8359 Y8.0559
G01 X-13.8047 Y8.0143
G01 X-13.8007 Y8.0096
G01 X-13.7934 Y7.9989
G01 X-13.7580 Y7.9400
G01 X-13.7287 Y7.8779
G01 X-13.7240 Y7.8649
G01 X-13.7205 Y7.8571
G01 X-13.7181 Y7.8486
G01 X-13.7063 Y7.8155
G01 X-13.7047 Y7.8100
G01 X-13.1931 Y7.8100
G01 X-13.1949 Y7.8226
G01 X-13.2468 Y8.0161
G01 X-13.2498 Y8.0243
G01 X-13.3345 Y8.2060
G01 X-13.3388 Y8.2135
G01 X-13.4538 Y8.3777
G01 X-13.4594 Y8.3843
G01 X-13.6011 Y8.5260
G01 X-13.6077 Y8.5316
G01 X-13.7719 Y8.6466
G01 X-13.7794 Y8.6509
G01 X-13.9611 Y8.7356
G01 X-13.9692 Y8.7386
G01 X-14.1628 Y8.7905
G01 X-14.1714 Y8.7920
G01 X-14.3798 Y8.8100
G01 X-14.7754 Y8.8100
G00 Z2.0000
G00 X-15.5705 Y2.1800
G01 F60.00
G01 Z-0.0000
G01 F120.00
G01 X-15.7461 Y2.1629
G01 X-15.7556 Y2.1610
G01 X-15.9150 Y2.1127
G01 X-15.9240 Y2.1090
G01 X-16.0709 Y2.0304
G01 X-16.0791 Y2.0250
G01 X-16.2078 Y1.9193
G01 X-16.2147 Y1.9124
G01 X-16.3204 Y1.7837
G01 X-16.3258 Y1.7756
G01 X-16.4044 Y1.6286
G01 X-16.4081 Y1.6196
G01 X-16.4564 Y1.4602
G01 X-16.4583 Y1.4507
G01 X-16.4747 Y1.2849
G01 X-16.4747 Y1.2751
G01 X-16.4583 Y1.1093
G01 X-16.4564 Y1.0998
G01 X-16.4081 Y0.9404
G01 X-16.4044 Y0.9314
G01 X-16.3258 Y0.7844
G01 X-16.3204 Y0.7763
G01 X-16.2147 Y0.6476
G01 X-16.2078 Y0.6407
G01 X-16.0791 Y0.5350
G01 X-16.0709 Y0.5296
G01 X-15.9240 Y0.4510
G01 X-15.9150 Y0.4473
G01 X-15.7556 Y0.3990
G01 X-15.7461 Y0.3971
G01 X-15.5705 Y0.3800
G01 X-14.3803 Y0.3800
G01 X-14.2047 Y0.3971
G01 X-14.1952 Y0.3990
G01 X-14.0358 Y0.4473
G01 X-14.0267 Y0.4510
G01 X-13.8798 Y0.5296
G01 X-13.8717 Y0.5350
G01 X-13.7430 Y0.6407
G01 X-13.7361 Y0.6476
G01 X-13.6848 Y0.7098
G01 X-13.6810 Y0.7134
G01 X-13.6364 Y0.7508
G01 X-13.6290 Y0.7552
G01 X-13.6210 Y0.7583
G01 X-13.5444 Y0.7786
G01 X-13.5398 Y0.7795
G01 X-13.5340 Y0.7800
G01 X-10.8367 Y0.7799
G01 X-10.8272 Y0.7782
G01 X-10.7483 Y0.7565
G01 X-10.7425 Y0.7542
G01 X-10.7381 Y0.7518
G01 X-10.7329 Y0.7483
G01 X-10.7291 Y0.7450
G01 X-10.6735 Y0.6884
G01 X-10.6696 Y0.6837
G01 X-10.6663 Y0.6785
G01 X-10.6641 Y0.6740
G01 X-10.6621 Y0.6682
G01 X-10.6415 Y0.5905
G01 X-10.6407 Y0.5859
G01 X-10.6404 Y0.5800
G01 X-10.6404 Y-11.9900
G01 X-10.6409 Y-11.9973
G01 X-10.6422 Y-12.0032
G01 X-10.6631 Y-12.0797
G01 X-10.6657 Y-12.0868
G01 X-10.6699 Y-12.0945
G01 X-10.6754 Y-12.1013
G01 X-10.7320 Y-12.1568
G01 X-10.7367 Y-12.1608
G01 X-10.7409 Y-12.1635
G01 X-10.7475 Y-12.1667
G01 X-10.7533 Y-12.1687
G01 X-10.8287 Y-12.1886
G01 X-10.8380 Y-12.1899
G01 X-13.5354 Y-12.1899
G01 X-13.5419 Y-12.1892
G01 X-13.5967 Y-12.1790
G01 X-13.6015 Y-12.1778
G01 X-13.6072 Y-12.1756
G01 X-13.6157 Y-12.1706
G01 X-13.6780 Y-12.1257
G01 X-13.6825 Y-12.1220
G01 X-13.6866 Y-12.1178
G01 X-13.7361 Y-12.0576
G01 X-13.7430 Y-12.0507
G01 X-13.8717 Y-11.9450
G01 X-13.8798 Y-11.9396
G01 X-14.0267 Y-11.8610
G01 X-14.0358 Y-11.8573
G01 X-14.1952 Y-11.8090
G01 X-14.2047 Y-11.8071
G01 X-14.3803 Y-11.7900
G01 X-15.5705 Y-11.7900
G01 X-15.7461 Y-11.8071
G01 X-15.7556 Y-11.8090
G01 X-15.9150 Y-11.8573
G01 X-15.9240 Y-11.8610
G01 X-16.0709 Y-11.9396
G01 X-16.0791 Y-11.9450
G01 X-16.2078 Y-12.0507
G01 X-16.2147 Y-12.0576
G01 X-16.3204 Y-12.1863
G01 X-16.3258 Y-12.1944
G01 X-16.4044 Y-12.3414
G01 X-16.4081 Y-12.3504
G01 X-16.4564 Y-12.5098
G01 X-16.4583 Y-12.5193
G01 X-16.4747 Y-12.6851
G01 X-16.4747 Y-12.6949
G01 X-16.4583 Y-12.8607
G01 X-16.4564 Y-12.8702
G01 X-16.4081 Y-13.0296
G01 X-16.4044 Y-13.0386
G01 X-16.3258 Y-13.1856
G01 X-16.3204 Y-13.1937
G01 X-16.2147 Y-13.3224
G01 X-16.2078 Y-13.3293
G01 X-16.0791 Y-13.4350
G01 X-16.0709 Y-13.4404
G01 X-15.9240 Y-13.5190
G01 X-15.9150 Y-13.5227
G01 X-15.7556 Y-13.5710
G01 X-15.7461 Y-13.5729
G01 X-15.5705 Y-13.5900
G01 X-14.3803 Y-13.5900
G01 X-14.2047 Y-13.5729
G01 X-14.1952 Y-13.5710
G01 X-14.0358 Y-13.5227
G01 X-14.0267 Y-13.5190
G01 X-13.8798 Y-13.4404
G01 X-13.8717 Y-13.4350
G01 X-13.7430 Y-13.3293
G01 X-13.7361 Y-13.3224
G01 X-13.6848 Y-13.2602
G01 X-13.6810 Y-13.2566
G01 X-13.6364 Y-13.2192
G01 X-13.6290 Y-13.2148
G01 X-13.6210 Y-13.2117
G01 X-13.5444 Y-13.1914
G01 X-13.5351 Y-13.1901
G01 X-10.8590 Y-13.1900
G01 X-10.8362 Y-13.1916
G01 X-10.8130 Y-13.1946
G01 X-10.8081 Y-13.1957
G01 X-10.7476 Y-13.2165
G01 X-10.7398 Y-13.2199
G01 X-10.7337 Y-13.2239
G01 X-10.7282 Y-13.2287
G01 X-10.6735 Y-13.2843
G01 X-10.6704 Y-13.2881
G01 X-10.6669 Y-13.2932
G01 X-10.6641 Y-13.2987
G01 X-10.6617 Y-13.3057
G01 X-10.6418 Y-13.3811
G01 X-10.6407 Y-13.3869
G01 X-10.6404 Y-13.3927
G01 X-10.6404 Y-22.8535
G01 X-10.6400 Y-22.8600
G01 X-10.6238 Y-22.9828
G01 X-10.6204 Y-22.9953
G01 X-10.5755 Y-23.1038
G01 X-10.5691 Y-23.1150
G01 X-10.4976 Y-23.2081
G01 X-10.4885 Y-23.2172
G01 X-10.3954 Y-23.2887
G01 X-10.3841 Y-23.2951
G01 X-10.2757 Y-23.3400
G01 X-10.2632 Y-23.3434
G01 X-10.1404 Y-23.3596
G01 X-10.1338 Y-23.3600
G01 X28.5881 Y-23.3600
G01 X28.5946 Y-23.3596
G01 X28.7174 Y-23.3434
G01 X28.7299 Y-23.3400
G01 X28.8384 Y-23.2951
G01 X28.8496 Y-23.2887
G01 X28.9427 Y-23.2172
G01 X28.9518 Y-23.2081
G01 X29.0233 Y-23.1150
G01 X29.0297 Y-23.1038
G01 X29.0747 Y-22.9953
G01 X29.0780 Y-22.9828
G01 X29.0942 Y-22.8600
G01 X29.0946 Y-22.8535
G01 X29.0946 Y-16.5738
G01 X29.0951 Y-16.5677
G01 X29.0961 Y-16.5630
G01 X29.1174 Y-16.4853
G01 X29.1194 Y-16.4794
G01 X29.1221 Y-16.4737
G01 X29.1256 Y-16.4685
G01 X29.1305 Y-16.4629
G01 X29.1862 Y-16.4082
G01 X29.1940 Y-16.4022
G01 X29.2006 Y-16.3987
G01 X29.2076 Y-16.3963
G01 X29.2829 Y-16.3764
G01 X29.2887 Y-16.3753
G01 X29.2946 Y-16.3750
G01 X40.0181 Y-16.3750
G01 X40.0246 Y-16.3746
G01 X40.1474 Y-16.3584
G01 X40.1599 Y-16.3550
G01 X40.2684 Y-16.3101
G01 X40.2796 Y-16.3037
G01 X40.3727 Y-16.2322
G01 X40.3818 Y-16.2231
G01 X40.4533 Y-16.1300
G01 X40.4597 Y-16.1188
G01 X40.5047 Y-16.0103
G01 X40.5080 Y-15.9978
G01 X40.5242 Y-15.8750
G01 X40.5246 Y-15.8685
G01 X40.5246 Y16.2600
G01 X40.5251 Y16.2673
G01 X40.5264 Y16.2732
G01 X40.5477 Y16.3509
G01 X40.5494 Y16.3556
G01 X40.5515 Y16.3602
G01 X40.5556 Y16.3665
G01 X40.5605 Y16.3721
G01 X40.6162 Y16.4268
G01 X40.6200 Y16.4300
G01 X40.6251 Y16.4335
G01 X40.6306 Y16.4363
G01 X40.6376 Y16.4387
G01 X40.7129 Y16.4586
G01 X40.7187 Y16.4597
G01 X40.7234 Y16.4600
G01 X47.7145 Y16.4598
G01 X47.7228 Y16.4582
G01 X47.8005 Y16.4369
G01 X47.8075 Y16.4342
G01 X47.8130 Y16.4312
G01 X47.8171 Y16.4283
G01 X47.8209 Y16.4250
G01 X47.8773 Y16.3675
G01 X47.8804 Y16.3637
G01 X47.8837 Y16.3585
G01 X47.8863 Y16.3529
G01 X47.8879 Y16.3482
G01 X47.9082 Y16.2717
G01 X47.9091 Y16.2670
G01 X47.9096 Y16.2612
G01 X47.9096 Y15.4679
G01 X47.9102 Y15.4601
G01 X47.9212 Y15.3907
G01 X47.9260 Y15.3760
G01 X47.9543 Y15.3204
G01 X47.9634 Y15.3079
G01 X48.0075 Y15.2638
G01 X48.0200 Y15.2547
G01 X48.0756 Y15.2264
G01 X48.0903 Y15.2216
G01 X48.1597 Y15.2106
G01 X48.1675 Y15.2100
G01 X51.1518 Y15.2100
G01 X51.1595 Y15.2106
G01 X51.2289 Y15.2216
G01 X51.2436 Y15.2264
G01 X51.2992 Y15.2547
G01 X51.3117 Y15.2638
G01 X51.3558 Y15.3079
G01 X51.3649 Y15.3204
G01 X51.3932 Y15.3760
G01 X51.3980 Y15.3907
G01 X51.4090 Y15.4601
G01 X51.4096 Y15.4679
G01 X51.4096 Y18.4521
G01 X51.4090 Y18.4599
G01 X51.3980 Y18.5293
G01 X51.3932 Y18.5440
G01 X51.3649 Y18.5996
G01 X51.3558 Y18.6121
G01 X51.3117 Y18.6562
G01 X51.2992 Y18.6653
G01 X51.2436 Y18.6936
G01 X51.2289 Y18.6984
G01 X51.1595 Y18.7094
G01 X51.1518 Y18.7100
G01 X48.1675 Y18.7100
G01 X48.1597 Y18.7094
G01 X48.0903 Y18.6984
G01 X48.0756 Y18.6936
G01 X48.0200 Y18.6653
G01 X48.0075 Y18.6562
G01 X47.9634 Y18.6121
G01 X47.9543 Y18.5996
G01 X47.9260 Y18.5440
G01 X47.9212 Y18.5293
G01 X47.9102 Y18.4599
G01 X47.9096 Y18.4521
G01 X47.9096 Y17.6588
G01 X47.9092 Y17.6539
G01 X47.9081 Y17.6480
G01 X47.8865 Y17.5691
G01 X47.8848 Y17.5644
G01 X47.8821 Y17.5587
G01 X47.8794 Y17.5545
G01 X47.8754 Y17.5497
G01 X47.8180 Y17.4932
G01 X47.8102 Y17.4872
G01 X47.8048 Y17.4843
G01 X47.7978 Y17.4817
G01 X47.7224 Y17.4617
G01 X47.7131 Y17.4601
G01 X40.4943 Y17.4600
G01 X40.4868 Y17.4608
G01 X40.4807 Y17.4623
G01 X40.3882 Y17.4936
G01 X40.3824 Y17.4960
G01 X40.3780 Y17.4985
G01 X40.3738 Y17.5013
G01 X40.2796 Y17.5737
G01 X40.2684 Y17.5801
G01 X40.1599 Y17.6250
G01 X40.1474 Y17.6284
G01 X40.0311 Y17.6437
G01 X40.0181 Y17.6437
G01 X39.9018 Y17.6284
G01 X39.8893 Y17.6250
G01 X39.7809 Y17.5801
G01 X39.7696 Y17.5737
G01 X39.6765 Y17.5022
G01 X39.6674 Y17.4931
G01 X39.5959 Y17.4000
G01 X39.5895 Y17.3888
G01 X39.5446 Y17.2803
G01 X39.5412 Y17.2678
G01 X39.5250 Y17.1450
G01 X39.5246 Y17.1385
G01 X39.5246 Y10.8588
G01 X39.5242 Y10.8539
G01 X39.5231 Y10.8480
G01 X39.5011 Y10.7679
G01 X39.4993 Y10.7632
G01 X39.4964 Y10.7577
G01 X39.4929 Y10.7525
G01 X39.4896 Y10.7487
G01 X39.4330 Y10.6932
G01 X39.4283 Y10.6892
G01 X39.4231 Y10.6859
G01 X39.4186 Y10.6837
G01 X39.4128 Y10.6817
G01 X39.3351 Y10.6611
G01 X39.3293 Y10.6602
G01 X39.3246 Y10.6600
G01 X27.8954 Y10.6600
G01 X27.8876 Y10.6606
G01 X27.8303 Y10.6713
G01 X27.8210 Y10.6744
G01 X27.8135 Y10.6787
G01 X27.7466 Y10.7272
G01 X27.7408 Y10.7331
G01 X27.6839 Y10.8024
G01 X27.6770 Y10.8093
G01 X27.5483 Y10.9150
G01 X27.5402 Y10.9204
G01 X27.3933 Y10.9990
G01 X27.3842 Y11.0027
G01 X27.2248 Y11.0510
G01 X27.2153 Y11.0529
G01 X27.1250 Y11.0618
G01 X27.1190 Y11.0628
G01 X27.0514 Y11.0847
G01 X27.0467 Y11.0867
G01 X27.0412 Y11.0897
G01 X27.0371 Y11.0926
G01 X27.0333 Y11.0959
G01 X26.9786 Y11.1516
G01 X26.9746 Y11.1562
G01 X26.9711 Y11.1613
G01 X26.9684 Y11.1668
G01 X26.9659 Y11.1738
G01 X26.9463 Y11.2481
G01 X26.9447 Y11.2573
G01 X26.9446 Y11.5991
G01 X26.9451 Y11.6064
G01 X26.9602 Y11.6747
G01 X26.9616 Y11.6795
G01 X26.9641 Y11.6852
G01 X26.9666 Y11.6896
G01 X26.9695 Y11.6937
G01 X27.0196 Y11.7536
G01 X27.0229 Y11.7572
G01 X27.0276 Y11.7613
G01 X27.0327 Y11.7647
G01 X27.0382 Y11.7675
G01 X27.1158 Y11.7964
G01 X27.1250 Y11.7982
G01 X27.2153 Y11.8071
G01 X27.2248 Y11.8090
G01 X27.3842 Y11.8573
G01 X27.3933 Y11.8610
G01 X27.5402 Y11.9396
G01 X27.5483 Y11.9450
G01 X27.6770 Y12.0507
G01 X27.6839 Y12.0576
G01 X27.7896 Y12.1863
G01 X27.7950 Y12.1944
G01 X27.8736 Y12.3414
G01 X27.8773 Y12.3504
G01 X27.9257 Y12.5098
G01 X27.9276 Y12.5193
G01 X27.9439 Y12.6851
G01 X27.9439 Y12.6949
G01 X27.9276 Y12.8607
G01 X27.9257 Y12.8702
G01 X27.8773 Y13.0296
G01 X27.8736 Y13.0386
G01 X27.7950 Y13.1856
G01 X27.7896 Y13.1937
G01 X27.6839 Y13.3224
G01 X27.6770 Y13.3293
G01 X27.5483 Y13.4350
G01 X27.5402 Y13.4404
G01 X27.3933 Y13.5190
G01 X27.3842 Y13.5227
G01 X27.2248 Y13.5710
G01 X27.2153 Y13.5729
G01 X27.0397 Y13.5900
G01 X25.8495 Y13.5900
G01 X25.6739 Y13.5729
G01 X25.6644 Y13.5710
G01 X25.5050 Y13.5227
G01 X25.4960 Y13.5190
G01 X25.3491 Y13.4404
G01 X25.3409 Y13.4350
G01 X25.2122 Y13.3293
G01 X25.2053 Y13.3224
G01 X25.0996 Y13.1937
G01 X25.0942 Y13.1856
G01 X25.0156 Y13.0386
G01 X25.0119 Y13.0296
G01 X24.9636 Y12.8702
G01 X24.9617 Y12.8607
G01 X24.9453 Y12.6949
G01 X24.9453 Y12.6851
G01 X24.9617 Y12.5193
G01 X24.9636 Y12.5098
G01 X25.0119 Y12.3504
G01 X25.0156 Y12.3414
G01 X25.0942 Y12.1944
G01 X25.0996 Y12.1863
G01 X25.2053 Y12.0576
G01 X25.2122 Y12.0507
G01 X25.3409 Y11.9450
G01 X25.3491 Y11.9396
G01 X25.4960 Y11.8610
G01 X25.5050 Y11.8573
G01 X25.6644 Y11.8090
G01 X25.6739 Y11.8071
G01 X25.7642 Y11.7982
G01 X25.7702 Y11.7972
G01 X25.8379 Y11.7753
G01 X25.8436 Y11.7728
G01 X25.8490 Y11.7696
G01 X25.8531 Y11.7666
G01 X25.8568 Y11.7632
G01 X25.9106 Y11.7084
G01 X25.9146 Y11.7038
G01 X25.9181 Y11.6987
G01 X25.9209 Y11.6932
G01 X25.9229 Y11.6874
G01 X25.9439 Y11.6073
G01 X25.9446 Y11.5991
G01 X25.9445 Y11.2584
G01 X25.9434 Y11.2500
G01 X25.9287 Y11.1841
G01 X25.9271 Y11.1794
G01 X25.9251 Y11.1748
G01 X25.9226 Y11.1704
G01 X25.9197 Y11.1663
G01 X25.8680 Y11.1045
G01 X25.8645 Y11.1011
G01 X25.8597 Y11.0973
G01 X25.8544 Y11.0941
G01 X25.8499 Y11.0920
G01 X25.7723 Y11.0633
G01 X25.7642 Y11.0618
G01 X25.6739 Y11.0529
G01 X25.6644 Y11.0510
G01 X25.5050 Y11.0027
G01 X25.4960 Y10.9990
G01 X25.3491 Y10.9204
G01 X25.3409 Y10.9150
G01 X25.2122 Y10.8093
G01 X25.2053 Y10.8024
G01 X25.0996 Y10.6737
G01 X25.0942 Y10.6656
G01 X25.0156 Y10.5186
G01 X25.0119 Y10.5096
G01 X24.9636 Y10.3502
G01 X24.9617 Y10.3407
G01 X24.9453 Y10.1749
G01 X24.9453 Y10.1651
G01 X24.9617 Y9.9993
G01 X24.9636 Y9.9898
G01 X25.0119 Y9.8304
G01 X25.0156 Y9.8214
G01 X25.0942 Y9.6744
G01 X25.0996 Y9.6663
G01 X25.2053 Y9.5376
G01 X25.2122 Y9.5307
G01 X25.3409 Y9.4250
G01 X25.3491 Y9.4196
G01 X25.4960 Y9.3410
G01 X25.5050 Y9.3373
G01 X25.6644 Y9.2890
G01 X25.6739 Y9.2871
G01 X25.8495 Y9.2700
G01 X27.0397 Y9.2700
G01 X27.2153 Y9.2871
G01 X27.2248 Y9.2890
G01 X27.3842 Y9.3373
G01 X27.3933 Y9.3410
G01 X27.5402 Y9.4196
G01 X27.5483 Y9.4250
G01 X27.6770 Y9.5307
G01 X27.6839 Y9.5376
G01 X27.7270 Y9.5898
G01 X27.7308 Y9.5934
G01 X27.7754 Y9.6308
G01 X27.7828 Y9.6352
G01 X27.7908 Y9.6383
G01 X27.8674 Y9.6586
G01 X27.8720 Y9.6595
G01 X27.8778 Y9.6600
G01 X39.3246 Y9.6600
G01 X39.3307 Y9.6596
G01 X39.3366 Y9.6585
G01 X39.4143 Y9.6373
G01 X39.4214 Y9.6347
G01 X39.4269 Y9.6318
G01 X39.4321 Y9.6283
G01 X39.4359 Y9.6250
G01 X39.4906 Y9.5693
G01 X39.4954 Y9.5637
G01 X39.4993 Y9.5574
G01 X39.5029 Y9.5482
G01 X39.5229 Y9.4728
G01 X39.5243 Y9.4659
G01 X39.5246 Y9.4600
G01 X39.5246 Y-2.4750
G01 X39.5241 Y-2.4823
G01 X39.5228 Y-2.4882
G01 X39.5015 Y-2.5659
G01 X39.4998 Y-2.5706
G01 X39.4971 Y-2.5763
G01 X39.4936 Y-2.5815
G01 X39.4896 Y-2.5863
G01 X39.4339 Y-2.6410
G01 X39.4283 Y-2.6458
G01 X39.4209 Y-2.6502
G01 X39.4128 Y-2.6533
G01 X39.3363 Y-2.6736
G01 X39.3305 Y-2.6747
G01 X39.3246 Y-2.6750
G01 X27.1397 Y-2.6748
G01 X27.1314 Y-2.6732
G01 X27.0549 Y-2.6523
G01 X27.0478 Y-2.6497
G01 X27.0423 Y-2.6468
G01 X27.0371 Y-2.6433
G01 X27.0333 Y-2.6400
G01 X26.9778 Y-2.5834
G01 X26.9724 Y-2.5766
G01 X26.9684 Y-2.5690
G01 X26.9659 Y-2.5621
G01 X26.9463 Y-2.4878
G01 X26.9450 Y-2.4809
G01 X26.9446 Y-2.4750
G01 X26.9446 Y-2.3709
G01 X26.9450 Y-2.3648
G01 X26.9602 Y-2.2953
G01 X26.9625 Y-2.2882
G01 X26.9666 Y-2.2804
G01 X26.9703 Y-2.2754
G01 X27.0212 Y-2.2145
G01 X27.0256 Y-2.2103
G01 X27.0296 Y-2.2073
G01 X27.0337 Y-2.2047
G01 X27.0393 Y-2.2020
G01 X27.1169 Y-2.1733
G01 X27.1250 Y-2.1718
G01 X27.2153 Y-2.1629
G01 X27.2248 Y-2.1610
G01 X27.3842 Y-2.1127
G01 X27.3933 Y-2.1090
G01 X27.5402 Y-2.0304
G01 X27.5483 Y-2.0250
G01 X27.6770 Y-1.9193
G01 X27.6839 Y-1.9124
G01 X27.7896 Y-1.7837
G01 X27.7950 Y-1.7756
G01 X27.8736 Y-1.6286
G01 X27.8773 Y-1.6196
G01 X27.9257 Y-1.4602
G01 X27.9276 Y-1.4507
G01 X27.9439 Y-1.2849
G01 X27.9439 Y-1.2751
G01 X27.9276 Y-1.1093
G01 X27.9257 Y-1.0998
G01 X27.8773 Y-0.9404
G01 X27.8736 Y-0.9314
G01 X27.7950 Y-0.7844
G01 X27.7896 Y-0.7763
G01 X27.6839 Y-0.6476
G01 X27.6770 Y-0.6407
G01 X27.5483 Y-0.5350
G01 X27.5402 Y-0.5296
G01 X27.3933 Y-0.4510
G01 X27.3842 Y-0.4473
G01 X27.2248 Y-0.3990
G01 X27.2153 Y-0.3971
G01 X27.0446 Y-0.3802
G01 X25.8495 Y-0.3800
G01 X25.6739 Y-0.3971
G01 X25.6644 Y-0.3990
G01 X25.5050 Y-0.4473
G01 X25.4960 Y-0.4510
G01 X25.3491 Y-0.5296
G01 X25.3409 Y-0.5350
G01 X25.2122 Y-0.6407
G01 X25.2053 Y-0.6476
G01 X25.0996 Y-0.7763
G01 X25.0942 Y-0.7844
G01 X25.0156 Y-0.9314
G01 X25.0119 Y-0.9404
G01 X24.9636 Y-1.0998
G01 X24.9617 Y-1.1093
G01 X24.9453 Y-1.2751
G01 X24.9453 Y-1.2849
G01 X24.9617 Y-1.4507
G01 X24.9636 Y-1.4602
G01 X25.0119 Y-1.6196
G01 X25.0156 Y-1.6286
G01 X25.0942 Y-1.7756
G01 X25.0996 Y-1.7837
G01 X25.2053 Y-1.9124
G01 X25.2122 Y-1.9193
G01 X25.3409 Y-2.0250
G01 X25.3491 Y-2.0304
G01 X25.4960 Y-2.1090
G01 X25.5050 Y-2.1127
G01 X25.6644 Y-2.1610
G01 X25.6739 Y-2.1629
G01 X25.7690 Y-2.1725
G01 X25.7749 Y-2.1741
G01 X25.8367 Y-2.1943
G01 X25.8414 Y-2.1961
G01 X25.8469 Y-2.1990
G01 X25.8521 Y-2.2026
G01 X25.8568 Y-2.2068
G01 X25.9115 Y-2.2625
G01 X25.9146 Y-2.2662
G01 X25.9181 Y-2.2713
G01 X25.9209 Y-2.2768
G01 X25.9229 Y-2.2826
G01 X25.9435 Y-2.3604
G01 X25.9443 Y-2.3650
G01 X25.9446 Y-2.3709
G01 X25.9445 Y-2.7116
G01 X25.9434 Y-2.7200
G01 X25.9287 Y-2.7859
G01 X25.9271 Y-2.7906
G01 X25.9251 Y-2.7952
G01 X25.9226 Y-2.7996
G01 X25.9197 Y-2.8037
G01 X25.8680 Y-2.8655
G01 X25.8636 Y-2.8697
G01 X25.8597 Y-2.8727
G01 X25.8555 Y-2.8753
G01 X25.8499 Y-2.8780
G01 X25.7723 Y-2.9067
G01 X25.7642 Y-2.9082
G01 X25.6739 Y-2.9171
G01 X25.6644 Y-2.9190
G01 X25.5050 Y-2.9673
G01 X25.4960 Y-2.9710
G01 X25.3491 Y-3.0496
G01 X25.3409 Y-3.0550
G01 X25.2122 Y-3.1607
G01 X25.2053 Y-3.1676
G01 X25.0996 Y-3.2963
G01 X25.0942 Y-3.3044
G01 X25.0156 Y-3.4514
G01 X25.0119 Y-3.4604
G01 X24.9636 Y-3.6198
G01 X24.9617 Y-3.6293
G01 X24.9453 Y-3.7951
G01 X24.9453 Y-3.8049
G01 X24.9617 Y-3.9707
G01 X24.9636 Y-3.9802
G01 X25.0119 Y-4.1396
G01 X25.0156 Y-4.1486
G01 X25.0942 Y-4.2956
G01 X25.0996 Y-4.3037
G01 X25.2053 Y-4.4324
G01 X25.2122 Y-4.4393
G01 X25.3409 Y-4.5450
G01 X25.3491 Y-4.5504
G01 X25.4960 Y-4.6290
G01 X25.5050 Y-4.6327
G01 X25.6644 Y-4.6810
G01 X25.6739 Y-4.6829
G01 X25.8495 Y-4.7000
G01 X27.0397 Y-4.7000
G01 X27.2153 Y-4.6829
G01 X27.2248 Y-4.6810
G01 X27.3842 Y-4.6327
G01 X27.3933 Y-4.6290
G01 X27.5402 Y-4.5504
G01 X27.5483 Y-4.5450
G01 X27.6770 Y-4.4393
G01 X27.6839 Y-4.4324
G01 X27.7896 Y-4.3037
G01 X27.7950 Y-4.2956
G01 X27.8736 Y-4.1486
G01 X27.8773 Y-4.1396
G01 X27.9257 Y-3.9802
G01 X27.9276 Y-3.9707
G01 X27.9396 Y-3.8506
G01 X27.9412 Y-3.8447
G01 X27.9614 Y-3.7829
G01 X27.9649 Y-3.7749
G01 X27.9689 Y-3.7685
G01 X27.9739 Y-3.7629
G01 X28.0295 Y-3.7082
G01 X28.0333 Y-3.7050
G01 X28.0384 Y-3.7015
G01 X28.0450 Y-3.6983
G01 X28.0509 Y-3.6963
G01 X28.1251 Y-3.6767
G01 X28.1344 Y-3.6751
G01 X39.3246 Y-3.6750
G01 X39.3307 Y-3.6754
G01 X39.3366 Y-3.6765
G01 X39.4155 Y-3.6981
G01 X39.4214 Y-3.7003
G01 X39.4269 Y-3.7032
G01 X39.4321 Y-3.7067
G01 X39.4359 Y-3.7100
G01 X39.4915 Y-3.7666
G01 X39.4954 Y-3.7713
G01 X39.4987 Y-3.7765
G01 X39.5009 Y-3.7810
G01 X39.5029 Y-3.7868
G01 X39.5229 Y-3.8622
G01 X39.5243 Y-3.8691
G01 X39.5246 Y-3.8750
G01 X39.5246 Y-15.1750
G01 X39.5241 Y-15.1823
G01 X39.5228 Y-15.1882
G01 X39.5015 Y-15.2659
G01 X39.4998 Y-15.2706
G01 X39.4971 Y-15.2763
G01 X39.4936 Y-15.2815
G01 X39.4896 Y-15.2863
G01 X39.4339 Y-15.3410
G01 X39.4293 Y-15.3450
G01 X39.4220 Y-15.3497
G01 X39.4128 Y-15.3533
G01 X39.3363 Y-15.3736
G01 X39.3305 Y-15.3747
G01 X39.3246 Y-15.3750
G01 X28.1343 Y-15.3749
G01 X28.1271 Y-15.3738
G01 X28.0624 Y-15.3594
G01 X28.0564 Y-15.3575
G01 X28.0507 Y-15.3549
G01 X28.0464 Y-15.3523
G01 X28.0424 Y-15.3493
G01 X27.9825 Y-15.2992
G01 X27.9766 Y-15.2930
G01 X27.9718 Y-15.2859
G01 X27.9687 Y-15.2791
G01 X27.9418 Y-15.2072
G01 X27.9401 Y-15.2016
G01 X27.9389 Y-15.1946
G01 X27.9276 Y-15.0793
G01 X27.9257 Y-15.0698
G01 X27.8773 Y-14.9104
G01 X27.8736 Y-14.9014
G01 X27.7950 Y-14.7544
G01 X27.7896 Y-14.7463
G01 X27.6839 Y-14.6176
G01 X27.6770 Y-14.6107
G01 X27.5483 Y-14.5050
G01 X27.5402 Y-14.4996
G01 X27.3933 Y-14.4210
G01 X27.3842 Y-14.4173
G01 X27.2248 Y-14.3690
G01 X27.2153 Y-14.3671
G01 X27.0397 Y-14.3500
G01 X25.8495 Y-14.3500
G01 X25.6739 Y-14.3671
G01 X25.6644 Y-14.3690
G01 X25.5050 Y-14.4173
G01 X25.4960 Y-14.4210
G01 X25.3491 Y-14.4996
G01 X25.3409 Y-14.5050
G01 X25.2122 Y-14.6107
G01 X25.2053 Y-14.6176
G01 X25.0996 Y-14.7463
G01 X25.0942 Y-14.7544
G01 X25.0156 Y-14.9014
G01 X25.0119 Y-14.9104
G01 X24.9636 Y-15.0698
G01 X24.9617 Y-15.0793
G01 X24.9453 Y-15.2451
G01 X24.9453 Y-15.2549
G01 X24.9617 Y-15.4207
G01 X24.9636 Y-15.4302
G01 X25.0119 Y-15.5896
G01 X25.0156 Y-15.5986
G01 X25.0942 Y-15.7456
G01 X25.0996 Y-15.7537
G01 X25.2053 Y-15.8824
G01 X25.2122 Y-15.8893
G01 X25.3409 Y-15.9950
G01 X25.3491 Y-16.0004
G01 X25.4960 Y-16.0790
G01 X25.5050 Y-16.0827
G01 X25.6644 Y-16.1310
G01 X25.6739 Y-16.1329
G01 X25.7690 Y-16.1425
G01 X25.7749 Y-16.1441
G01 X25.8390 Y-16.1652
G01 X25.8469 Y-16.1690
G01 X25.8511 Y-16.1718
G01 X25.8549 Y-16.1750
G01 X25.9106 Y-16.2316
G01 X25.9146 Y-16.2362
G01 X25.9193 Y-16.2435
G01 X25.9229 Y-16.2526
G01 X25.9429 Y-16.3281
G01 X25.9445 Y-16.3373
G01 X25.9446 Y-16.6791
G01 X25.9442 Y-16.6852
G01 X25.9290 Y-16.7547
G01 X25.9271 Y-16.7606
G01 X25.9245 Y-16.7663
G01 X25.9219 Y-16.7706
G01 X25.9189 Y-16.7746
G01 X25.8697 Y-16.8336
G01 X25.8645 Y-16.8389
G01 X25.8597 Y-16.8427
G01 X25.8544 Y-16.8459
G01 X25.8499 Y-16.8480
G01 X25.7723 Y-16.8767
G01 X25.7642 Y-16.8782
G01 X25.6739 Y-16.8871
G01 X25.6644 Y-16.8890
G01 X25.5050 Y-16.9373
G01 X25.4960 Y-16.9410
G01 X25.3491 Y-17.0196
G01 X25.3409 Y-17.0250
G01 X25.2122 Y-17.1307
G01 X25.2053 Y-17.1376
G01 X25.0996 Y-17.2663
G01 X25.0942 Y-17.2744
G01 X25.0156 Y-17.4214
G01 X25.0119 Y-17.4304
G01 X24.9636 Y-17.5898
G01 X24.9617 Y-17.5993
G01 X24.9453 Y-17.7651
G01 X24.9453 Y-17.7749
G01 X24.9617 Y-17.9407
G01 X24.9636 Y-17.9502
G01 X25.0119 Y-18.1096
G01 X25.0156 Y-18.1186
G01 X25.0942 Y-18.2656
G01 X25.0996 Y-18.2737
G01 X25.2053 Y-18.4024
G01 X25.2122 Y-18.4093
G01 X25.3409 Y-18.5150
G01 X25.3491 Y-18.5204
G01 X25.4960 Y-18.5990
G01 X25.5050 Y-18.6027
G01 X25.6644 Y-18.6510
G01 X25.6739 Y-18.6529
G01 X25.8446 Y-18.6698
G01 X27.0397 Y-18.6700
G01 X27.2153 Y-18.6529
G01 X27.2248 Y-18.6510
G01 X27.3842 Y-18.6027
G01 X27.3933 Y-18.5990
G01 X27.5402 Y-18.5204
G01 X27.5483 Y-18.5150
G01 X27.6770 Y-18.4093
G01 X27.6839 Y-18.4024
G01 X27.7432 Y-18.3306
G01 X27.7917 Y-18.2901
G01 X27.7958 Y-18.2872
G01 X27.8012 Y-18.2842
G01 X27.8059 Y-18.2823
G01 X27.8107 Y-18.2809
G01 X27.8852 Y-18.2625
G01 X27.8925 Y-18.2612
G01 X27.8987 Y-18.2610
G01 X27.9048 Y-18.2616
G01 X27.9108 Y-18.2629
G01 X27.9859 Y-18.2842
G01 X27.9905 Y-18.2859
G01 X27.9961 Y-18.2886
G01 X28.0022 Y-18.2928
G01 X28.0068 Y-18.2969
G01 X28.0615 Y-18.3526
G01 X28.0646 Y-18.3563
G01 X28.0681 Y-18.3615
G01 X28.0709 Y-18.3670
G01 X28.0733 Y-18.3739
G01 X28.0929 Y-18.4482
G01 X28.0945 Y-18.4575
G01 X28.0945 Y-19.6414
G01 X28.0937 Y-19.6485
G01 X28.0826 Y-19.7058
G01 X28.0813 Y-19.7106
G01 X28.0789 Y-19.7164
G01 X28.0766 Y-19.7208
G01 X28.0738 Y-19.7250
G01 X28.0255 Y-19.7894
G01 X28.0183 Y-19.7961
G01 X28.0132 Y-19.7996
G01 X28.0089 Y-19.8019
G01 X27.9362 Y-19.8336
G01 X27.9291 Y-19.8359
G01 X27.9231 Y-19.8369
G01 X27.9132 Y-19.8371
G01 X27.8332 Y-19.8285
G01 X27.8237 Y-19.8260
G01 X27.8191 Y-19.8241
G01 X27.8138 Y-19.8210
G01 X27.7457 Y-19.7718
G01 X27.7400 Y-19.7659
G01 X27.6839 Y-19.6976
G01 X27.6770 Y-19.6907
G01 X27.5483 Y-19.5850
G01 X27.5402 Y-19.5796
G01 X27.3933 Y-19.5010
G01 X27.3842 Y-19.4973
G01 X27.2248 Y-19.4490
G01 X27.2153 Y-19.4471
G01 X27.0397 Y-19.4300
G01 X25.8495 Y-19.4300
G01 X25.6739 Y-19.4471
G01 X25.6644 Y-19.4490
G01 X25.5050 Y-19.4973
G01 X25.4960 Y-19.5010
G01 X25.3491 Y-19.5796
G01 X25.3409 Y-19.5850
G01 X25.2122 Y-19.6907
G01 X25.2053 Y-19.6976
G01 X25.1540 Y-19.7598
G01 X25.1502 Y-19.7634
G01 X25.1056 Y-19.8008
G01 X25.0982 Y-19.8052
G01 X25.0902 Y-19.8083
G01 X25.0137 Y-19.8286
G01 X25.0090 Y-19.8295
G01 X25.0032 Y-19.8300
G01 X1.9896 Y-19.8300
G01 X1.9811 Y-19.8293
G01 X1.8987 Y-19.8069
G01 X1.8928 Y-19.8047
G01 X1.8883 Y-19.8025
G01 X1.8831 Y-19.7990
G01 X1.8783 Y-19.7950
G01 X1.8236 Y-19.7393
G01 X1.8196 Y-19.7346
G01 X1.8168 Y-19.7306
G01 X1.8139 Y-19.7252
G01 X1.8116 Y-19.7194
G01 X1.7910 Y-19.6417
G01 X1.7900 Y-19.6359
G01 X1.7896 Y-19.6300
G01 X1.7896 Y25.3461
G01 X1.7909 Y25.3560
G01 X1.8097 Y25.4301
G01 X1.8132 Y25.4391
G01 X1.8163 Y25.4443
G01 X1.8191 Y25.4482
G01 X1.8768 Y25.5092
G01 X1.8833 Y25.5143
G01 X1.9144 Y25.5335
G01 X1.9217 Y25.5391
G01 X2.0572 Y25.6625
G01 X2.0634 Y25.6693
G01 X2.1265 Y25.7529
G01 X2.1320 Y25.7590
G01 X2.1824 Y25.8026
G01 X2.1874 Y25.8062
G01 X2.1940 Y25.8097
G01 X2.2022 Y25.8125
G01 X2.2779 Y25.8312
G01 X2.2877 Y25.8324
G01 X2.2975 Y25.8316
G01 X2.3774 Y25.8092
G01 X2.3832 Y25.8070
G01 X2.3886 Y25.8041
G01 X2.3937 Y25.8006
G01 X2.3983 Y25.7965
G01 X2.4521 Y25.7417
G01 X2.4583 Y25.7340
G01 X2.4619 Y25.7275
G01 X2.4644 Y25.7206
G01 X2.4844 Y25.6452
G01 X2.4856 Y25.6394
G01 X2.4861 Y25.6336
G01 X2.4861 Y25.5806
G01 X2.4864 Y25.5750
G01 X2.4996 Y25.4582
G01 X2.5021 Y25.4474
G01 X2.5390 Y25.3418
G01 X2.5438 Y25.3318
G01 X2.6034 Y25.2370
G01 X2.6103 Y25.2283
G01 X2.6894 Y25.1492
G01 X2.6981 Y25.1423
G01 X2.7929 Y25.0827
G01 X2.8029 Y25.0779
G01 X2.9085 Y25.0409
G01 X2.9194 Y25.0385
G01 X3.0361 Y25.0253
G01 X3.0417 Y25.0250
G01 X3.6296 Y25.0250
G01 X3.6296 Y25.5250
G01 X3.0324 Y25.5251
G01 X3.0228 Y25.5268
G01 X3.0136 Y25.5303
G01 X3.0053 Y25.5356
G01 X2.9991 Y25.5414
G01 X2.9939 Y25.5483
G01 X2.9895 Y25.5570
G01 X2.9868 Y25.5665
G01 X2.9861 Y25.5750
G01 X2.9861 Y27.7650
G01 X2.9865 Y27.7711
G01 X2.9873 Y27.7760
G01 X2.9899 Y27.7841
G01 X2.9939 Y27.7917
G01 X2.9982 Y27.7977
G01 X3.0044 Y27.8037
G01 X3.0115 Y27.8085
G01 X3.0181 Y27.8116
G01 X3.0252 Y27.8138
G01 X3.0337 Y27.8149
G01 X3.6296 Y27.8150
G01 X3.6296 Y28.3150
G01 X3.0417 Y28.3150
G01 X3.0361 Y28.3147
G01 X2.9194 Y28.3015
G01 X2.9085 Y28.2991
G01 X2.8029 Y28.2621
G01 X2.7929 Y28.2573
G01 X2.6981 Y28.1977
G01 X2.6894 Y28.1908
G01 X2.6103 Y28.1117
G01 X2.6034 Y28.1030
G01 X2.5438 Y28.0082
G01 X2.5390 Y27.9982
G01 X2.5021 Y27.8926
G01 X2.4996 Y27.8818
G01 X2.4864 Y27.7650
G01 X2.4861 Y27.7594
G01 X2.4861 Y27.7076
G01 X2.4858 Y27.7017
G01 X2.4715 Y27.6343
G01 X2.4696 Y27.6284
G01 X2.4677 Y27.6238
G01 X2.4624 Y27.6154
G01 X2.4132 Y27.5548
G01 X2.4091 Y27.5503
G01 X2.4044 Y27.5463
G01 X2.3992 Y27.5429
G01 X2.3937 Y27.5402
G01 X2.3209 Y27.5119
G01 X2.3151 Y27.5101
G01 X2.3066 Y27.5087
G01 X2.2979 Y27.5088
G01 X2.2183 Y27.5206
G01 X2.2135 Y27.5216
G01 X2.2077 Y27.5236
G01 X2.2032 Y27.5258
G01 X2.1980 Y27.5290
G01 X2.1355 Y27.5779
G01 X2.1311 Y27.5818
G01 X2.1265 Y27.5871
G01 X2.0634 Y27.6707
G01 X2.0572 Y27.6775
G01 X1.9217 Y27.8009
G01 X1.9144 Y27.8065
G01 X1.7586 Y27.9030
G01 X1.7503 Y27.9071
G01 X1.5794 Y27.9733
G01 X1.5706 Y27.9758
G01 X1.3904 Y28.0095
G01 X1.3813 Y28.0103
G01 X1.1980 Y28.0103
G01 X1.1888 Y28.0095
G01 X1.0086 Y27.9758
G01 X0.9998 Y27.9733
G01 X0.8289 Y27.9071
G01 X0.8206 Y27.9030
G01 X0.6648 Y27.8065
G01 X0.6575 Y27.8009
G01 X0.5220 Y27.6775
G01 X0.5158 Y27.6707
G01 X0.4054 Y27.5244
G01 X0.4005 Y27.5166
G01 X0.3188 Y27.3525
G01 X0.3155 Y27.3439
G01 X0.2653 Y27.1676
G01 X0.2637 Y27.1586
G01 X0.2461 Y26.9669
G01 X0.2461 Y26.3731
G01 X0.2637 Y26.1814
G01 X0.2653 Y26.1724
G01 X0.3155 Y25.9961
G01 X0.3188 Y25.9875
G01 X0.4005 Y25.8234
G01 X0.4054 Y25.8156
G01 X0.5158 Y25.6693
G01 X0.5220 Y25.6625
G01 X0.6575 Y25.5391
G01 X0.6648 Y25.5335
G01 X0.6959 Y25.5142
G01 X0.7019 Y25.5097
G01 X0.7584 Y25.4511
G01 X0.7638 Y25.4431
G01 X0.7659 Y25.4388
G01 X0.7679 Y25.4331
G01 X0.7882 Y25.3565
G01 X0.7893 Y25.3507
G01 X0.7896 Y25.3448
G01 X0.7896 Y-20.3235
G01 X0.7900 Y-20.3300
G01 X0.8062 Y-20.4528
G01 X0.8096 Y-20.4653
G01 X0.8545 Y-20.5738
G01 X0.8609 Y-20.5850
G01 X0.9324 Y-20.6781
G01 X0.9415 Y-20.6872
G01 X1.0346 Y-20.7587
G01 X1.0459 Y-20.7651
G01 X1.1543 Y-20.8100
G01 X1.1668 Y-20.8134
G01 X1.2896 Y-20.8296
G01 X1.2962 Y-20.8300
G01 X25.0033 Y-20.8300
G01 X25.0111 Y-20.8308
G01 X25.0671 Y-20.8413
G01 X25.0764 Y-20.8444
G01 X25.0839 Y-20.8487
G01 X25.1509 Y-20.8972
G01 X25.1566 Y-20.9031
G01 X25.2053 Y-20.9624
G01 X25.2122 Y-20.9693
G01 X25.3409 Y-21.0750
G01 X25.3491 Y-21.0804
G01 X25.4960 Y-21.1590
G01 X25.5050 Y-21.1627
G01 X25.6644 Y-21.2110
G01 X25.6739 Y-21.2129
G01 X25.8495 Y-21.2300
G01 X27.0397 Y-21.2300
G01 X27.2153 Y-21.2129
G01 X27.2248 Y-21.2110
G01 X27.3842 Y-21.1627
G01 X27.3933 Y-21.1590
G01 X27.5402 Y-21.0804
G01 X27.5483 Y-21.0750
G01 X27.6770 Y-20.9693
G01 X27.6839 Y-20.9624
G01 X27.7424 Y-20.8914
G01 X27.7467 Y-20.8873
G01 X27.7937 Y-20.8486
G01 X27.8012 Y-20.8442
G01 X27.8059 Y-20.8423
G01 X27.8107 Y-20.8409
G01 X27.8864 Y-20.8222
G01 X27.8925 Y-20.8212
G01 X27.8999 Y-20.8211
G01 X27.9096 Y-20.8226
G01 X27.9847 Y-20.8439
G01 X27.9905 Y-20.8459
G01 X27.9961 Y-20.8486
G01 X28.0012 Y-20.8520
G01 X28.0059 Y-20.8560
G01 X28.0606 Y-20.9117
G01 X28.0646 Y-20.9163
G01 X28.0674 Y-20.9204
G01 X28.0704 Y-20.9258
G01 X28.0726 Y-20.9316
G01 X28.0932 Y-21.0093
G01 X28.0943 Y-21.0151
G01 X28.0946 Y-21.0210
G01 X28.0946 Y-22.1600
G01 X28.0941 Y-22.1673
G01 X28.0928 Y-22.1732
G01 X28.0711 Y-22.2521
G01 X28.0693 Y-22.2568
G01 X28.0664 Y-22.2623
G01 X28.0636 Y-22.2665
G01 X28.0596 Y-22.2713
G01 X28.0030 Y-22.3268
G01 X27.9993 Y-22.3300
G01 X27.9941 Y-22.3335
G01 X27.9886 Y-22.3363
G01 X27.9828 Y-22.3383
G01 X27.9063 Y-22.3586
G01 X27.9005 Y-22.3597
G01 X27.8946 Y-22.3600
G01 X-9.4404 Y-22.3600
G01 X-9.4465 Y-22.3596
G01 X-9.4536 Y-22.3582
G01 X-9.5313 Y-22.3369
G01 X-9.5372 Y-22.3347
G01 X-9.5417 Y-22.3325
