N0010 (Filename: encoder_diff_driver_board.ngc)
N0020 (Post processor: LinuxCNC.scpost)
N0030 (Date: 30/10/2024)
N0040 G21 (Units: Metric)
N0050 G64 P0.001 G40 G90
N0060 F1
N0070 (Part: encoder_diff_driver_board_DRILLS)
N0080 (Operation: Drill, Tool 1, T18: Centre drill, 4 mm diameter, 0.1 mm Deep)
N0090 M6 T18  (Centre drill, 4 mm diameter)
N0100 G43 H18
N0110 G00 Z5.0000
N0120 M03 S3000
N0130 M08 (Flood coolant on)
N0140 X49.6596 Y-22.0400
N0150 Z1.0000
N0160 G01 Z-0.1000 F400
N0170 G00 Z5.0000
N0180 Y16.9600
N0190 Z1.0000
N0200 G01 Z-0.1000
N0210 G00 Z5.0000
N0220 X40.3446 Y27.3750
N0230 Z1.0000
N0240 G01 Z-0.1000
N0250 G00 Z5.0000
N0260 Y-30.6250
N0270 Z1.0000
N0280 G01 Z-0.1000
N0290 G00 Z5.0000
N0300 X31.6596 Y-22.0400
N0310 Z1.0000
N0320 G01 Z-0.1000
N0330 G00 Z5.0000
N0340 X26.4446 Y-20.3300
N0350 Z1.0000
N0360 G01 Z-0.1000
N0370 G00 Z5.0000
N0380 Y-17.7700
N0390 Z1.0000
N0400 G01 Z-0.1000
N0410 G00 Z5.0000
N0420 Y-15.2500
N0430 Z1.0000
N0440 G01 Z-0.1000
N0450 G00 Z5.0000
N0460 Y-12.6900
N0470 Z1.0000
N0480 G01 Z-0.1000
N0490 G00 Z5.0000
N0500 Y-6.3600
N0510 Z1.0000
N0520 G01 Z-0.1000
N0530 G00 Z5.0000
N0540 Y-3.8000
N0550 Z1.0000
N0560 G01 Z-0.1000
N0570 G00 Z5.0000
N0580 Y-1.2800
N0590 Z1.0000
N0600 G01 Z-0.1000
N0610 G00 Z5.0000
N0620 Y1.2800
N0630 Z1.0000
N0640 G01 Z-0.1000
N0650 G00 Z5.0000
N0660 Y7.6100
N0670 Z1.0000
N0680 G01 Z-0.1000
N0690 G00 Z5.0000
N0700 Y10.1700
N0710 Z1.0000
N0720 G01 Z-0.1000
N0730 G00 Z5.0000
N0740 Y12.6900
N0750 Z1.0000
N0760 G01 Z-0.1000
N0770 G00 Z5.0000
N0780 Y15.2500
N0790 Z1.0000
N0800 G01 Z-0.1000
N0810 G00 Z5.0000
N0820 X31.6596 Y16.9600
N0830 Z1.0000
N0840 G01 Z-0.1000
N0850 G00 Z5.0000
N0860 X20.3396 Y26.6700
N0870 Z1.0000
N0880 G01 Z-0.1000
N0890 G00 Z5.0000
N0900 X17.7996
N0910 Z1.0000
N0920 G01 Z-0.1000
N0930 G00 Z5.0000
N0940 X15.2596
N0950 Z1.0000
N0960 G01 Z-0.1000
N0970 G00 Z5.0000
N0980 X12.7196
N0990 Z1.0000
N1000 G01 Z-0.1000
N1010 G00 Z5.0000
N1020 X3.8296
N1030 Z1.0000
N1040 G01 Z-0.1000
N1050 G00 Z5.0000
N1060 X1.2896
N1070 Z1.0000
N1080 G01 Z-0.1000
N1090 G00 Z5.0000
N1100 X-1.2504
N1110 Z1.0000
N1120 G01 Z-0.1000
N1130 G00 Z5.0000
N1140 X-14.9754 Y15.2500
N1150 Z1.0000
N1160 G01 Z-0.1000
N1170 G00 Z5.0000
N1180 Y12.7100
N1190 Z1.0000
N1200 G01 Z-0.1000
N1210 G00 Z5.0000
N1220 Y10.1500
N1230 Z1.0000
N1240 G01 Z-0.1000
N1250 G00 Z5.0000
N1260 Y7.6100
N1270 Z1.0000
N1280 G01 Z-0.1000
N1290 G00 Z5.0000
N1300 Y1.2800
N1310 Z1.0000
N1320 G01 Z-0.1000
N1330 G00 Z5.0000
N1340 Y-1.2600
N1350 Z1.0000
N1360 G01 Z-0.1000
N1370 G00 Z5.0000
N1380 Y-3.8200
N1390 Z1.0000
N1400 G01 Z-0.1000
N1410 G00 Z5.0000
N1420 Y-6.3600
N1430 Z1.0000
N1440 G01 Z-0.1000
N1450 G00 Z5.0000
N1460 Y-12.6900
N1470 Z1.0000
N1480 G01 Z-0.1000
N1490 G00 Z5.0000
N1500 Y-15.2300
N1510 Z1.0000
N1520 G01 Z-0.1000
N1530 G00 Z5.0000
N1540 Y-17.7900
N1550 Z1.0000
N1560 G01 Z-0.1000
N1570 G00 Z5.0000
N1580 Y-20.3300
N1590 Z1.0000
N1600 G01 Z-0.1000
N1610 G00 Z5.0000
N1620 X-21.5704 Y-0.6350
N1630 Z1.0000
N1640 G01 Z-0.1000
N1650 G00 Z5.0000
N1660 Y1.9050
N1670 Z1.0000
N1680 G01 Z-0.1000
N1690 G00 Z5.0000
N1700 Y4.4450
N1710 Z1.0000
N1720 G01 Z-0.1000
N1730 G00 Z5.0000
N1740 Y6.9850
N1750 Z1.0000
N1760 G01 Z-0.1000
N1770 G00 Z5.0000
N1780 Y9.5250
N1790 Z1.0000
N1800 G01 Z-0.1000
N1810 G00 Z5.0000
N1820 Y12.0650
N1830 Z1.0000
N1840 G01 Z-0.1000
N1850 G00 Z5.0000
N1860 Y14.6050
N1870 Z1.0000
N1880 G01 Z-0.1000
N1890 G00 Z5.0000
N1900 Y17.1450
N1910 Z1.0000
N1920 G01 Z-0.1000
N1930 G00 Z5.0000
N1940 X-29.6554 Y27.3750
N1950 Z1.0000
N1960 G01 Z-0.1000
N1970 G00 Z5.0000
N1980 X-29.1904 Y-15.2400
N1990 Z1.0000
N2000 G01 Z-0.1000
N2010 G00 Z5.0000
N2020 Y-17.7800
N2030 Z1.0000
N2040 G01 Z-0.1000
N2050 G00 Z5.0000
N2060 X-29.6554 Y-30.6250
N2070 Z1.0000
N2080 G01 Z-0.1000
N2090 G00 Z5.0000
N2100 (Operation: Drill, Tool 1, T34: Drill, 1 mm diameter, 1.7 mm Deep)
N2110 M09 (Coolant off)
N2120 M05
N2130 M6 T34  (Drill, 1 mm diameter)
N2140 G43 H34
N2150 G00 X-29.6554 Y-30.6250 Z5.0000
N2160 M03 S10000
N2170 M08 (Flood coolant on)
N2180 X49.6596 Y-22.0400
N2190 Z1.0000
N2200 G01 Z-1.7000 F500
N2210 G00 Z5.0000
N2220 Y16.9600
N2230 Z1.0000
N2240 G01 Z-1.7000
N2250 G00 Z5.0000
N2260 X40.3446 Y27.3750
N2270 Z1.0000
N2280 G01 Z-1.7000
N2290 G00 Z5.0000
N2300 Y-30.6250
N2310 Z1.0000
N2320 G01 Z-1.7000
N2330 G00 Z5.0000
N2340 X31.6596 Y-22.0400
N2350 Z1.0000
N2360 G01 Z-1.7000
N2370 G00 Z5.0000
N2380 X26.4446 Y-20.3300
N2390 Z1.0000
N2400 G01 Z-1.7000
N2410 G00 Z5.0000
N2420 Y-17.7700
N2430 Z1.0000
N2440 G01 Z-1.7000
N2450 G00 Z5.0000
N2460 Y-15.2500
N2470 Z1.0000
N2480 G01 Z-1.7000
N2490 G00 Z5.0000
N2500 Y-12.6900
N2510 Z1.0000
N2520 G01 Z-1.7000
N2530 G00 Z5.0000
N2540 Y-6.3600
N2550 Z1.0000
N2560 G01 Z-1.7000
N2570 G00 Z5.0000
N2580 Y-3.8000
N2590 Z1.0000
N2600 G01 Z-1.7000
N2610 G00 Z5.0000
N2620 Y-1.2800
N2630 Z1.0000
N2640 G01 Z-1.7000
N2650 G00 Z5.0000
N2660 Y1.2800
N2670 Z1.0000
N2680 G01 Z-1.7000
N2690 G00 Z5.0000
N2700 Y7.6100
N2710 Z1.0000
N2720 G01 Z-1.7000
N2730 G00 Z5.0000
N2740 Y10.1700
N2750 Z1.0000
N2760 G01 Z-1.7000
N2770 G00 Z5.0000
N2780 Y12.6900
N2790 Z1.0000
N2800 G01 Z-1.7000
N2810 G00 Z5.0000
N2820 Y15.2500
N2830 Z1.0000
N2840 G01 Z-1.7000
N2850 G00 Z5.0000
N2860 X31.6596 Y16.9600
N2870 Z1.0000
N2880 G01 Z-1.7000
N2890 G00 Z5.0000
N2900 X20.3396 Y26.6700
N2910 Z1.0000
N2920 G01 Z-1.7000
N2930 G00 Z5.0000
N2940 X17.7996
N2950 Z1.0000
N2960 G01 Z-1.7000
N2970 G00 Z5.0000
N2980 X15.2596
N2990 Z1.0000
N3000 G01 Z-1.7000
N3010 G00 Z5.0000
N3020 X12.7196
N3030 Z1.0000
N3040 G01 Z-1.7000
N3050 G00 Z5.0000
N3060 X3.8296
N3070 Z1.0000
N3080 G01 Z-1.7000
N3090 G00 Z5.0000
N3100 X1.2896
N3110 Z1.0000
N3120 G01 Z-1.7000
N3130 G00 Z5.0000
N3140 X-1.2504
N3150 Z1.0000
N3160 G01 Z-1.7000
N3170 G00 Z5.0000
N3180 X-14.9754 Y15.2500
N3190 Z1.0000
N3200 G01 Z-1.7000
N3210 G00 Z5.0000
N3220 Y12.7100
N3230 Z1.0000
N3240 G01 Z-1.7000
N3250 G00 Z5.0000
N3260 Y10.1500
N3270 Z1.0000
N3280 G01 Z-1.7000
N3290 G00 Z5.0000
N3300 Y7.6100
N3310 Z1.0000
N3320 G01 Z-1.7000
N3330 G00 Z5.0000
N3340 Y1.2800
N3350 Z1.0000
N3360 G01 Z-1.7000
N3370 G00 Z5.0000
N3380 Y-1.2600
N3390 Z1.0000
N3400 G01 Z-1.7000
N3410 G00 Z5.0000
N3420 Y-3.8200
N3430 Z1.0000
N3440 G01 Z-1.7000
N3450 G00 Z5.0000
N3460 Y-6.3600
N3470 Z1.0000
N3480 G01 Z-1.7000
N3490 G00 Z5.0000
N3500 Y-12.6900
N3510 Z1.0000
N3520 G01 Z-1.7000
N3530 G00 Z5.0000
N3540 Y-15.2300
N3550 Z1.0000
N3560 G01 Z-1.7000
N3570 G00 Z5.0000
N3580 Y-17.7900
N3590 Z1.0000
N3600 G01 Z-1.7000
N3610 G00 Z5.0000
N3620 Y-20.3300
N3630 Z1.0000
N3640 G01 Z-1.7000
N3650 G00 Z5.0000
N3660 X-21.5704 Y-0.6350
N3670 Z1.0000
N3680 G01 Z-1.7000
N3690 G00 Z5.0000
N3700 Y1.9050
N3710 Z1.0000
N3720 G01 Z-1.7000
N3730 G00 Z5.0000
N3740 Y4.4450
N3750 Z1.0000
N3760 G01 Z-1.7000
N3770 G00 Z5.0000
N3780 Y6.9850
N3790 Z1.0000
N3800 G01 Z-1.7000
N3810 G00 Z5.0000
N3820 Y9.5250
N3830 Z1.0000
N3840 G01 Z-1.7000
N3850 G00 Z5.0000
N3860 Y12.0650
N3870 Z1.0000
N3880 G01 Z-1.7000
N3890 G00 Z5.0000
N3900 Y14.6050
N3910 Z1.0000
N3920 G01 Z-1.7000
N3930 G00 Z5.0000
N3940 Y17.1450
N3950 Z1.0000
N3960 G01 Z-1.7000
N3970 G00 Z5.0000
N3980 X-29.6554 Y27.3750
N3990 Z1.0000
N4000 G01 Z-1.7000
N4010 G00 Z5.0000
N4020 X-29.1904 Y-15.2400
N4030 Z1.0000
N4040 G01 Z-1.7000
N4050 G00 Z5.0000
N4060 Y-17.7800
N4070 Z1.0000
N4080 G01 Z-1.7000
N4090 G00 Z5.0000
N4100 X-29.6554 Y-30.6250
N4110 Z1.0000
N4120 G01 Z-1.7000
N4130 G00 Z5.0000
N4140 (Part: encoder_diff_driver_board_COPPER-BOTTOM)
N4150 (Operation: No Offset, Tool 1 -2.000000 deep, T3: chamfer mill - V cutter, 2 mm diameter, 0.1 mm Deep)
N4160 M09 (Coolant off)
N4170 M05
N4180 M6 T3  (chamfer mill - V cutter, 2 mm diameter)
N4190 G43 H3
N4200 G00 X-29.6554 Y-30.6250 Z5.0000
N4210 M03 S12000
N4220 X-38.2380 Y34.6864
N4230 Z1.0000
N4240 G01 Z-0.1000 F1000
N4250 X-38.2729 Y34.6513 F2000
N4260 X-38.3004 Y34.5500
N4270 X-38.2999 Y-34.5570
N4280 X-38.2712 Y-34.6537
N4290 X-38.1913 Y-34.7269
N4300 X-38.1004 Y-34.7500
N4310 X61.0055 Y-34.7497
N4320 X61.1023 Y-34.7215
N4330 X61.1721 Y-34.6513
N4340 X61.1996 Y-34.5500
N4350 X61.1993 Y34.5559
N4360 X61.1711 Y34.6527
N4370 X61.0905 Y34.7269
N4380 X60.9996 Y34.7500
N4390 X-38.1063 Y34.7497
N4400 X-38.2030 Y34.7215
N4410 X-38.2380 Y34.6864
N4420 G00 Z5.0000
N4430 X-31.5582 Y28.7536
N4440 Z1.0000
N4450 G01 Z-0.1000 F1000
N4460 X-31.3704 Y28.9812 F2000
N4470 X-31.1556 Y29.1835
N4480 X-30.9171 Y29.3572
N4490 X-30.6587 Y29.4997
N4500 X-30.3845 Y29.6087
N4510 X-30.0988 Y29.6825
N4520 X-29.8061 Y29.7199
N4530 X-29.5110 Y29.7203
N4540 X-29.2182 Y29.6837
N4550 X-28.9323 Y29.6107
N4560 X-28.6578 Y29.5024
N4570 X-28.3990 Y29.3606
N4580 X-28.1601 Y29.1875
N4590 X-27.9447 Y28.9858
N4600 X-27.7563 Y28.7587
N4610 X-27.5978 Y28.5097
N4620 X-27.4718 Y28.2429
N4630 X-27.3803 Y27.9624
N4640 X-27.3246 Y27.6726
N4650 X-27.3057 Y27.3781
N4660 X-27.3238 Y27.0836
N4670 X-27.3787 Y26.7937
N4680 X-27.4695 Y26.5129
N4690 X-27.5948 Y26.2458
N4700 X-27.7526 Y25.9964
N4710 X-27.9404 Y25.7688
N4720 X-28.1552 Y25.5665
N4730 X-28.3937 Y25.3928
N4740 X-28.6521 Y25.2503
N4750 X-28.9263 Y25.1413
N4760 X-29.2120 Y25.0675
N4770 X-29.5047 Y25.0301
N4780 X-29.7998 Y25.0297
N4790 X-30.0926 Y25.0663
N4800 X-30.3785 Y25.1393
N4810 X-30.6530 Y25.2476
N4820 X-30.9118 Y25.3894
N4830 X-31.1507 Y25.5625
N4840 X-31.3661 Y25.7642
N4850 X-31.5545 Y25.9913
N4860 X-31.7129 Y26.2403
N4870 X-31.8389 Y26.5071
N4880 X-31.9305 Y26.7876
N4890 X-31.9862 Y27.0774
N4900 X-32.0051 Y27.3719
N4910 X-31.9870 Y27.6664
N4920 X-31.9321 Y27.9563
N4930 X-31.8412 Y28.2371
N4940 X-31.7160 Y28.5042
N4950 X-31.5582 Y28.7536
N4960 G00 Z5.0000
N4970 X-29.3904 Y-13.8965
N4980 Z1.0000
N4990 G01 Z-0.1000 F1000
N5000 Y-14.3965 F2000
N5010 X-29.5733 Y-14.4005
N5020 X-29.8573 Y-14.4798
N5030 X-30.0097 Y-14.5751
N5040 X-30.1439 Y-14.7049
N5050 X-30.2521 Y-14.8746
N5060 X-30.3104 Y-15.0400
N5070 X-30.8158
N5080 X-30.7928 Y-14.9063
N5090 X-30.7201 Y-14.6968
N5100 X-30.6139 Y-14.5020
N5110 X-30.4772 Y-14.3274
N5120 X-30.3135 Y-14.1777
N5130 X-30.1275 Y-14.0569
N5140 X-29.9241 Y-13.9684
N5150 X-29.7089 Y-13.9147
N5160 X-29.3904 Y-13.8965
N5170 G00 Z5.0000
N5180 X-28.9904
N5190 Z1.0000
N5200 G01 Z-0.1000 F1000
N5210 G02 X-28.4567 Y-13.9684 I0.0605 J-1.5673 F2000.0
N5220 G01 X-28.2533 Y-14.0569 F2000
N5230 X-28.0673 Y-14.1777
N5240 X-27.9036 Y-14.3274
N5250 X-27.7668 Y-14.5020
N5260 X-27.6607 Y-14.6968
N5270 X-27.5880 Y-14.9063
N5280 X-27.5650 Y-15.0400
N5290 X-28.0704
N5300 X-28.1287 Y-14.8746
N5310 X-28.2240 Y-14.7222
N5320 X-28.3538 Y-14.5880
N5330 X-28.4913 Y-14.4961
N5340 X-28.7092 Y-14.4164
N5350 X-28.9904 Y-14.3965
N5360 Y-13.8965
N5370 G00 Z5.0000
N5380 X-27.5650 Y-15.4400
N5390 Z1.0000
N5400 G01 Z-0.1000 F1000
N5410 X-27.5860 Y-15.5657 F2000
N5420 X-27.6574 Y-15.7757
N5430 X-27.7623 Y-15.9711
N5440 X-27.8980 Y-16.1466
N5450 X-28.0608 Y-16.2973
N5460 X-28.1740 Y-16.3721
N5470 X-28.2463 Y-16.4579
N5480 X-28.2643 Y-16.5415
N5490 X-28.2349 Y-16.6444
N5500 X-28.1626 Y-16.7137
N5510 X-28.0959 Y-16.7370
N5520 G02 X-27.8454 Y-16.9944 I-0.0191 J-0.2692 F2000.0
N5530 G01 Y-18.5656 F2000
N5540 X-27.8637 Y-18.7473
N5550 X-22.6429 Y-26.0862
N5560 X-22.5750 Y-26.1447
N5570 X-22.4909 Y-26.1688
N5580 X34.8820 Y-26.1699
N5590 X34.9725 Y-26.1467
N5600 X35.0437 Y-26.0821
N5610 X35.0778 Y-25.9832
N5620 X35.0796 Y-24.1365
N5630 X35.0962 Y-24.0072
N5640 X35.1445 Y-23.8862
N5650 X35.2224 Y-23.7819
N5660 X35.3246 Y-23.7013
N5670 X35.4443 Y-23.6500
N5680 X47.3868 Y-23.6300
N5690 X47.5037 Y-23.5901
N5700 X47.8436 Y-23.3030
N5710 X47.8982 Y-23.2215
N5720 X47.9096 Y-20.5479
N5730 X47.9212 Y-20.4707
N5740 X47.9543 Y-20.4004
N5750 X48.0075 Y-20.3438
N5760 X48.0756 Y-20.3064
N5770 X50.4788 Y-20.2900
N5780 X50.5780 Y-20.2636
N5790 X52.8120 Y-17.6523
N5800 X52.8565 Y-17.5401
N5810 X52.8596 Y20.6651
N5820 X52.8354 Y20.7602
N5830 X51.9394 Y21.6680
N5840 X51.8590 Y21.7156
N5850 X31.7762 Y21.7250
N5860 X31.5258 Y21.7899
N5870 X26.3286 Y27.5935
N5880 X24.6361 Y29.2864
N5890 X24.5505 Y29.3370
N5900 X13.4196 Y29.3450
N5910 X13.3279 Y29.3222
N5920 X13.2513 Y29.2525
N5930 X13.2214 Y29.1582
N5940 X13.2196 Y28.2138
N5950 X13.2434 Y28.1210
N5960 X13.3093 Y28.0492
N5970 X13.4064 Y28.0168
N5980 X13.5130 Y28.0144
N5990 G02 X13.7631 Y27.7571 I-0.0194 J-0.2690 F2000.0
N6000 G01 Y25.5829 F2000
N6010 X13.7625 Y25.5751
N6020 G02 X13.5053 Y25.3250 I-0.2694 J0.0197 F2000.0
N6030 G01 X11.9340 F2000
N6040 X11.9262 Y25.3256
N6050 G02 X11.6761 Y25.5829 I0.0194 J0.2690 F2000.0
N6060 G01 Y27.7571 F2000
N6070 X11.6767 Y27.7649
N6080 G02 X11.9340 Y28.0150 I0.2690 J-0.0194 F2000.0
N6090 G01 X12.0196 F2000
N6100 X12.1202 Y28.0422
N6110 X12.1908 Y28.1116
N6120 X12.2192 Y28.2089
N6130 X12.2196 Y29.8385
N6140 X12.2362 Y29.9678
N6150 X12.2845 Y30.0888
N6160 X12.3624 Y30.1931
N6170 X12.4646 Y30.2737
N6180 X12.5843 Y30.3250
N6190 X24.7781 Y30.3450
N6200 X24.9199 Y30.3251
N6210 X25.0396 Y30.2737
N6220 X27.0385 Y28.2982
N6230 X31.9345 Y22.7921
N6240 X32.0205 Y22.7353
N6250 X52.0831 Y22.7250
N6260 X52.2249 Y22.7051
N6270 X52.3446 Y22.6537
N6280 X53.7055 Y21.3162
N6290 X53.7883 Y21.2100
N6300 X53.8397 Y21.0903
N6310 X53.8596 Y-17.7735
N6320 X53.8131 Y-17.9877
N6330 X51.4572 Y-20.7918
N6340 X51.4104 Y-20.9125
N6350 X51.4096 Y-23.5321
N6360 X51.3980 Y-23.6093
N6370 X51.3649 Y-23.6796
N6380 X51.3117 Y-23.7362
N6390 X51.2436 Y-23.7736
N6400 X48.8795 Y-23.7900
N6410 X48.7492 Y-23.8383
N6420 X47.9739 Y-24.5063
N6430 X47.7799 Y-24.6100
N6440 X36.2796 Y-24.6300
N6450 X36.1867 Y-24.6533
N6460 X36.1146 Y-24.7187
N6470 X36.0814 Y-24.8168
N6480 X36.0796 Y-26.6635
N6490 X36.0630 Y-26.7928
N6500 X36.0147 Y-26.9138
N6510 X35.9368 Y-27.0181
N6520 X35.8346 Y-27.0987
N6530 X35.7149 Y-27.1500
N6540 X-22.8338 Y-27.1700
N6550 X-23.0410 Y-27.1266
N6560 X-23.1624 Y-27.0509
N6570 X-28.9997 Y-18.9073
N6580 X-29.0828 Y-18.8402
N6590 X-30.2775 Y-18.8235
N6600 X-30.3547 Y-18.8119
N6610 X-30.4250 Y-18.7788
N6620 X-30.4816 Y-18.7256
N6630 X-30.5190 Y-18.6575
N6640 X-30.5354 Y-16.9944
N6650 X-30.5238 Y-16.9172
N6660 X-30.4907 Y-16.8469
N6670 X-30.4375 Y-16.7903
N6680 X-30.2011 Y-16.7018
N6690 X-30.1358 Y-16.6236
N6700 X-30.1179 Y-16.5135
N6710 X-30.1555 Y-16.4207
N6720 X-30.4772 Y-16.1526
N6730 X-30.6139 Y-15.9780
N6740 X-30.7201 Y-15.7832
N6750 X-30.7928 Y-15.5737
N6760 X-30.8158 Y-15.4400
N6770 X-30.3104
N6780 X-30.2521 Y-15.6054
N6790 X-30.1568 Y-15.7578
N6800 X-30.0270 Y-15.8920
N6810 X-29.8906 Y-15.9833
N6820 X-29.6715 Y-16.0636
N6830 X-28.8889 Y-16.0835
N6840 X-28.5235 Y-16.0002
N6850 X-28.3711 Y-15.9049
N6860 X-28.2369 Y-15.7751
N6870 X-28.1287 Y-15.6054
N6880 X-28.0704 Y-15.4400
N6890 X-27.5650
N6900 G00 Z5.0000
N6910 X-28.2191 Y-18.6235
N6920 Z1.0000
N6930 G01 Z-0.1000 F1000
N6940 X-28.0893 Y-18.6231 F2000
N6950 G03 X-28.0456 Y-18.5784 I-0.0063 J0.0499 F2000.0
N6960 G01 X-28.0464 Y-16.9767 F2000
N6970 G03 X-28.0954 Y-16.9365 I-0.0490 J-0.0098 F2000.0
N6980 G01 X-30.2939 Y-16.9372 F2000
N6990 G03 X-30.3354 Y-16.9853 I0.0090 J-0.0497 F2000.0
N7000 G01 X-30.3342 Y-18.5845 F2000
N7010 G03 X-30.2854 Y-18.6235 I0.0490 J0.0112 F2000.0
N7020 G01 X-28.9567 F2000
N7030 X-23.0732 Y-26.8594
N7040 G03 X-22.8404 Y-26.9701 I0.2347 J0.1935 F2000.0
N7050 G01 X35.6090 Y-26.9687 F2000
N7060 G03 X35.8797 Y-26.6700 I-0.0293 J0.2986 F2000.0
N7070 G01 Y-24.4301 F2000
N7080 X47.6740 Y-24.4287
N7090 G03 X47.8340 Y-24.3628 I-0.0316 J0.3040 F2000.0
N7100 G01 X48.7051 Y-23.5900 F2000
N7110 X51.1657 Y-23.5896
N7120 G03 X51.2096 Y-23.5400 I-0.0060 J0.0495 F2000.0
N7130 G01 Y-20.7745 F2000
N7140 X53.6063 Y-17.9510
N7150 G03 X53.6596 Y-17.7875 I-0.2509 J0.1722 F2000.0
N7160 G01 X53.6583 Y20.9844 F2000
N7170 G03 X53.5718 Y21.1672 I-0.2997 J-0.0300 F2000.0
N7180 G01 X52.2800 Y22.4570 F2000
N7190 G03 X52.0896 Y22.5251 I-0.1906 J-0.2326 F2000.0
N7200 G01 X31.9044 F2000
N7210 X26.9018 Y28.1522
N7220 X24.9750 Y30.0770
N7230 G03 X24.7846 Y30.1451 I-0.1905 J-0.2323 F2000.0
N7240 G01 X12.6902 Y30.1437 F2000
N7250 G03 X12.4195 Y29.8450 I0.0296 J-0.2988 F2000.0
N7260 G01 Y27.8150 F2000
N7270 X11.9140 Y27.8135
N7280 G03 X11.8761 Y27.7650 I0.0119 J-0.0484 F2000.0
N7290 G01 X11.8766 Y25.5677 F2000
N7300 G03 X11.9261 Y25.5250 I0.0497 J0.0076 F2000.0
N7310 G01 X13.5204 Y25.5255 F2000
N7320 G03 X13.5631 Y25.5738 I-0.0075 J0.0497 F2000.0
N7330 G01 X13.5627 Y27.7711 F2000
N7340 G03 X13.5168 Y27.8149 I-0.0495 J-0.0060 F2000.0
N7350 G01 X13.0197 Y27.8150 F2000
N7360 Y29.5449
N7370 X24.6603
N7380 X26.4711 Y27.7340
N7390 X31.5453 Y22.0256
N7400 G03 X31.7696 Y21.9249 I0.2254 J0.2018 F2000.0
N7410 G01 X51.9653 F2000
N7420 X53.0595 Y20.8307
N7430 Y-17.6697
N7440 X50.6637 Y-20.4900
N7450 X48.1499 Y-20.4910
N7460 G03 X48.1096 Y-20.5400 I0.0097 J-0.0491 F2000.0
N7470 G01 Y-23.3393 F2000
N7480 X47.5341 Y-23.8299
N7490 X35.5502 Y-23.8313
N7500 G03 X35.2795 Y-24.1300 I0.0295 J-0.2987 F2000.0
N7510 G01 Y-26.3699 F2000
N7520 X-22.6859
N7530 X-28.2191 Y-18.6235
N7540 G00 Z5.0000
N7550 X-29.5110 Y-28.2797
N7560 Z1.0000
N7570 G01 Z-0.1000 F1000
N7580 X-29.2182 Y-28.3163 F2000
N7590 X-28.9323 Y-28.3893
N7600 X-28.6578 Y-28.4976
N7610 X-28.3990 Y-28.6394
N7620 X-28.1601 Y-28.8125
N7630 X-27.9447 Y-29.0142
N7640 X-27.7563 Y-29.2413
N7650 X-27.5978 Y-29.4903
N7660 X-27.4718 Y-29.7571
N7670 X-27.3803 Y-30.0376
N7680 X-27.3246 Y-30.3274
N7690 X-27.3057 Y-30.6219
N7700 X-27.3238 Y-30.9164
N7710 X-27.3787 Y-31.2063
N7720 X-27.4695 Y-31.4871
N7730 X-27.5948 Y-31.7542
N7740 X-27.7526 Y-32.0036
N7750 X-27.9404 Y-32.2312
N7760 X-28.1552 Y-32.4335
N7770 X-28.3937 Y-32.6072
N7780 X-28.6521 Y-32.7497
N7790 X-28.9263 Y-32.8587
N7800 X-29.2120 Y-32.9325
N7810 X-29.5047 Y-32.9699
N7820 X-29.7998 Y-32.9703
N7830 X-30.0926 Y-32.9337
N7840 X-30.3785 Y-32.8607
N7850 X-30.6530 Y-32.7524
N7860 X-30.9118 Y-32.6106
N7870 X-31.1507 Y-32.4375
N7880 X-31.3661 Y-32.2358
N7890 X-31.5545 Y-32.0087
N7900 X-31.7129 Y-31.7597
N7910 X-31.8389 Y-31.4929
N7920 X-31.9305 Y-31.2124
N7930 X-31.9862 Y-30.9226
N7940 X-32.0051 Y-30.6281
N7950 X-31.9870 Y-30.3336
N7960 X-31.9321 Y-30.0437
N7970 X-31.8412 Y-29.7629
N7980 X-31.7160 Y-29.4958
N7990 X-31.5582 Y-29.2464
N8000 X-31.3704 Y-29.0188
N8010 X-31.1556 Y-28.8165
N8020 X-30.9171 Y-28.6428
N8030 X-30.6587 Y-28.5003
N8040 X-30.3845 Y-28.3913
N8050 X-30.0988 Y-28.3175
N8060 X-29.8061 Y-28.2801
N8070 X-29.5110 Y-28.2797
N8080 G00 Z5.0000
N8090 X-17.0534 Y-18.2870
N8100 Z1.0000
N8110 G01 Z-0.1000 F1000
N8120 X-17.7538 Y-18.2800 F2000
N8130 X-17.9184 Y-18.2531
N8140 X-18.0355 Y-18.1961
N8150 X-24.4760 Y-11.1362
N8160 X-24.5391 Y-11.0500
N8170 X-24.6036 Y-10.8433
N8180 X-24.6104 Y1.8985
N8190 X-24.5938 Y2.0278
N8200 X-24.5455 Y2.1488
N8210 X-24.4676 Y2.2531
N8220 X-24.3654 Y2.3337
N8230 X-24.2457 Y2.3850
N8240 X-22.8956 Y2.4050
N8250 X-22.8062 Y2.4270
N8260 X-22.5711 Y2.6788
N8270 X-22.4170 Y2.7941
N8280 X-22.2443 Y2.8791
N8290 X-22.0590 Y2.9309
N8300 X-21.2735 Y2.9485
N8310 X-21.0728 Y2.9293
N8320 X-20.8879 Y2.8758
N8330 X-20.7160 Y2.7892
N8340 X-20.5629 Y2.6726
N8350 X-20.4339 Y2.5298
N8360 X-20.3333 Y2.3657
N8370 X-20.2646 Y2.1860
N8380 X-20.2301 Y1.9967
N8390 X-20.2309 Y1.8042
N8400 X-20.2671 Y1.6152
N8410 X-20.3374 Y1.4360
N8420 X-20.4394 Y1.2729
N8430 X-20.5697 Y1.1312
N8440 X-20.7238 Y1.0159
N8450 X-20.8964 Y0.9309
N8460 X-21.0818 Y0.8791
N8470 X-21.8673 Y0.8615
N8480 X-22.0680 Y0.8807
N8490 X-22.2529 Y0.9342
N8500 X-22.4248 Y1.0208
N8510 X-22.5779 Y1.1374
N8520 X-22.8002 Y1.3808
N8530 X-22.8832 Y1.4035
N8540 X-23.4116 Y1.4050
N8550 X-23.5033 Y1.3817
N8560 X-23.5745 Y1.3171
N8570 X-23.5873 Y1.2959
N8580 X-23.6095 Y1.2147
N8590 X-23.6104 Y-10.5244
N8600 X-23.5636 Y-10.6521
N8610 X-17.5987 Y-17.2145
N8620 X-17.5122 Y-17.2703
N8630 X-16.4051 Y-17.2798
N8640 X-16.3216 Y-17.2583
N8650 X-16.0709 Y-17.0396
N8660 X-15.9150 Y-16.9573
N8670 X-15.7461 Y-16.9071
N8680 X-14.3803 Y-16.8900
N8690 X-14.1952 Y-16.9090
N8700 X-14.0267 Y-16.9610
N8710 X-13.8717 Y-17.0450
N8720 X-13.7361 Y-17.1576
N8730 X-13.6250 Y-17.2944
N8740 X-13.5427 Y-17.4504
N8750 X-13.4924 Y-17.6193
N8760 X-13.4761 Y-17.7949
N8770 X-13.4943 Y-17.9702
N8780 X-13.5464 Y-18.1386
N8790 X-13.6304 Y-18.2937
N8800 X-13.7430 Y-18.4293
N8810 X-13.8798 Y-18.5404
N8820 X-14.0358 Y-18.6227
N8830 X-14.2047 Y-18.6729
N8840 X-15.5705 Y-18.6900
N8850 X-15.7556 Y-18.6710
N8860 X-15.9240 Y-18.6190
N8870 X-16.0791 Y-18.5350
N8880 X-16.2147 Y-18.4224
N8890 X-16.2773 Y-18.3472
N8900 X-16.3529 Y-18.2939
N8910 X-17.0534 Y-18.2870
N8920 G00 Z5.0000
N8930 X-16.7577 Y-20.1300
N8940 Z1.0000
N8950 G01 Z-0.1000 F1000
N8960 X-16.7010 Y-19.9157 F2000
N8970 X-16.6120 Y-19.7265
N8980 X-16.4914 Y-19.5557
N8990 X-16.3430 Y-19.4084
N9000 X-16.1714 Y-19.2891
N9010 X-15.9815 Y-19.2014
N9020 X-15.7794 Y-19.1480
N9030 X-15.1754 Y-19.1300
N9040 Y-19.6300
N9050 X-15.5754
N9060 X-15.7108 Y-19.6432
N9070 X-15.9663 Y-19.7494
N9080 X-16.1461 Y-19.9257
N9090 X-16.2221 Y-20.0621
N9100 X-16.2445 Y-20.1245
N9110 X-16.7577 Y-20.1300
N9120 G00 Z5.0000
N9130 X-16.7558 Y-20.5426
N9140 Z1.0000
N9150 G01 Z-0.1000 F1000
N9160 X-16.2461 Y-20.5300 F2000
N9170 X-16.1574 Y-20.7189
N9180 X-16.0712 Y-20.8241
N9190 X-15.8455 Y-20.9757
N9200 X-15.7339 Y-21.0111
N9210 X-15.1754 Y-21.0300
N9220 Y-21.5300
N9230 X-15.5710
N9240 X-15.7794 Y-21.5120
N9250 X-15.9815 Y-21.4586
N9260 X-16.1714 Y-21.3709
N9270 X-16.3430 Y-21.2516
N9280 X-16.4914 Y-21.1043
N9290 X-16.6120 Y-20.9335
N9300 X-16.7010 Y-20.7443
N9310 X-16.7558 Y-20.5426
N9320 G00 Z5.0000
N9330 X-16.2117 Y-18.0801
N9340 Z1.0000
N9350 G01 Z-0.1000 F1000
N9360 G03 X-15.5754 Y-18.4900 I0.6321 J0.2824 F2000.0
N9370 G01 X-14.3092 Y-18.4868 F2000
N9380 G03 X-14.3742 Y-17.0900 I-0.0664 J0.6968 F2000.0
N9390 G01 X-15.6440 Y-17.0934 F2000
N9400 G03 X-16.2022 Y-17.4799 I0.0583 J-0.6805 F2000.0
N9410 G01 X-17.6276 F2000
N9420 X-23.8103 Y-10.6790
N9430 Y1.6049
N9440 X-22.6594
N9450 G03 X-21.8719 Y1.0615 I0.7776 J0.2845 F2000.0
N9460 G01 X-21.1862 Y1.0656 F2000
N9470 G03 X-21.2689 Y2.7485 I-0.0828 J0.8394 F2000.0
N9480 G01 X-21.9570 Y2.7441 F2000
N9490 G03 X-22.6507 Y2.2289 I0.0844 J-0.8383 F2000.0
N9500 G01 X-22.6594 Y2.2051 F2000
N9510 X-24.1398 Y2.2037
N9520 G03 X-24.4105 Y1.9050 I0.0295 J-0.2987 F2000.0
N9530 G01 X-24.4101 Y-10.8102 F2000
N9540 G03 X-24.3325 Y-10.9969 I0.3032 J0.0165 F2000.0
N9550 G01 X-17.9726 Y-17.9922 F2000
N9560 G03 X-17.7604 Y-18.0801 I0.2128 J0.2137 F2000.0
N9570 G01 X-16.2117 F2000
N9580 G00 Z5.0000
N9590 X-17.0457 Y-15.7468
N9600 Z1.0000
N9610 G01 Z-0.1000 F1000
N9620 X-17.7538 Y-15.7400 F2000
N9630 X-17.9321 Y-15.7083
N9640 X-18.0227 Y-15.6644
N9650 X-18.1085 Y-15.5972
N9660 X-21.9458 Y-11.1254
N9670 X-21.9991 Y-11.0500
N9680 X-22.0636 Y-10.8475
N9690 X-22.0704 Y-1.8084
N9700 X-22.0952 Y-1.7133
N9710 X-22.1995 Y-1.6253
N9720 X-22.4248 Y-1.5192
N9730 X-22.5779 Y-1.4026
N9740 X-22.7069 Y-1.2598
N9750 X-22.8075 Y-1.0957
N9760 X-22.8762 Y-0.9160
N9770 X-22.9107 Y-0.7267
N9780 X-22.9099 Y-0.5342
N9790 X-22.8737 Y-0.3452
N9800 X-22.8034 Y-0.1660
N9810 X-22.7013 Y-0.0029
N9820 X-22.5711 Y0.1388
N9830 X-22.4170 Y0.2541
N9840 X-22.2443 Y0.3391
N9850 X-22.0590 Y0.3909
N9860 X-21.2735 Y0.4085
N9870 X-21.0818 Y0.3909
N9880 X-20.8964 Y0.3391
N9890 X-20.7238 Y0.2541
N9900 X-20.5697 Y0.1388
N9910 X-20.4394 Y-0.0029
N9920 X-20.3374 Y-0.1660
N9930 X-20.2671 Y-0.3452
N9940 X-20.2309 Y-0.5342
N9950 X-20.2301 Y-0.7267
N9960 X-20.2646 Y-0.9160
N9970 X-20.3333 Y-1.0957
N9980 X-20.4339 Y-1.2598
N9990 X-20.5629 Y-1.4026
N10000 X-20.7160 Y-1.5192
N10010 X-21.0030 Y-1.6616
N10020 X-21.0233 Y-1.6845
N10030 X-21.0692 Y-1.7988
N10040 X-21.0704 Y-10.5361
N10050 X-21.0274 Y-10.6590
N10060 X-17.5903 Y-14.6702
N10070 X-17.5057 Y-14.7283
N10080 X-16.4262 Y-14.7400
N10090 X-16.3380 Y-14.7183
N10100 X-16.0709 Y-14.4796
N10110 X-15.9150 Y-14.3973
N10120 X-15.7461 Y-14.3471
N10130 X-14.3754 Y-14.3302
N10140 X-14.1952 Y-14.3490
N10150 X-14.0267 Y-14.4010
N10160 X-13.8717 Y-14.4850
N10170 X-13.7361 Y-14.5976
N10180 X-13.6250 Y-14.7344
N10190 X-13.5427 Y-14.8904
N10200 X-13.4924 Y-15.0593
N10210 X-13.4761 Y-15.2349
N10220 X-13.4943 Y-15.4102
N10230 X-13.5464 Y-15.5786
N10240 X-13.6304 Y-15.7337
N10250 X-13.7430 Y-15.8693
N10260 X-13.8798 Y-15.9804
N10270 X-14.0358 Y-16.0627
N10280 X-14.2047 Y-16.1129
N10290 X-15.5754 Y-16.1298
N10300 X-15.7556 Y-16.1110
N10310 X-15.9240 Y-16.0590
N10320 X-16.0791 Y-15.9750
N10330 X-16.3376 Y-15.7535
N10340 X-17.0457 Y-15.7468
N10350 G00 Z5.0000
N10360 X-16.9819 Y-15.5401
N10370 Z1.0000
N10380 G01 Z-0.1000 F1000
N10390 X-16.2022 F2000
N10400 G03 X-15.5754 Y-15.9300 I0.6184 J0.2954 F2000.0
N10410 G01 X-14.3092 Y-15.9268 F2000
N10420 G03 X-14.3742 Y-14.5300 I-0.0664 J0.6968 F2000.0
N10430 G01 X-15.6440 Y-14.5334 F2000
N10440 G03 X-16.2117 Y-14.9399 I0.0634 J-0.6882 F2000.0
N10450 G01 X-17.6224 F2000
N10460 X-21.2703 Y-10.6840
N10470 Y-1.4785
N10480 G03 X-21.2689 Y0.2085 I0.0013 J0.8435 F2000.0
N10490 G01 X-21.9558 Y0.2043 F2000
N10500 G03 X-22.7142 Y-0.6770 I0.0841 J-0.8393 F2000.0
N10510 X-21.8705 Y-1.4785 I0.8432 J0.0427
N10520 G01 X-21.8579 Y-10.8809 F2000
N10530 X-21.7983 Y-10.9903
N10540 X-17.9726 Y-15.4522
N10550 G03 X-17.7616 Y-15.5401 I0.2137 J0.2157 F2000.0
N10560 G01 X-16.9819 F2000
N10570 G00 Z5.0000
N10580 X-14.2047 Y-13.5729
N10590 Z1.0000
N10600 G01 Z-0.1000 F1000
N10610 X-15.5705 Y-13.5900 F2000
N10620 X-15.7556 Y-13.5710
N10630 X-15.9240 Y-13.5190
N10640 X-16.0791 Y-13.4350
N10650 X-16.2147 Y-13.3224
N10660 X-16.3258 Y-13.1856
N10670 X-16.4081 Y-13.0296
N10680 X-16.4583 Y-12.8607
N10690 X-16.4747 Y-12.6851
N10700 X-16.4564 Y-12.5098
N10710 X-16.4044 Y-12.3414
N10720 X-16.3204 Y-12.1863
N10730 X-16.2078 Y-12.0507
N10740 X-16.0709 Y-11.9396
N10750 X-15.9150 Y-11.8573
N10760 X-15.7461 Y-11.8071
N10770 X-14.3803 Y-11.7900
N10780 X-14.1952 Y-11.8090
N10790 X-14.0267 Y-11.8610
N10800 X-13.8717 Y-11.9450
N10810 X-13.7361 Y-12.0576
N10820 X-13.6825 Y-12.1220
N10830 X-13.6015 Y-12.1778
N10840 X-10.8380 Y-12.1899
N10850 X-10.7409 Y-12.1635
N10860 X-10.6699 Y-12.0945
N10870 X-10.6409 Y-11.9973
N10880 X-10.6404 Y0.5800
N10890 X-10.6621 Y0.6682
N10900 X-10.7329 Y0.7483
N10910 X-10.8272 Y0.7782
N10920 X-13.5340 Y0.7800
N10930 X-13.6210 Y0.7583
N10940 X-13.8798 Y0.5296
N10950 X-14.0358 Y0.4473
N10960 X-14.2047 Y0.3971
N10970 X-15.5705 Y0.3800
N10980 X-15.7461 Y0.3971
N10990 X-15.9150 Y0.4473
N11000 X-16.0709 Y0.5296
N11010 X-16.2078 Y0.6407
N11020 X-16.3204 Y0.7763
N11030 X-16.4044 Y0.9314
N11040 X-16.4564 Y1.0998
N11050 X-16.4747 Y1.2751
N11060 X-16.4583 Y1.4507
N11070 X-16.4081 Y1.6196
N11080 X-16.3258 Y1.7756
N11090 X-16.2147 Y1.9124
N11100 X-16.0791 Y2.0250
N11110 X-15.9240 Y2.1090
N11120 X-15.7556 Y2.1610
N11130 X-14.3803 Y2.1800
N11140 X-14.1952 Y2.1610
N11150 X-14.0267 Y2.1090
N11160 X-13.8717 Y2.0250
N11170 X-13.7361 Y1.9124
N11180 X-13.6825 Y1.8480
N11190 X-13.6026 Y1.7926
N11200 X-10.8369 Y1.7801
N11210 X-10.7510 Y1.8020
N11220 X-10.6714 Y1.8735
N11230 X-10.6413 Y1.9703
N11240 X-10.6404 Y14.5500
N11250 X-10.6641 Y14.6440
N11260 X-10.7339 Y14.7190
N11270 X-10.8284 Y14.7485
N11280 X-13.5351 Y14.7499
N11290 X-13.6210 Y14.7283
N11300 X-13.8798 Y14.4996
N11310 X-14.0358 Y14.4173
N11320 X-14.2047 Y14.3671
N11330 X-15.5705 Y14.3500
N11340 X-15.7556 Y14.3690
N11350 X-15.9240 Y14.4210
N11360 X-16.0791 Y14.5050
N11370 X-16.2147 Y14.6176
N11380 X-16.3258 Y14.7544
N11390 X-16.4081 Y14.9104
N11400 X-16.4583 Y15.0793
N11410 X-16.4747 Y15.2549
N11420 X-16.4564 Y15.4302
N11430 X-16.4044 Y15.5986
N11440 X-16.3204 Y15.7537
N11450 X-16.2078 Y15.8893
N11460 X-16.0709 Y16.0004
N11470 X-15.9150 Y16.0827
N11480 X-15.7461 Y16.1329
N11490 X-14.3803 Y16.1500
N11500 X-14.1952 Y16.1310
N11510 X-14.0267 Y16.0790
N11520 X-13.8717 Y15.9950
N11530 X-13.7361 Y15.8824
N11540 X-13.6825 Y15.8180
N11550 X-13.6015 Y15.7622
N11560 X-10.8392 Y15.7500
N11570 X-10.7475 Y15.7733
N11580 X-10.6763 Y15.8379
N11590 X-10.6631 Y15.8603
N11600 X-10.6409 Y15.9427
N11610 X-10.6404 Y26.6635
N11620 X-10.6238 Y26.7928
N11630 X-10.5755 Y26.9138
N11640 X-10.4976 Y27.0181
N11650 X-10.3954 Y27.0987
N11660 X-10.2757 Y27.1500
N11670 X-2.4203 Y27.1702
N11680 X-2.3344 Y27.1924
N11690 X-2.3114 Y27.2088
N11700 X-2.2334 Y27.3130
N11710 X-2.1346 Y27.5244
N11720 X-2.0180 Y27.6775
N11730 X-1.8752 Y27.8065
N11740 X-1.7111 Y27.9071
N11750 X-1.5314 Y27.9758
N11760 X-1.3420 Y28.0103
N11770 X-1.1496 Y28.0095
N11780 X-0.9606 Y27.9733
N11790 X-0.7814 Y27.9030
N11800 X-0.6183 Y27.8009
N11810 X-0.4766 Y27.6707
N11820 X-0.3613 Y27.5166
N11830 X-0.2763 Y27.3439
N11840 X-0.2244 Y27.1586
N11850 X-0.2071 Y26.3685
N11860 X-0.2244 Y26.1814
N11870 X-0.2763 Y25.9961
N11880 X-0.3613 Y25.8234
N11890 X-0.4766 Y25.6693
N11900 X-0.6183 Y25.5391
N11910 X-0.7814 Y25.4370
N11920 X-0.9606 Y25.3667
N11930 X-1.1496 Y25.3305
N11940 X-1.3420 Y25.3297
N11950 X-1.5314 Y25.3642
N11960 X-1.7111 Y25.4329
N11970 X-1.8752 Y25.5335
N11980 X-2.0180 Y25.6625
N11990 X-2.1346 Y25.8156
N12000 X-2.2770 Y26.1026
N12010 X-2.2944 Y26.1200
N12020 X-2.4142 Y26.1688
N12030 X-9.4416 Y26.1700
N12040 X-9.5298 Y26.1480
N12050 X-9.6094 Y26.0765
N12060 X-9.6397 Y25.9785
N12070 X-9.6404 Y-22.1600
N12080 X-9.6139 Y-22.2595
N12090 X-9.5313 Y-22.3369
N12100 X-9.4465 Y-22.3596
N12110 X27.8946 Y-22.3600
N12120 X27.9886 Y-22.3363
N12130 X28.0596 Y-22.2713
N12140 X28.0941 Y-22.1673
N12150 X28.0946 Y-21.0210
N12160 X28.0704 Y-20.9258
N12170 X28.0059 Y-20.8560
N12180 X27.8999 Y-20.8211
N12190 X27.8059 Y-20.8423
N12200 X27.5402 Y-21.0804
N12210 X27.3842 Y-21.1627
N12220 X27.2153 Y-21.2129
N12230 X25.8495 Y-21.2300
N12240 X25.6644 Y-21.2110
N12250 X25.4960 Y-21.1590
N12260 X25.3409 Y-21.0750
N12270 X25.2053 Y-20.9624
N12280 X25.1509 Y-20.8972
N12290 X25.0764 Y-20.8444
N12300 X1.2962 Y-20.8300
N12310 X1.1668 Y-20.8134
N12320 X1.0459 Y-20.7651
N12330 X0.9415 Y-20.6872
N12340 X0.8609 Y-20.5850
N12350 X0.8096 Y-20.4653
N12360 X0.7896 Y25.3448
N12370 X0.7659 Y25.4388
N12380 X0.5158 Y25.6693
N12390 X0.4005 Y25.8234
N12400 X0.3155 Y25.9961
N12410 X0.2637 Y26.1814
N12420 X0.2461 Y26.9669
N12430 X0.2653 Y27.1676
N12440 X0.3188 Y27.3525
N12450 X0.4054 Y27.5244
N12460 X0.5220 Y27.6775
N12470 X0.6648 Y27.8065
N12480 X0.8289 Y27.9071
N12490 X1.0086 Y27.9758
N12500 X1.1980 Y28.0103
N12510 X1.3904 Y28.0095
N12520 X1.5794 Y27.9733
N12530 X1.7586 Y27.9030
N12540 X1.9217 Y27.8009
N12550 X2.0634 Y27.6707
N12560 X2.1311 Y27.5818
N12570 X2.1980 Y27.5290
N12580 X2.3066 Y27.5087
N12590 X2.3992 Y27.5429
N12600 X2.4624 Y27.6154
N12610 X2.4996 Y27.8818
N12620 X2.5390 Y27.9982
N12630 X2.6034 Y28.1030
N12640 X2.6894 Y28.1908
N12650 X2.7929 Y28.2573
N12660 X2.9085 Y28.2991
N12670 X3.6296 Y28.3150
N12680 Y27.8150
N12690 X3.0337 Y27.8149
N12700 G03 X2.9865 Y27.7711 I0.0022 J-0.0497 F2000.0
N12710 G01 X2.9861 Y25.5750 F2000
N12720 G03 X3.0228 Y25.5268 I0.0499 J-0.0001 F2000.0
N12730 G01 X3.6296 Y25.5250 F2000
N12740 Y25.0250
N12750 X3.0417
N12760 X2.9194 Y25.0385
N12770 X2.8029 Y25.0779
N12780 X2.6981 Y25.1423
N12790 X2.6103 Y25.2283
N12800 X2.5438 Y25.3318
N12810 X2.5021 Y25.4474
N12820 X2.4861 Y25.6336
N12830 X2.4619 Y25.7275
N12840 X2.3774 Y25.8092
N12850 X2.2877 Y25.8324
N12860 X2.2022 Y25.8125
N12870 X1.8191 Y25.4482
N12880 X1.7909 Y25.3560
N12890 X1.7896 Y-19.6300
N12900 X1.8139 Y-19.7252
N12910 X1.8783 Y-19.7950
N12920 X1.9811 Y-19.8293
N12930 X25.0032 Y-19.8300
N12940 X25.0902 Y-19.8083
N12950 X25.3491 Y-19.5796
N12960 X25.5050 Y-19.4973
N12970 X25.6739 Y-19.4471
N12980 X27.0397 Y-19.4300
N12990 X27.2248 Y-19.4490
N13000 X27.3933 Y-19.5010
N13010 X27.5483 Y-19.5850
N13020 X27.6839 Y-19.6976
N13030 X27.7457 Y-19.7718
N13040 X27.8191 Y-19.8241
N13050 X27.9231 Y-19.8369
N13060 X28.0132 Y-19.7996
N13070 X28.0813 Y-19.7106
N13080 X28.0945 Y-18.4575
N13090 X28.0615 Y-18.3526
N13100 X28.0022 Y-18.2928
N13110 X27.9108 Y-18.2629
N13120 X27.8852 Y-18.2625
N13130 X27.8059 Y-18.2823
N13140 X27.5402 Y-18.5204
N13150 X27.3842 Y-18.6027
N13160 X27.2153 Y-18.6529
N13170 X25.8446 Y-18.6698
N13180 X25.6644 Y-18.6510
N13190 X25.4960 Y-18.5990
N13200 X25.3409 Y-18.5150
N13210 X25.2053 Y-18.4024
N13220 X25.0942 Y-18.2656
N13230 X25.0119 Y-18.1096
N13240 X24.9617 Y-17.9407
N13250 X24.9453 Y-17.7651
N13260 X24.9636 Y-17.5898
N13270 X25.0156 Y-17.4214
N13280 X25.0996 Y-17.2663
N13290 X25.2122 Y-17.1307
N13300 X25.3491 Y-17.0196
N13310 X25.5050 Y-16.9373
N13320 X25.6739 Y-16.8871
N13330 X25.7723 Y-16.8767
N13340 X25.8544 Y-16.8459
N13350 X25.9189 Y-16.7746
N13360 X25.9442 Y-16.6852
N13370 X25.9445 Y-16.3373
N13380 X25.9193 Y-16.2435
N13390 X25.8511 Y-16.1718
N13400 X25.4960 Y-16.0790
N13410 X25.3409 Y-15.9950
N13420 X25.2053 Y-15.8824
N13430 X25.0942 Y-15.7456
N13440 X25.0119 Y-15.5896
N13450 X24.9617 Y-15.4207
N13460 X24.9453 Y-15.2451
N13470 X24.9636 Y-15.0698
N13480 X25.0156 Y-14.9014
N13490 X25.0996 Y-14.7463
N13500 X25.2122 Y-14.6107
N13510 X25.3491 Y-14.4996
N13520 X25.5050 Y-14.4173
N13530 X25.6739 Y-14.3671
N13540 X27.0397 Y-14.3500
N13550 X27.2248 Y-14.3690
N13560 X27.3933 Y-14.4210
N13570 X27.5483 Y-14.5050
N13580 X27.6839 Y-14.6176
N13590 X27.7950 Y-14.7544
N13600 X27.8773 Y-14.9104
N13610 X27.9276 Y-15.0793
N13620 X27.9401 Y-15.2016
N13630 X27.9687 Y-15.2791
N13640 X28.0424 Y-15.3493
N13650 X28.1271 Y-15.3738
N13660 X39.3246 Y-15.3750
N13670 X39.4128 Y-15.3533
N13680 X39.4896 Y-15.2863
N13690 X39.5241 Y-15.1823
N13700 X39.5246 Y-3.8750
N13710 X39.5009 Y-3.7810
N13720 X39.4359 Y-3.7100
N13730 X39.3307 Y-3.6754
N13740 X28.1344 Y-3.6751
N13750 X28.0295 Y-3.7082
N13760 X27.9689 Y-3.7685
N13770 X27.9257 Y-3.9802
N13780 X27.8736 Y-4.1486
N13790 X27.7896 Y-4.3037
N13800 X27.6770 Y-4.4393
N13810 X27.5402 Y-4.5504
N13820 X27.3842 Y-4.6327
N13830 X27.2153 Y-4.6829
N13840 X25.8495 Y-4.7000
N13850 X25.6739 Y-4.6829
N13860 X25.5050 Y-4.6327
N13870 X25.3491 Y-4.5504
N13880 X25.2122 Y-4.4393
N13890 X25.0996 Y-4.3037
N13900 X25.0156 Y-4.1486
N13910 X24.9636 Y-3.9802
N13920 X24.9453 Y-3.8049
N13930 X24.9617 Y-3.6293
N13940 X25.0119 Y-3.4604
N13950 X25.0942 Y-3.3044
N13960 X25.2053 Y-3.1676
N13970 X25.3409 Y-3.0550
N13980 X25.4960 Y-2.9710
N13990 X25.6644 Y-2.9190
N14000 X25.7642 Y-2.9082
N14010 X25.8597 Y-2.8727
N14020 X25.9287 Y-2.7859
N14030 X25.9443 Y-2.3650
N14040 X25.9229 Y-2.2826
N14050 X25.8469 Y-2.1990
N14060 X25.4960 Y-2.1090
N14070 X25.3409 Y-2.0250
N14080 X25.2053 Y-1.9124
N14090 X25.0942 Y-1.7756
N14100 X25.0119 Y-1.6196
N14110 X24.9617 Y-1.4507
N14120 X24.9453 Y-1.2751
N14130 X24.9636 Y-1.0998
N14140 X25.0156 Y-0.9314
N14150 X25.0996 Y-0.7763
N14160 X25.2122 Y-0.6407
N14170 X25.3491 Y-0.5296
N14180 X25.5050 Y-0.4473
N14190 X25.6739 Y-0.3971
N14200 X27.0446 Y-0.3802
N14210 X27.2153 Y-0.3971
N14220 X27.3842 Y-0.4473
N14230 X27.5402 Y-0.5296
N14240 X27.6770 Y-0.6407
N14250 X27.7896 Y-0.7763
N14260 X27.8736 Y-0.9314
N14270 X27.9257 Y-1.0998
N14280 X27.9439 Y-1.2751
N14290 X27.9276 Y-1.4507
N14300 X27.8773 Y-1.6196
N14310 X27.7950 Y-1.7756
N14320 X27.6839 Y-1.9124
N14330 X27.5483 Y-2.0250
N14340 X27.3933 Y-2.1090
N14350 X27.2248 Y-2.1610
N14360 X27.1250 Y-2.1718
N14370 X27.0393 Y-2.2020
N14380 X26.9666 Y-2.2804
N14390 X26.9450 Y-2.4809
N14400 X26.9659 Y-2.5621
N14410 X27.0333 Y-2.6400
N14420 X27.1314 Y-2.6732
N14430 X39.3246 Y-2.6750
N14440 X39.4128 Y-2.6533
N14450 X39.4896 Y-2.5863
N14460 X39.5241 Y-2.4823
N14470 X39.5246 Y9.4600
N14480 X39.4954 Y9.5637
N14490 X39.4269 Y9.6318
N14500 X39.3307 Y9.6596
N14510 X27.8778 Y9.6600
N14520 X27.7908 Y9.6383
N14530 X27.5402 Y9.4196
N14540 X27.3842 Y9.3373
N14550 X27.2153 Y9.2871
N14560 X25.8495 Y9.2700
N14570 X25.6644 Y9.2890
N14580 X25.4960 Y9.3410
N14590 X25.3409 Y9.4250
N14600 X25.2053 Y9.5376
N14610 X25.0942 Y9.6744
N14620 X25.0119 Y9.8304
N14630 X24.9617 Y9.9993
N14640 X24.9453 Y10.1749
N14650 X24.9636 Y10.3502
N14660 X25.0156 Y10.5186
N14670 X25.0996 Y10.6737
N14680 X25.2122 Y10.8093
N14690 X25.3491 Y10.9204
N14700 X25.5050 Y11.0027
N14710 X25.6739 Y11.0529
N14720 X25.7723 Y11.0633
N14730 X25.8544 Y11.0941
N14740 X25.9197 Y11.1663
N14750 X25.9434 Y11.2500
N14760 X25.9446 Y11.5991
N14770 X25.9181 Y11.6987
N14780 X25.8379 Y11.7753
N14790 X25.4960 Y11.8610
N14800 X25.3409 Y11.9450
N14810 X25.2053 Y12.0576
N14820 X25.0942 Y12.1944
N14830 X25.0119 Y12.3504
N14840 X24.9617 Y12.5193
N14850 X24.9453 Y12.6949
N14860 X24.9636 Y12.8702
N14870 X25.0156 Y13.0386
N14880 X25.0996 Y13.1937
N14890 X25.2122 Y13.3293
N14900 X25.3491 Y13.4404
N14910 X25.5050 Y13.5227
N14920 X25.6739 Y13.5729
N14930 X27.0397 Y13.5900
N14940 X27.2248 Y13.5710
N14950 X27.3933 Y13.5190
N14960 X27.5483 Y13.4350
N14970 X27.6839 Y13.3224
N14980 X27.7950 Y13.1856
N14990 X27.8773 Y13.0296
N15000 X27.9276 Y12.8607
N15010 X27.9439 Y12.6851
N15020 X27.9257 Y12.5098
N15030 X27.8736 Y12.3414
N15040 X27.7896 Y12.1863
N15050 X27.6770 Y12.0507
N15060 X27.5402 Y11.9396
N15070 X27.3842 Y11.8573
N15080 X27.2153 Y11.8071
N15090 X27.1158 Y11.7964
N15100 X27.0327 Y11.7647
N15110 X26.9695 Y11.6937
N15120 X26.9451 Y11.6064
N15130 X26.9447 Y11.2573
N15140 X26.9711 Y11.1613
N15150 X27.0514 Y11.0847
N15160 X27.3933 Y10.9990
N15170 X27.5483 Y10.9150
N15180 X27.6839 Y10.8024
N15190 X27.7466 Y10.7272
N15200 X27.8210 Y10.6744
N15210 X39.3246 Y10.6600
N15220 X39.4186 Y10.6837
N15230 X39.4896 Y10.7487
N15240 X39.5242 Y10.8539
N15250 X39.5246 Y17.1385
N15260 X39.5446 Y17.2803
N15270 X39.5959 Y17.4000
N15280 X39.6765 Y17.5022
N15290 X39.7809 Y17.5801
N15300 X39.9018 Y17.6284
N15310 X40.0311 Y17.6437
N15320 X40.1599 Y17.6250
N15330 X40.2796 Y17.5737
N15340 X40.3780 Y17.4985
N15350 X40.4868 Y17.4608
N15360 X47.7131 Y17.4601
N15370 X47.8102 Y17.4872
N15380 X47.8821 Y17.5587
N15390 X47.9092 Y17.6539
N15400 X47.9096 Y18.4521
N15410 X47.9102 Y18.4599
N15420 G02 X48.1675 Y18.7100 I0.2690 J-0.0194 F2000.0
N15430 G01 X51.1518 F2000
N15440 X51.1595 Y18.7094
N15450 G02 X51.4096 Y18.4521 I-0.0194 J-0.2690 F2000.0
N15460 G01 Y15.4679 F2000
N15470 X51.4090 Y15.4601
N15480 G02 X51.1518 Y15.2100 I-0.2694 J0.0197 F2000.0
N15490 G01 X48.1675 F2000
N15500 X48.1597 Y15.2106
N15510 G02 X47.9096 Y15.4679 I0.0194 J0.2690 F2000.0
N15520 G01 Y16.2612 F2000
N15530 X47.8773 Y16.3675
N15540 X47.8171 Y16.4283
N15550 X47.7228 Y16.4582
N15560 X40.7234 Y16.4600
N15570 X40.6251 Y16.4335
N15580 X40.5477 Y16.3509
N15590 X40.5251 Y16.2673
N15600 X40.5246 Y-15.8685
N15610 X40.5080 Y-15.9978
N15620 X40.4597 Y-16.1188
N15630 X40.3818 Y-16.2231
N15640 X40.2796 Y-16.3037
N15650 X40.1599 Y-16.3550
N15660 X29.2946 Y-16.3750
N15670 X29.1940 Y-16.4022
N15680 X29.1221 Y-16.4737
N15690 X29.0951 Y-16.5677
N15700 X29.0946 Y-22.8535
N15710 X29.0780 Y-22.9828
N15720 X29.0297 Y-23.1038
N15730 X28.9518 Y-23.2081
N15740 X28.8496 Y-23.2887
N15750 X28.7299 Y-23.3400
N15760 X-10.1338 Y-23.3600
N15770 X-10.2632 Y-23.3434
N15780 X-10.3841 Y-23.2951
N15790 X-10.4885 Y-23.2172
N15800 X-10.5691 Y-23.1150
N15810 X-10.6204 Y-22.9953
N15820 X-10.6404 Y-13.3927
N15830 X-10.6617 Y-13.3057
N15840 X-10.7282 Y-13.2287
N15850 X-10.8081 Y-13.1957
N15860 X-13.5351 Y-13.1901
N15870 X-13.6210 Y-13.2117
N15880 X-13.8798 Y-13.4404
N15890 X-14.0358 Y-13.5227
N15900 X-14.2047 Y-13.5729
N15910 G00 Z5.0000
N15920 X-13.7439 Y-12.9901
N15930 Z1.0000
N15940 G01 Z-0.1000 F1000
N15950 X-10.4405 Y-13.0001 F2000
N15960 X-10.4391 Y-22.8894
N15970 G03 X-10.1404 Y-23.1601 I0.2985 J0.0293 F2000.0
N15980 G01 X28.6240 Y-23.1587 F2000
N15990 G03 X28.8947 Y-22.8612 I-0.0297 J0.2989 F2000.0
N16000 G01 Y-16.1751 F2000
N16010 X40.0540 Y-16.1737
N16020 G03 X40.3247 Y-15.8750 I-0.0298 J0.2990 F2000.0
N16030 G01 Y16.6599 F2000
N16040 X48.1096
N16050 X48.1103 Y15.4515
N16060 G03 X48.1596 Y15.4100 I0.0494 J0.0087 F2000.0
N16070 G01 X51.1682 Y15.4107 F2000
N16080 G03 X51.2096 Y15.4600 I-0.0088 J0.0494 F2000.0
N16090 G01 X51.2092 Y18.4661 F2000
N16100 G03 X51.1596 Y18.5100 I-0.0495 J-0.0059 F2000.0
N16110 G01 X48.1499 Y18.5090 F2000
N16120 G03 X48.1096 Y18.4612 I0.0096 J-0.0490 F2000.0
N16130 G01 Y17.2601 F2000
N16140 X40.3018
N16150 G03 X39.7245 Y17.1462 I-0.2771 J-0.1153 F2000.0
N16160 G01 Y10.4601 F2000
N16170 X27.6809
N16180 G03 X27.0446 Y10.8700 I-0.6320 J-0.2822 F2000.0
N16190 G01 X26.7447 F2000
N16200 Y11.9900
N16210 X27.1144 Y11.9935
N16220 G03 X27.0446 Y13.3900 I-0.0699 J0.6965 F2000.0
N16230 G01 X25.7748 Y13.3865 F2000
N16240 G03 X25.8446 Y11.9900 I0.0700 J-0.6965 F2000.0
N16250 G01 X26.1445 F2000
N16260 Y10.8700
N16270 X25.7748 Y10.8665
N16280 G03 X25.8446 Y9.4700 I0.0698 J-0.6965 F2000.0
N16290 G01 X27.1132 Y9.4734 F2000
N16300 G03 X27.6714 Y9.8599 I-0.0575 J0.6794 F2000.0
N16310 G01 X39.7245 F2000
N16320 Y-2.8749
N16330 X26.7447
N16340 Y-1.9800
N16350 X27.1132 Y-1.9766
N16360 G03 X27.0446 Y-0.5800 I-0.0687 J0.6966 F2000.0
N16370 G01 X25.7760 Y-0.5834 F2000
N16380 G03 X25.8434 Y-1.9800 I0.0687 J-0.6966 F2000.0
N16390 G01 X26.1445 F2000
N16400 Y-3.1000
N16410 X25.7748 Y-3.1035
N16420 G03 X25.8446 Y-4.5000 I0.0698 J-0.6965 F2000.0
N16430 G01 X27.1132 Y-4.4966 F2000
N16440 G03 X27.6644 Y-3.4751 I-0.0679 J0.6961 F2000.0
N16450 G01 X39.7245 F2000
N16460 Y-15.5749
N16470 X27.6644
N16480 G03 X27.0458 Y-14.5500 I-0.6194 J0.3253 F2000.0
N16490 G01 X25.7760 Y-14.5534 F2000
N16500 G03 X25.8446 Y-15.9500 I0.0687 J-0.6966 F2000.0
N16510 G01 X26.1445 F2000
N16520 Y-17.0700
N16530 X25.7748 Y-17.0735
N16540 G03 X25.8446 Y-18.4700 I0.0698 J-0.6965 F2000.0
N16550 G01 X27.1132 Y-18.4666 F2000
N16560 G03 X27.0446 Y-17.0700 I-0.0687 J0.6966 F2000.0
N16570 G01 X26.7447 F2000
N16580 Y-16.1751
N16590 X28.2945
N16600 Y-22.5599
N16610 X-9.8403
N16620 Y26.3699
N16630 X-2.0939
N16640 G03 X-0.4069 Y26.3685 I0.8435 J-0.0013 F2000.0
N16650 G01 X-0.4110 Y27.0542 F2000
N16660 G03 X-2.0939 Y26.9701 I-0.8394 J-0.0827 F2000.0
N16670 G01 X-10.1698 Y26.9687 F2000
N16680 G03 X-10.4405 Y26.6712 I0.0298 J-0.2990 F2000.0
N16690 G01 Y15.5501 F2000
N16700 X-13.7439
N16710 G03 X-14.3754 Y15.9500 I-0.6246 J-0.2877 F2000.0
N16720 G01 X-15.6416 Y15.9468 F2000
N16730 G03 X-15.5754 Y14.5500 I0.0662 J-0.6968 F2000.0
N16740 G01 X-14.3068 Y14.5534 F2000
N16750 G03 X-13.7439 Y14.9499 I-0.0600 J0.6829 F2000.0
N16760 G01 X-10.4405 F2000
N16770 Y1.5801
N16780 X-13.7439
N16790 G03 X-14.3754 Y1.9800 I-0.6246 J-0.2877 F2000.0
N16800 G01 X-15.6416 Y1.9768 F2000
N16810 G03 X-15.5754 Y0.5800 I0.0662 J-0.6968 F2000.0
N16820 G01 X-14.3068 Y0.5834 F2000
N16830 G03 X-13.7439 Y0.9799 I-0.0600 J0.6829 F2000.0
N16840 G01 X-10.4405 F2000
N16850 Y-12.3999
N16860 X-10.7754 Y-12.3899
N16870 X-13.7439
N16880 G03 X-14.3754 Y-11.9900 I-0.6246 J-0.2877 F2000.0
N16890 G01 X-15.6440 Y-11.9934 F2000
N16900 G03 X-15.5754 Y-13.3900 I0.0687 J-0.6966 F2000.0
N16910 G01 X-14.3068 Y-13.3866 F2000
N16920 G03 X-13.7439 Y-12.9901 I-0.0597 J0.6825 F2000.0
N16930 G00 Z5.0000
N16940 X-14.7754 Y-7.5600
N16950 Z1.0000
N16960 G01 Z-0.1000 F1000
N16970 Y-7.0600 F2000
N16980 X-14.3754
N16990 X-14.2400 Y-7.0468
N17000 X-13.9845 Y-6.9406
N17010 X-13.8047 Y-6.7643
N17020 X-13.7287 Y-6.6279
N17030 X-13.7063 Y-6.5655
N17040 X-13.1931 Y-6.5600
N17050 X-13.2498 Y-6.7743
N17060 X-13.3388 Y-6.9635
N17070 X-13.4594 Y-7.1343
N17080 X-13.6077 Y-7.2816
N17090 X-13.7794 Y-7.4009
N17100 X-13.9692 Y-7.4886
N17110 X-14.1714 Y-7.5420
N17120 X-14.7754 Y-7.5600
N17130 G00 Z5.0000
N17140 X-13.1949 Y-6.1474
N17150 Z1.0000
N17160 G01 Z-0.1000 F1000
N17170 X-13.7047 Y-6.1600 F2000
N17180 X-13.7934 Y-5.9711
N17190 X-13.8796 Y-5.8659
N17200 X-14.1053 Y-5.7143
N17210 X-14.2169 Y-5.6789
N17220 X-14.7754 Y-5.6600
N17230 Y-5.1600
N17240 X-14.3798
N17250 X-14.1714 Y-5.1780
N17260 X-13.9692 Y-5.2314
N17270 X-13.7794 Y-5.3191
N17280 X-13.6077 Y-5.4384
N17290 X-13.4594 Y-5.5857
N17300 X-13.3388 Y-5.7565
N17310 X-13.2498 Y-5.9457
N17320 X-13.1949 Y-6.1474
N17330 G00 Z5.0000
N17340 X-14.2047 Y-4.7029
N17350 Z1.0000
N17360 G01 Z-0.1000 F1000
N17370 X-15.5754 Y-4.7198 F2000
N17380 X-15.7556 Y-4.7010
N17390 X-15.9240 Y-4.6490
N17400 X-16.0791 Y-4.5650
N17410 X-16.2147 Y-4.4524
N17420 X-16.2691 Y-4.3872
N17430 X-16.3436 Y-4.3344
N17440 X-18.3888 Y-4.3200
N17450 X-18.6052 Y-4.2707
N17460 X-18.7147 Y-4.2011
N17470 X-18.8025 Y-4.1054
N17480 X-18.8628 Y-3.9893
N17490 X-19.9371 Y3.9680
N17500 X-19.9731 Y4.0581
N17510 X-20.0520 Y4.1231
N17520 X-20.1467 Y4.1402
N17530 X-20.1709 Y4.1371
N17540 X-20.2490 Y4.1059
N17550 X-20.4394 Y3.8129
N17560 X-20.5697 Y3.6712
N17570 X-20.7238 Y3.5559
N17580 X-20.8964 Y3.4709
N17590 X-21.0818 Y3.4191
N17600 X-21.8673 Y3.4015
N17610 X-22.0590 Y3.4191
N17620 X-22.2443 Y3.4709
N17630 X-22.4170 Y3.5559
N17640 X-22.5711 Y3.6712
N17650 X-22.7013 Y3.8129
N17660 X-22.8034 Y3.9760
N17670 X-22.8737 Y4.1552
N17680 X-22.9099 Y4.3442
N17690 X-22.9107 Y4.5367
N17700 X-22.8762 Y4.7260
N17710 X-22.7969 Y4.9279
N17720 X-22.7765 Y5.0034
N17730 X-22.8053 Y5.1172
N17740 X-22.8653 Y5.1815
N17750 X-22.9677 Y5.2143
N17760 X-24.1038 Y5.2150
N17770 X-24.2332 Y5.2316
N17780 X-24.3541 Y5.2799
N17790 X-24.4585 Y5.3578
N17800 X-24.5391 Y5.4600
N17810 X-24.5904 Y5.5797
N17820 X-24.6104 Y9.5185
N17830 X-24.5938 Y9.6478
N17840 X-24.5455 Y9.7688
N17850 X-24.4676 Y9.8731
N17860 X-24.3654 Y9.9537
N17870 X-24.2457 Y10.0050
N17880 X-22.8944 Y10.0250
N17890 X-22.7952 Y10.0520
N17900 X-22.5779 Y10.2926
N17910 X-22.4248 Y10.4092
N17920 X-22.3424 Y10.4512
N17930 X-22.2722 Y10.5108
N17940 X-22.2347 Y10.6030
N17950 X-22.2473 Y10.7052
N17960 X-22.2605 Y10.7298
N17970 X-22.3439 Y10.8094
N17980 X-22.5075 Y10.8819
N17990 X-22.6935 Y11.0027
N18000 X-22.8572 Y11.1524
N18010 X-22.9939 Y11.3270
N18020 X-23.1001 Y11.5218
N18030 X-23.1728 Y11.7313
N18040 X-23.1958 Y11.8650
N18050 X-22.6904
N18060 X-22.6321 Y11.6996
N18070 X-22.5368 Y11.5472
N18080 X-22.4070 Y11.4130
N18090 X-22.2706 Y11.3217
N18100 X-22.0515 Y11.2414
N18110 X-21.2689 Y11.2215
N18120 X-20.9035 Y11.3048
N18130 X-20.7511 Y11.4001
N18140 X-20.6169 Y11.5299
N18150 X-20.5087 Y11.6996
N18160 X-20.4504 Y11.8650
N18170 X-19.9450
N18180 X-19.9660 Y11.7393
N18190 X-20.0374 Y11.5293
N18200 X-20.1423 Y11.3339
N18210 X-20.2780 Y11.1584
N18220 X-20.4408 Y11.0077
N18230 X-20.6261 Y10.8858
N18240 X-20.7906 Y10.8129
N18250 X-20.8661 Y10.7539
N18260 X-20.9045 Y10.6670
N18270 X-20.8967 Y10.5631
N18280 X-20.8841 Y10.5382
N18290 X-20.7994 Y10.4517
N18300 X-20.5629 Y10.2926
N18310 X-20.4339 Y10.1498
N18320 X-20.3333 Y9.9857
N18330 X-20.2646 Y9.8060
N18340 X-20.2301 Y9.6167
N18350 X-20.2309 Y9.4242
N18360 X-20.2671 Y9.2352
N18370 X-20.3374 Y9.0560
N18380 X-20.4394 Y8.8929
N18390 X-20.5697 Y8.7512
N18400 X-20.7238 Y8.6359
N18410 X-20.8964 Y8.5509
N18420 X-21.0818 Y8.4991
N18430 X-21.8719 Y8.4817
N18440 X-22.0590 Y8.4991
N18450 X-22.2443 Y8.5509
N18460 X-22.4170 Y8.6359
N18470 X-22.5711 Y8.7512
N18480 X-22.7913 Y8.9947
N18490 X-22.8844 Y9.0237
N18500 X-23.4151 Y9.0248
N18510 X-23.5033 Y9.0017
N18520 X-23.5745 Y8.9371
N18530 X-23.5876 Y8.9147
N18540 X-23.6100 Y8.8311
N18550 X-23.6104 Y6.4150
N18560 X-23.5887 Y6.3268
N18570 X-23.5217 Y6.2500
N18580 X-23.4165 Y6.2154
N18590 X-22.9760 Y6.2150
N18600 X-22.8676 Y6.2482
N18610 X-22.8071 Y6.3084
N18620 X-22.7764 Y6.4184
N18630 X-22.8762 Y6.7040
N18640 X-22.9107 Y6.8933
N18650 X-22.9099 Y7.0858
N18660 X-22.8737 Y7.2748
N18670 X-22.8034 Y7.4540
N18680 X-22.7013 Y7.6171
N18690 X-22.5711 Y7.7588
N18700 X-22.4170 Y7.8741
N18710 X-22.2443 Y7.9591
N18720 X-22.0590 Y8.0109
N18730 X-21.2735 Y8.0285
N18740 X-21.0728 Y8.0093
N18750 X-20.8879 Y7.9558
N18760 X-20.7160 Y7.8692
N18770 X-20.5629 Y7.7526
N18780 X-20.3405 Y7.5092
N18790 X-20.2539 Y7.4858
N18800 X-18.4019 Y7.4850
N18810 X-18.1892 Y7.4369
N18820 X-18.0793 Y7.3681
N18830 X-17.9902 Y7.2721
N18840 X-17.9301 Y7.1587
N18850 X-16.7241 Y-0.5904
N18860 X-16.6827 Y-0.6848
N18870 X-16.5991 Y-0.7463
N18880 X-16.4133 Y-0.7598
N18890 X-16.3286 Y-0.7380
N18900 X-16.0709 Y-0.5096
N18910 X-15.9150 Y-0.4273
N18920 X-15.7461 Y-0.3771
N18930 X-14.3803 Y-0.3600
N18940 X-14.1952 Y-0.3790
N18950 X-14.0267 Y-0.4310
N18960 X-13.8717 Y-0.5150
N18970 X-13.7361 Y-0.6276
N18980 X-13.6250 Y-0.7644
N18990 X-13.5427 Y-0.9204
N19000 X-13.4924 Y-1.0893
N19010 X-13.4761 Y-1.2649
N19020 X-13.4943 Y-1.4402
N19030 X-13.5464 Y-1.6086
N19040 X-13.6304 Y-1.7637
N19050 X-13.7430 Y-1.8993
N19060 X-13.8798 Y-2.0104
N19070 X-14.0358 Y-2.0927
N19080 X-14.2047 Y-2.1429
N19090 X-15.5705 Y-2.1600
N19100 X-15.7461 Y-2.1429
N19110 X-15.9150 Y-2.0927
N19120 X-16.0709 Y-2.0104
N19130 X-16.2078 Y-1.8993
N19140 X-16.2634 Y-1.8331
N19150 X-16.3493 Y-1.7722
N19160 X-17.2089 Y-1.7595
N19170 X-17.3316 Y-1.7219
N19180 X-17.4425 Y-1.6522
N19190 X-17.5306 Y-1.5571
N19200 X-17.5911 Y-1.4424
N19210 X-18.7989 Y6.3189
N19220 X-18.8367 Y6.4058
N19230 X-18.9197 Y6.4699
N19240 X-19.2631 Y6.4850
N19250 X-19.3489 Y6.4637
N19260 X-19.4268 Y6.3963
N19270 X-19.4603 Y6.3000
N19280 X-19.4383 Y6.1908
N19290 X-19.2583 Y6.0004
N19300 X-19.1983 Y5.8853
N19310 X-17.9807 Y-3.1464
N19320 X-17.9413 Y-3.2416
N19330 X-17.8582 Y-3.3050
N19340 X-16.4157 Y-3.3199
N19350 X-16.3298 Y-3.2983
N19360 X-16.0709 Y-3.0696
N19370 X-15.9150 Y-2.9873
N19380 X-15.7461 Y-2.9371
N19390 X-14.3803 Y-2.9200
N19400 X-14.1952 Y-2.9390
N19410 X-14.0267 Y-2.9910
N19420 X-13.8717 Y-3.0750
N19430 X-13.7361 Y-3.1876
N19440 X-13.6250 Y-3.3244
N19450 X-13.5427 Y-3.4804
N19460 X-13.4924 Y-3.6493
N19470 X-13.4761 Y-3.8249
N19480 X-13.4943 Y-4.0002
N19490 X-13.5464 Y-4.1686
N19500 X-13.6304 Y-4.3237
N19510 X-13.7430 Y-4.4593
N19520 X-13.8798 Y-4.5704
N19530 X-14.0358 Y-4.6527
N19540 X-14.2047 Y-4.7029
N19550 G00 Z5.0000
N19560 X-13.8931 Y-3.3129
N19570 Z1.0000
N19580 G01 Z-0.1000 F1000
N19590 G03 X-14.3754 Y-3.1200 I-0.4826 J-0.5071 F2000.0
N19600 G01 X-15.6440 Y-3.1234 F2000
N19610 G03 X-16.2069 Y-3.5199 I0.0605 J-0.6838 F2000.0
N19620 G01 X-18.1326 F2000
N19630 X-19.3713 Y5.7748
N19640 G03 X-19.6642 Y6.0151 I-0.2951 J-0.0610 F2000.0
N19650 G01 X-23.8103 F2000
N19660 Y9.2249
N19670 X-22.6594
N19680 G03 X-21.8743 Y8.6816 I0.7769 J0.2837 F2000.0
N19690 G01 X-21.1838 Y8.6859 F2000
N19700 G03 X-21.2677 Y10.3685 I-0.0852 J0.8391 F2000.0
N19710 G01 X-21.9558 Y10.3643 F2000
N19720 G03 X-22.6507 Y9.8489 I0.0837 J-0.8390 F2000.0
N19730 G01 X-22.6594 Y9.8251 F2000
N19740 X-24.1386 Y9.8238
N19750 G03 X-24.4105 Y9.5262 I0.0281 J-0.2987 F2000.0
N19760 G01 Y5.7125 F2000
N19770 G03 X-24.1104 Y5.4149 I0.3001 J0.0025 F2000.0
N19780 G01 X-19.9282 F2000
N19790 X-18.6900 Y-3.8773
N19800 G03 X-18.3954 Y-4.1201 I0.2980 J0.0614 F2000.0
N19810 G01 X-16.2069 F2000
N19820 G03 X-15.5754 Y-4.5200 I0.6251 J0.2886 F2000.0
N19830 G01 X-14.3056 Y-4.5165 F2000
N19840 G03 X-13.8931 Y-3.3129 I-0.0701 J0.6965 F2000.0
N19850 G00 Z5.0000
N19860 X-13.8925 Y-0.7536
N19870 Z1.0000
N19880 G01 Z-0.1000 F1000
N19890 G03 X-14.3742 Y-0.5600 I-0.4833 J-0.5064 F2000.0
N19900 G01 X-15.6464 Y-0.5637 F2000
N19910 G03 X-16.2069 Y-0.9599 I0.0625 J-0.6830 F2000.0
N19920 G01 X-16.8694 F2000
N19930 X-18.1010 Y7.0436
N19940 G03 X-18.3954 Y7.2851 I-0.2973 J-0.0622 F2000.0
N19950 G01 X-20.4814 F2000
N19960 G03 X-21.2689 Y7.8285 I-0.7776 J-0.2846 F2000.0
N19970 G01 X-21.9546 Y7.8244 F2000
N19980 G03 X-21.8719 Y6.1415 I0.0828 J-0.8394 F2000.0
N19990 G01 X-21.1874 Y6.1455 F2000
N20000 G03 X-20.4901 Y6.6611 I-0.0811 J0.8389 F2000.0
N20010 G01 X-20.4814 Y6.6849 F2000
N20020 X-18.6529
N20030 X-17.4198 Y-1.3286
N20040 G03 X-17.0487 Y-1.5601 I0.2958 J0.0609 F2000.0
N20050 G01 X-16.2069 F2000
N20060 G03 X-15.5754 Y-1.9600 I0.6250 J0.2883 F2000.0
N20070 G01 X-14.3056 Y-1.9565 F2000
N20080 G03 X-13.8925 Y-0.7536 I-0.0702 J0.6965 F2000.0
N20090 G00 Z5.0000
N20100 X-14.7754 Y6.4100
N20110 Z1.0000
N20120 G01 Z-0.1000 F1000
N20130 Y6.9100 F2000
N20140 X-14.3754
N20150 X-14.2400 Y6.9232
N20160 X-13.9845 Y7.0294
N20170 X-13.8047 Y7.2057
N20180 X-13.7287 Y7.3421
N20190 X-13.7063 Y7.4045
N20200 X-13.1931 Y7.4100
N20210 X-13.2498 Y7.1957
N20220 X-13.3388 Y7.0065
N20230 X-13.4594 Y6.8357
N20240 X-13.6077 Y6.6884
N20250 X-13.7794 Y6.5691
N20260 X-13.9692 Y6.4814
N20270 X-14.1714 Y6.4280
N20280 X-14.7754 Y6.4100
N20290 G00 Z5.0000
N20300 X-13.1949 Y7.8226
N20310 Z1.0000
N20320 G01 Z-0.1000 F1000
N20330 X-13.7047 Y7.8100 F2000
N20340 X-13.7934 Y7.9989
N20350 X-13.8796 Y8.1041
N20360 X-14.1053 Y8.2557
N20370 X-14.2169 Y8.2911
N20380 X-14.7754 Y8.3100
N20390 Y8.8100
N20400 X-14.3798
N20410 X-14.1714 Y8.7920
N20420 X-13.9692 Y8.7386
N20430 X-13.7794 Y8.6509
N20440 X-13.6077 Y8.5316
N20450 X-13.4594 Y8.3843
N20460 X-13.3388 Y8.2135
N20470 X-13.2498 Y8.0243
N20480 X-13.1949 Y7.8226
N20490 G00 Z5.0000
N20500 X-19.9450 Y12.2650
N20510 Z1.0000
N20520 G01 Z-0.1000 F1000
N20530 X-20.4504 F2000
N20540 X-20.5087 Y12.4304
N20550 X-20.6040 Y12.5828
N20560 X-20.7338 Y12.7170
N20570 X-20.8702 Y12.8083
N20580 X-21.0892 Y12.8886
N20590 X-21.8719 Y12.9085
N20600 X-22.2373 Y12.8252
N20610 X-22.3897 Y12.7299
N20620 X-22.5239 Y12.6001
N20630 X-22.6321 Y12.4304
N20640 X-22.6904 Y12.2650
N20650 X-23.1958
N20660 X-23.1748 Y12.3907
N20670 X-23.1034 Y12.6007
N20680 X-22.9985 Y12.7961
N20690 X-22.8627 Y12.9716
N20700 X-22.7000 Y13.1223
N20710 X-22.5147 Y13.2442
N20720 X-22.3512 Y13.3166
N20730 X-22.2658 Y13.3894
N20740 X-22.2333 Y13.4736
N20750 X-22.2452 Y13.5717
N20760 X-22.3403 Y13.6777
N20770 X-22.5779 Y13.8374
N20780 X-22.7069 Y13.9802
N20790 X-22.8075 Y14.1443
N20800 X-22.8762 Y14.3240
N20810 X-22.9107 Y14.5133
N20820 X-22.9099 Y14.7058
N20830 X-22.8737 Y14.8948
N20840 X-22.8034 Y15.0740
N20850 X-22.7013 Y15.2371
N20860 X-22.5711 Y15.3788
N20870 X-22.4170 Y15.4941
N20880 X-22.2443 Y15.5791
N20890 X-22.0590 Y15.6309
N20900 X-21.2735 Y15.6485
N20910 X-21.0818 Y15.6309
N20920 X-20.8964 Y15.5791
N20930 X-20.7238 Y15.4941
N20940 X-20.5697 Y15.3788
N20950 X-20.4394 Y15.2371
N20960 X-20.3374 Y15.0740
N20970 X-20.2671 Y14.8948
N20980 X-20.2485 Y14.8000
N20990 X-20.2043 Y14.7072
N21000 X-20.1209 Y14.6493
N21010 X-19.5135 Y14.4464
N21020 X-19.3852 Y14.3826
N21030 X-19.2880 Y14.2960
N21040 X-17.5017 Y10.7606
N21050 X-17.4357 Y10.6849
N21060 X-17.3301 Y10.6505
N21070 X-16.4180 Y10.6500
N21080 X-16.3298 Y10.6717
N21090 X-16.0709 Y10.9004
N21100 X-15.9150 Y10.9827
N21110 X-15.7461 Y11.0329
N21120 X-14.3803 Y11.0500
N21130 X-14.1952 Y11.0310
N21140 X-14.0267 Y10.9790
N21150 X-13.8717 Y10.8950
N21160 X-13.7361 Y10.7824
N21170 X-13.6250 Y10.6456
N21180 X-13.5427 Y10.4896
N21190 X-13.4924 Y10.3207
N21200 X-13.4761 Y10.1451
N21210 X-13.4943 Y9.9698
N21220 X-13.5464 Y9.8014
N21230 X-13.6304 Y9.6463
N21240 X-13.7430 Y9.5107
N21250 X-13.8798 Y9.3996
N21260 X-14.0358 Y9.3173
N21270 X-14.2047 Y9.2671
N21280 X-15.5705 Y9.2500
N21290 X-15.7556 Y9.2690
N21300 X-15.9240 Y9.3210
N21310 X-16.0791 Y9.4050
N21320 X-16.2147 Y9.5176
N21330 X-16.2700 Y9.5836
N21340 X-16.3459 Y9.6365
N21350 X-17.7538 Y9.6500
N21360 X-17.8832 Y9.6666
N21370 X-18.0041 Y9.7149
N21380 X-18.1085 Y9.7928
N21390 X-18.1891 Y9.8950
N21400 X-19.9852 Y13.4912
N21410 X-20.0462 Y13.5605
N21420 X-20.5556 Y13.7395
N21430 X-20.6429 Y13.7456
N21440 X-20.8091 Y13.6716
N21450 X-20.8720 Y13.6156
N21460 X-20.9085 Y13.5162
N21470 X-20.8910 Y13.4166
N21480 X-20.7969 Y13.3206
N21490 X-20.6333 Y13.2481
N21500 X-20.4473 Y13.1273
N21510 X-20.2836 Y12.9776
N21520 X-20.1468 Y12.8030
N21530 X-20.0407 Y12.6082
N21540 X-19.9680 Y12.3987
N21550 X-19.9450 Y12.2650
N21560 G00 Z5.0000
N21570 X-19.8782 Y13.7246
N21580 Z1.0000
N21590 G01 Z-0.1000 F1000
N21600 X-18.0377 Y10.0351 F2000
N21610 G03 X-17.7616 Y9.8499 I0.2776 J0.1155 F2000.0
N21620 G01 X-16.2069 F2000
N21630 G03 X-15.5766 Y9.4500 I0.6251 J0.2885 F2000.0
N21640 G01 X-14.3068 Y9.4534 F2000
N21650 G03 X-14.3754 Y10.8500 I-0.0687 J0.6966 F2000.0
N21660 G01 X-15.6452 Y10.8465 F2000
N21670 G03 X-16.2069 Y10.4501 I0.0618 J-0.6838 F2000.0
N21680 G01 X-17.5699 F2000
N21690 X-19.4121 Y14.1309
N21700 G03 X-19.5705 Y14.2547 I-0.2532 J-0.1608 F2000.0
N21710 G01 X-20.4285 Y14.5407 F2000
N21720 G03 X-21.2689 Y15.4485 I-0.8379 J0.0672 F2000.0
N21730 G01 X-21.9546 Y15.4444 F2000
N21740 G03 X-21.8719 Y13.7615 I0.0829 J-0.8394 F2000.0
N21750 G01 X-21.1862 Y13.7656 F2000
N21760 G03 X-20.6879 Y13.9945 I-0.0767 J0.8239 F2000.0
N21770 G01 X-19.8782 Y13.7246 F2000
N21780 G00 Z5.0000
N21790 X-17.5309 Y12.4228
N21800 Z1.0000
N21810 G01 Z-0.1000 F1000
N21820 X-19.3078 Y16.5239 F2000
N21830 X-19.3625 Y16.5964
N21840 X-19.3852 Y16.6121
N21850 X-19.4841 Y16.6444
N21860 X-20.0301 Y16.6448
N21870 X-20.1338 Y16.6118
N21880 X-20.1944 Y16.5515
N21890 X-20.2254 Y16.4450
N21900 X-20.2260 Y16.3516
N21910 G02 X-20.4832 Y16.1015 I-0.2694 J0.0197 F2000.0
N21920 G01 X-22.6575 F2000
N21930 X-22.6653 Y16.1021
N21940 G02 X-22.9154 Y16.3594 I0.0194 J0.2690 F2000.0
N21950 G01 Y17.9306 F2000
N21960 X-22.9148 Y17.9384
N21970 G02 X-22.6575 Y18.1885 I0.2690 J-0.0194 F2000.0
N21980 G01 X-20.4832 F2000
N21990 X-20.4755 Y18.1879
N22000 G02 X-20.2254 Y17.9306 I-0.0194 J-0.2690 F2000.0
N22010 G01 Y17.8450 F2000
N22020 X-20.1982 Y17.7444
N22030 X-20.1288 Y17.6738
N22040 X-20.0327 Y17.6455
N22050 X-19.0369 Y17.6450
N22060 X-18.8228 Y17.5965
N22070 X-18.7131 Y17.5274
N22080 X-18.6249 Y17.4322
N22090 X-16.8480 Y13.3311
N22100 X-16.7909 Y13.2558
N22110 X-16.6729 Y13.2108
N22120 X-16.4145 Y13.2101
N22130 X-16.3286 Y13.2320
N22140 X-16.0709 Y13.4604
N22150 X-15.9150 Y13.5427
N22160 X-15.7461 Y13.5929
N22170 X-14.3803 Y13.6100
N22180 X-14.1952 Y13.5910
N22190 X-14.0267 Y13.5390
N22200 X-13.8717 Y13.4550
N22210 X-13.7361 Y13.3424
N22220 X-13.6250 Y13.2056
N22230 X-13.5427 Y13.0496
N22240 X-13.4924 Y12.8807
N22250 X-13.4761 Y12.7051
N22260 X-13.4943 Y12.5298
N22270 X-13.5464 Y12.3614
N22280 X-13.6304 Y12.2063
N22290 X-13.7430 Y12.0707
N22300 X-13.8798 Y11.9596
N22310 X-14.0358 Y11.8773
N22320 X-14.2047 Y11.8271
N22330 X-15.5705 Y11.8100
N22340 X-15.7556 Y11.8290
N22350 X-15.9240 Y11.8810
N22360 X-16.0791 Y11.9650
N22370 X-16.2147 Y12.0776
N22380 X-16.2691 Y12.1428
N22390 X-16.3436 Y12.1956
N22400 X-17.1189 Y12.2100
N22410 X-17.3329 Y12.2585
N22420 X-17.4427 Y12.3276
N22430 X-17.5309 Y12.4228
N22440 G00 Z5.0000
N22450 X-16.9277 Y13.0101
N22460 Z1.0000
N22470 G01 Z-0.1000 F1000
N22480 X-18.7676 Y17.2899 F2000
N22490 G03 X-18.9144 Y17.4218 I-0.2619 J-0.1438 F2000.0
N22500 G01 X-19.0292 Y17.4451 F2000
N22510 X-20.4254
N22520 X-20.4269 Y17.9506
N22530 G03 X-20.4754 Y17.9885 I-0.0483 J-0.0119 F2000.0
N22540 G01 X-22.6727 Y17.9880 F2000
N22550 G03 X-22.7154 Y17.9397 I0.0077 J-0.0498 F2000.0
N22560 G01 X-22.7144 Y16.3417 F2000
N22570 G03 X-22.6654 Y16.3015 I0.0491 J0.0099 F2000.0
N22580 G01 X-20.4681 Y16.3020 F2000
N22590 G03 X-20.4255 Y16.3478 I-0.0075 J0.0497 F2000.0
N22600 G01 X-20.4254 Y16.8449 F2000
N22610 X-19.2281
N22620 X-17.3727 Y12.5400
N22630 X-17.2679 Y12.4459
N22640 X-17.1254 Y12.4099
N22650 X-16.2069
N22660 G03 X-15.5754 Y12.0100 I0.6251 J0.2885 F2000.0
N22670 G01 X-14.3068 Y12.0134 F2000
N22680 G03 X-14.3754 Y13.4100 I-0.0687 J0.6966 F2000.0
N22690 G01 X-15.6464 Y13.4063 F2000
N22700 G03 X-16.2069 Y13.0101 I0.0625 J-0.6830 F2000.0
N22710 G01 X-16.9277 F2000
N22720 G00 Z5.0000
N22730 X-15.1754 Y8.8100
N22740 Z1.0000
N22750 G01 Z-0.1000 F1000
N22760 Y8.3100 F2000
N22770 X-15.5754
N22780 X-15.7108 Y8.2968
N22790 X-15.9663 Y8.1906
N22800 X-16.1461 Y8.0143
N22810 X-16.2221 Y7.8779
N22820 X-16.2445 Y7.8155
N22830 X-16.7577 Y7.8100
N22840 X-16.7010 Y8.0243
N22850 X-16.6120 Y8.2135
N22860 X-16.4914 Y8.3843
N22870 X-16.3430 Y8.5316
N22880 X-16.1714 Y8.6509
N22890 X-15.9815 Y8.7386
N22900 X-15.7794 Y8.7920
N22910 X-15.1754 Y8.8100
N22920 G00 Z5.0000
N22930 X-16.7558 Y7.3974
N22940 Z1.0000
N22950 G01 Z-0.1000 F1000
N22960 X-16.2461 Y7.4100 F2000
N22970 X-16.1574 Y7.2211
N22980 X-16.0712 Y7.1159
N22990 X-15.8455 Y6.9643
N23000 X-15.7339 Y6.9289
N23010 X-15.1754 Y6.9100
N23020 Y6.4100
N23030 X-15.5710
N23040 X-15.7794 Y6.4280
N23050 X-15.9815 Y6.4814
N23060 X-16.1714 Y6.5691
N23070 X-16.3430 Y6.6884
N23080 X-16.4914 Y6.8357
N23090 X-16.6120 Y7.0065
N23100 X-16.7010 Y7.1957
N23110 X-16.7558 Y7.3974
N23120 G00 Z5.0000
N23130 X-15.1754 Y-5.1600
N23140 Z1.0000
N23150 G01 Z-0.1000 F1000
N23160 Y-5.6600 F2000
N23170 X-15.5754
N23180 X-15.7108 Y-5.6732
N23190 X-15.9663 Y-5.7794
N23200 X-16.1461 Y-5.9557
N23210 X-16.2221 Y-6.0921
N23220 X-16.2445 Y-6.1545
N23230 X-16.7577 Y-6.1600
N23240 X-16.7010 Y-5.9457
N23250 X-16.6120 Y-5.7565
N23260 X-16.4914 Y-5.5857
N23270 X-16.3430 Y-5.4384
N23280 X-16.1714 Y-5.3191
N23290 X-15.9815 Y-5.2314
N23300 X-15.7794 Y-5.1780
N23310 X-15.1754 Y-5.1600
N23320 G00 Z5.0000
N23330 X-16.7558 Y-6.5726
N23340 Z1.0000
N23350 G01 Z-0.1000 F1000
N23360 X-16.2461 Y-6.5600 F2000
N23370 X-16.1574 Y-6.7489
N23380 X-16.0712 Y-6.8541
N23390 X-15.8455 Y-7.0057
N23400 X-15.7339 Y-7.0411
N23410 X-15.1754 Y-7.0600
N23420 Y-7.5600
N23430 X-15.5710
N23440 X-15.7794 Y-7.5420
N23450 X-15.9815 Y-7.4886
N23460 X-16.1714 Y-7.4009
N23470 X-16.3430 Y-7.2816
N23480 X-16.4914 Y-7.1343
N23490 X-16.6120 Y-6.9635
N23500 X-16.7010 Y-6.7743
N23510 X-16.7558 Y-6.5726
N23520 G00 Z5.0000
N23530 X-13.1949 Y-20.1174
N23540 Z1.0000
N23550 G01 Z-0.1000 F1000
N23560 X-13.7047 Y-20.1300 F2000
N23570 X-13.7934 Y-19.9411
N23580 X-13.8796 Y-19.8359
N23590 X-14.1053 Y-19.6843
N23600 X-14.2169 Y-19.6489
N23610 X-14.7754 Y-19.6300
N23620 Y-19.1300
N23630 X-14.3798
N23640 X-14.1714 Y-19.1480
N23650 X-13.9692 Y-19.2014
N23660 X-13.7794 Y-19.2891
N23670 X-13.6077 Y-19.4084
N23680 X-13.4594 Y-19.5557
N23690 X-13.3388 Y-19.7265
N23700 X-13.2498 Y-19.9157
N23710 X-13.1949 Y-20.1174
N23720 G00 Z5.0000
N23730 X-13.1931 Y-20.5300
N23740 Z1.0000
N23750 G01 Z-0.1000 F1000
N23760 X-13.2498 Y-20.7443 F2000
N23770 X-13.3388 Y-20.9335
N23780 X-13.4594 Y-21.1043
N23790 X-13.6077 Y-21.2516
N23800 X-13.7794 Y-21.3709
N23810 X-13.9692 Y-21.4586
N23820 X-14.1714 Y-21.5120
N23830 X-14.7754 Y-21.5300
N23840 Y-21.0300
N23850 X-14.3754
N23860 X-14.2400 Y-21.0168
N23870 X-13.9845 Y-20.9106
N23880 X-13.8047 Y-20.7343
N23890 X-13.7287 Y-20.5979
N23900 X-13.7063 Y-20.5355
N23910 X-13.1931 Y-20.5300
N23920 G00 Z5.0000
N23930 X-20.6873 Y5.0559
N23940 Z1.0000
N23950 G01 Z-0.1000 F1000
N23960 G03 X-21.2689 Y5.2885 I-0.5816 J-0.6109 F2000.0
N23970 G01 X-21.9558 Y5.2843 F2000
N23980 G03 X-21.8719 Y3.6015 I0.0841 J-0.8393 F2000.0
N23990 G01 X-21.1862 Y3.6056 F2000
N24000 G03 X-20.6873 Y5.0559 I-0.0827 J0.8394 F2000.0
N24010 G00 Z5.0000
N24020 X0.9895 Y25.5810
N24030 Z1.0000
N24040 G01 Z-0.1000 F1000
N24050 Y-20.3325 F2000
N24060 G03 X1.2884 Y-20.6301 I0.3000 J0.0024 F2000.0
N24070 G01 X25.2131 F2000
N24080 G03 X25.8446 Y-21.0300 I0.6250 J0.2884 F2000.0
N24090 G01 X27.1132 Y-21.0266 F2000
N24100 G03 X27.0446 Y-19.6300 I-0.0686 J0.6966 F2000.0
N24110 G01 X25.7760 Y-19.6334 F2000
N24120 G03 X25.2131 Y-20.0299 I0.0603 J-0.6834 F2000.0
N24130 G01 X1.5897 F2000
N24140 Y25.5810
N24150 G03 X2.1331 Y26.3685 I-0.2843 J0.7774 F2000.0
N24160 G01 X2.1290 Y27.0542 F2000
N24170 G03 X0.4461 Y26.9715 I-0.8394 J-0.0827 F2000.0
N24180 G01 X0.4501 Y26.2870 F2000
N24190 G03 X0.9657 Y25.5897 I0.8396 J0.0816 F2000.0
N24200 G01 X0.9895 Y25.5810 F2000
N24210 G00 Z5.0000
N24220 X4.0296 Y25.5250
N24230 Z1.0000
N24240 G01 Z-0.1000 F1000
N24250 X4.6243 F2000
N24260 G03 X4.6726 Y25.5677 I-0.0018 J0.0507 F2000.0
N24270 G01 X4.6731 Y26.4700 F2000
N24280 X5.1731
N24290 Y25.5806
N24300 X5.1596 Y25.4582
N24310 X5.1202 Y25.3418
N24320 X5.0558 Y25.2370
N24330 X4.9698 Y25.1492
N24340 X4.8663 Y25.0827
N24350 X4.7507 Y25.0409
N24360 X4.0296 Y25.0250
N24370 Y25.5250
N24380 G00 Z5.0000
N24390 X4.6731 Y26.8700
N24400 Z1.0000
N24410 G01 Z-0.1000 F1000
N24420 Y27.7650 F2000
N24430 G03 X4.6329 Y27.8140 I-0.0501 J-0.0001 F2000.0
N24440 G01 X4.0296 Y27.8150 F2000
N24450 Y28.3150
N24460 X4.6175
N24470 X4.7399 Y28.3015
N24480 X4.8563 Y28.2621
N24490 X4.9611 Y28.1977
N24500 X5.0489 Y28.1117
N24510 X5.1154 Y28.0082
N24520 X5.1572 Y27.8926
N24530 X5.1731 Y26.8700
N24540 X4.6731
N24550 G00 Z5.0000
N24560 X14.2337 Y26.1814
N24570 Z1.0000
N24580 G01 Z-0.1000 F1000
N24590 X14.2161 Y26.9669 F2000
N24600 X14.2353 Y27.1676
N24610 X14.2888 Y27.3525
N24620 X14.3754 Y27.5244
N24630 X14.4920 Y27.6775
N24640 X14.6348 Y27.8065
N24650 X14.7989 Y27.9071
N24660 X14.9786 Y27.9758
N24670 X15.1680 Y28.0103
N24680 X15.3604 Y28.0095
N24690 X15.5494 Y27.9733
N24700 X15.7286 Y27.9030
N24710 X15.8917 Y27.8009
N24720 X16.0334 Y27.6707
N24730 X16.1487 Y27.5166
N24740 X16.2337 Y27.3439
N24750 X16.2856 Y27.1586
N24760 X16.3029 Y26.3685
N24770 X16.2856 Y26.1814
N24780 X16.2337 Y25.9961
N24790 X16.1487 Y25.8234
N24800 X16.0334 Y25.6693
N24810 X15.7915 Y25.4509
N24820 X15.7609 Y25.3560
N24830 X15.7596 Y-5.6600
N24840 X15.7874 Y-5.7616
N24850 X15.8573 Y-5.8318
N24860 X15.9535 Y-5.8596
N24870 X25.0032 Y-5.8600
N24880 X25.0902 Y-5.8383
N24890 X25.3491 Y-5.6096
N24900 X25.5050 Y-5.5273
N24910 X25.6739 Y-5.4771
N24920 X27.0397 Y-5.4600
N24930 X27.2248 Y-5.4790
N24940 X27.3933 Y-5.5310
N24950 X27.5483 Y-5.6150
N24960 X27.6839 Y-5.7276
N24970 X27.7950 Y-5.8644
N24980 X27.8773 Y-6.0204
N24990 X27.9276 Y-6.1893
N25000 X27.9439 Y-6.3649
N25010 X27.9257 Y-6.5402
N25020 X27.8736 Y-6.7086
N25030 X27.7896 Y-6.8637
N25040 X27.6770 Y-6.9993
N25050 X27.5402 Y-7.1104
N25060 X27.3842 Y-7.1927
N25070 X27.2153 Y-7.2429
N25080 X25.8495 Y-7.2600
N25090 X25.6644 Y-7.2410
N25100 X25.4960 Y-7.1890
N25110 X25.3409 Y-7.1050
N25120 X25.2053 Y-6.9924
N25130 X25.1517 Y-6.9280
N25140 X25.0707 Y-6.8722
N25150 X15.2662 Y-6.8600
N25160 X15.1368 Y-6.8434
N25170 X15.0159 Y-6.7951
N25180 X14.9115 Y-6.7172
N25190 X14.8309 Y-6.6150
N25200 X14.7796 Y-6.4953
N25210 X14.7596 Y25.3448
N25220 X14.7364 Y25.4376
N25230 X14.4858 Y25.6693
N25240 X14.3705 Y25.8234
N25250 X14.2855 Y25.9961
N25260 X14.2337 Y26.1814
N25270 G00 Z5.0000
N25280 X14.9595 Y25.5810
N25290 Z1.0000
N25300 G01 Z-0.1000 F1000
N25310 Y-6.3625 F2000
N25320 G03 X15.2584 Y-6.6601 I0.3000 J0.0024 F2000.0
N25330 G01 X25.2131 F2000
N25340 G03 X25.8446 Y-7.0600 I0.6250 J0.2884 F2000.0
N25350 G01 X27.1132 Y-7.0566 F2000
N25360 G03 X27.0458 Y-5.6600 I-0.0686 J0.6966 F2000.0
N25370 G01 X25.7760 Y-5.6634 F2000
N25380 G03 X25.2131 Y-6.0599 I0.0603 J-0.6834 F2000.0
N25390 G01 X15.5597 F2000
N25400 Y25.5810
N25410 G03 X16.1031 Y26.3685 I-0.2843 J0.7774 F2000.0
N25420 G01 X16.0990 Y27.0542 F2000
N25430 G03 X14.4161 Y26.9715 I-0.8394 J-0.0827 F2000.0
N25440 G01 X14.4201 Y26.2870 F2000
N25450 G03 X14.9357 Y25.5897 I0.8396 J0.0816 F2000.0
N25460 G01 X14.9595 Y25.5810 F2000
N25470 G00 Z5.0000
N25480 X20.1396 Y25.0446
N25490 Z1.0000
N25500 G01 Z-0.1000 F1000
N25510 X20.0139 Y25.0656 F2000
N25520 X19.8039 Y25.1370
N25530 X19.6085 Y25.2419
N25540 X19.4331 Y25.3776
N25550 X19.2823 Y25.5404
N25560 X19.1604 Y25.7257
N25570 X19.0880 Y25.8892
N25580 X19.0294 Y25.9649
N25590 X18.9405 Y26.0046
N25600 X18.8401 Y25.9967
N25610 X18.8137 Y25.9845
N25620 X18.7347 Y25.9105
N25630 X18.5672 Y25.6625
N25640 X18.3232 Y25.4391
N25650 X18.3012 Y25.3572
N25660 X18.2996 Y8.3100
N25670 X18.3213 Y8.2218
N25680 X18.3883 Y8.1450
N25690 X18.4923 Y8.1105
N25700 X25.0032 Y8.1100
N25710 X25.0902 Y8.1317
N25720 X25.3491 Y8.3604
N25730 X25.5050 Y8.4427
N25740 X25.6739 Y8.4929
N25750 X27.0397 Y8.5100
N25760 X27.2248 Y8.4910
N25770 X27.3933 Y8.4390
N25780 X27.5483 Y8.3550
N25790 X27.6839 Y8.2424
N25800 X27.7950 Y8.1056
N25810 X27.8773 Y7.9496
N25820 X27.9276 Y7.7807
N25830 X27.9439 Y7.6051
N25840 X27.9257 Y7.4298
N25850 X27.8736 Y7.2614
N25860 X27.7896 Y7.1063
N25870 X27.6770 Y6.9707
N25880 X27.5402 Y6.8596
N25890 X27.3842 Y6.7773
N25900 X27.2153 Y6.7271
N25910 X25.8495 Y6.7100
N25920 X25.6644 Y6.7290
N25930 X25.4960 Y6.7810
N25940 X25.3409 Y6.8650
N25950 X25.2053 Y6.9776
N25960 X25.1509 Y7.0428
N25970 X25.0753 Y7.0961
N25980 X17.8062 Y7.1100
N25990 X17.6768 Y7.1266
N26000 X17.5559 Y7.1749
N26010 X17.4515 Y7.2528
N26020 X17.3709 Y7.3550
N26030 X17.3196 Y7.4747
N26040 X17.2996 Y25.3448
N26050 X17.2706 Y25.4482
N26060 X17.0258 Y25.6693
N26070 X16.9105 Y25.8234
N26080 X16.8255 Y25.9961
N26090 X16.7737 Y26.1814
N26100 X16.7561 Y26.9669
N26110 X16.7753 Y27.1676
N26120 X16.8288 Y27.3525
N26130 X16.9154 Y27.5244
N26140 X17.0320 Y27.6775
N26150 X17.1748 Y27.8065
N26160 X17.3389 Y27.9071
N26170 X17.5186 Y27.9758
N26180 X17.7080 Y28.0103
N26190 X17.9004 Y28.0095
N26200 X18.0894 Y27.9733
N26210 X18.2686 Y27.9030
N26220 X18.4317 Y27.8009
N26230 X18.5734 Y27.6707
N26240 X18.6887 Y27.5166
N26250 X18.7301 Y27.4350
N26260 X18.7909 Y27.3669
N26270 X18.8884 Y27.3319
N26280 X18.9857 Y27.3485
N26290 X19.0781 Y27.4361
N26300 X19.1565 Y27.6071
N26310 X19.2773 Y27.7931
N26320 X19.4270 Y27.9568
N26330 X19.6016 Y28.0935
N26340 X19.7964 Y28.1997
N26350 X20.0059 Y28.2724
N26360 X20.1396 Y28.2954
N26370 Y27.7900
N26380 X19.9742 Y27.7317
N26390 X19.8218 Y27.6364
N26400 X19.6876 Y27.5066
N26410 X19.5963 Y27.3702
N26420 X19.5160 Y27.1511
N26430 X19.4961 Y26.3685
N26440 X19.5794 Y26.0031
N26450 X19.6747 Y25.8507
N26460 X19.8045 Y25.7165
N26470 X19.9742 Y25.6083
N26480 X20.1396 Y25.5500
N26490 Y25.0446
N26500 G00 Z5.0000
N26510 X20.5396
N26520 Z1.0000
N26530 G01 Z-0.1000 F1000
N26540 Y25.5500 F2000
N26550 X20.7050 Y25.6083
N26560 X20.8574 Y25.7036
N26570 X20.9916 Y25.8334
N26580 X21.0835 Y25.9709
N26590 X21.1632 Y26.1889
N26600 X21.1831 Y26.4700
N26610 X21.6831
N26620 G02 X21.6112 Y25.9363 I-1.5667 J-0.0606 F2000.0
N26630 G01 X21.5227 Y25.7329 F2000
N26640 X21.4019 Y25.5469
N26650 X21.2522 Y25.3832
N26660 X21.0776 Y25.2465
N26670 X20.8828 Y25.1403
N26680 X20.6733 Y25.0676
N26690 X20.5396 Y25.0446
N26700 G00 Z5.0000
N26710 X21.6831 Y26.8700
N26720 Z1.0000
N26730 G01 Z-0.1000 F1000
N26740 X21.1831 F2000
N26750 X21.1791 Y27.0530
N26760 X21.0998 Y27.3369
N26770 X21.0045 Y27.4893
N26780 X20.8747 Y27.6235
N26790 X20.7050 Y27.7317
N26800 X20.5396 Y27.7900
N26810 Y28.2954
N26820 X20.6733 Y28.2724
N26830 X20.8828 Y28.1997
N26840 X21.0776 Y28.0935
N26850 X21.2522 Y27.9568
N26860 X21.4019 Y27.7931
N26870 X21.5227 Y27.6071
N26880 X21.6112 Y27.4037
N26890 X21.6650 Y27.1885
N26900 X21.6831 Y26.8700
N26910 G00 Z5.0000
N26920 X17.1893 Y27.5537
N26930 Z1.0000
N26940 G01 Z-0.1000 F1000
N26950 G03 X16.9561 Y26.9727 I0.6103 J-0.5823 F2000.0
N26960 G01 X16.9601 Y26.2870 F2000
N26970 G03 X17.4757 Y25.5897 I0.8396 J0.0816 F2000.0
N26980 G01 X17.4995 Y25.5810 F2000
N26990 Y7.6075
N27000 G03 X17.7996 Y7.3099 I0.3001 J0.0025 F2000.0
N27010 G01 X25.2131 F2000
N27020 G03 X25.8446 Y6.9100 I0.6250 J0.2884 F2000.0
N27030 G01 X27.1132 Y6.9134 F2000
N27040 G03 X27.0458 Y8.3100 I-0.0686 J0.6966 F2000.0
N27050 G01 X25.7760 Y8.3066 F2000
N27060 G03 X25.2131 Y7.9101 I0.0603 J-0.6834 F2000.0
N27070 G01 X18.0997 F2000
N27080 Y25.5810
N27090 G03 X18.6431 Y26.3685 I-0.2843 J0.7774 F2000.0
N27100 G01 X18.6390 Y27.0542 F2000
N27110 G03 X17.1893 Y27.5537 I-0.8394 J-0.0827 F2000.0
N27120 G00 Z5.0000
N27130 X25.6739 Y16.1329
N27140 Z1.0000
N27150 G01 Z-0.1000 F1000
N27160 X27.0397 Y16.1500 F2000
N27170 X27.2248 Y16.1310
N27180 X27.3933 Y16.0790
N27190 X27.5483 Y15.9950
N27200 X27.6839 Y15.8824
N27210 X27.7950 Y15.7456
N27220 X27.8773 Y15.5896
N27230 X27.9276 Y15.4207
N27240 X27.9439 Y15.2451
N27250 X27.9257 Y15.0698
N27260 X27.8736 Y14.9014
N27270 X27.7896 Y14.7463
N27280 X27.6770 Y14.6107
N27290 X27.5402 Y14.4996
N27300 X27.3842 Y14.4173
N27310 X27.2153 Y14.3671
N27320 X25.8495 Y14.3500
N27330 X25.6644 Y14.3690
N27340 X25.4960 Y14.4210
N27350 X25.3409 Y14.5050
N27360 X25.2053 Y14.6176
N27370 X25.0942 Y14.7544
N27380 X25.0119 Y14.9104
N27390 X24.9617 Y15.0793
N27400 X24.9453 Y15.2549
N27410 X24.9636 Y15.4302
N27420 X25.0156 Y15.5986
N27430 X25.0996 Y15.7537
N27440 X25.2122 Y15.8893
N27450 X25.3491 Y16.0004
N27460 X25.5050 Y16.0827
N27470 X25.6739 Y16.1329
N27480 G00 Z5.0000
N27490 X25.3615 Y14.7434
N27500 Z1.0000
N27510 G01 Z-0.1000 F1000
N27520 G03 X25.8446 Y14.5500 I0.4831 J0.5065 F2000.0
N27530 G01 X27.1108 Y14.5532 F2000
N27540 G03 X27.0446 Y15.9500 I-0.0663 J0.6968 F2000.0
N27550 G01 X25.7784 Y15.9468 F2000
N27560 G03 X25.3615 Y14.7434 I0.0662 J-0.6968 F2000.0
N27570 G00 Z5.0000
N27580 X25.6739 Y2.1629
N27590 Z1.0000
N27600 G01 Z-0.1000 F1000
N27610 X27.0397 Y2.1800 F2000
N27620 X27.2248 Y2.1610
N27630 X27.3933 Y2.1090
N27640 X27.5483 Y2.0250
N27650 X27.6839 Y1.9124
N27660 X27.7950 Y1.7756
N27670 X27.8773 Y1.6196
N27680 X27.9276 Y1.4507
N27690 X27.9439 Y1.2751
N27700 X27.9257 Y1.0998
N27710 X27.8736 Y0.9314
N27720 X27.7896 Y0.7763
N27730 X27.6770 Y0.6407
N27740 X27.5402 Y0.5296
N27750 X27.3842 Y0.4473
N27760 X27.2153 Y0.3971
N27770 X25.8495 Y0.3800
N27780 X25.6644 Y0.3990
N27790 X25.4960 Y0.4510
N27800 X25.3409 Y0.5350
N27810 X25.2053 Y0.6476
N27820 X25.0942 Y0.7844
N27830 X25.0119 Y0.9404
N27840 X24.9617 Y1.1093
N27850 X24.9453 Y1.2849
N27860 X24.9636 Y1.4602
N27870 X25.0156 Y1.6286
N27880 X25.0996 Y1.7837
N27890 X25.2122 Y1.9193
N27900 X25.3491 Y2.0304
N27910 X25.5050 Y2.1127
N27920 X25.6739 Y2.1629
N27930 G00 Z5.0000
N27940 X25.3615 Y0.7734
N27950 Z1.0000
N27960 G01 Z-0.1000 F1000
N27970 G03 X25.8446 Y0.5800 I0.4831 J0.5065 F2000.0
N27980 G01 X27.1108 Y0.5832 F2000
N27990 G03 X27.0446 Y1.9800 I-0.0663 J0.6968 F2000.0
N28000 G01 X25.7784 Y1.9768 F2000
N28010 G03 X25.3615 Y0.7734 I0.0662 J-0.6968 F2000.0
N28020 G00 Z5.0000
N28030 X25.6739 Y-11.8071
N28040 Z1.0000
N28050 G01 Z-0.1000 F1000
N28060 X27.0397 Y-11.7900 F2000
N28070 X27.2248 Y-11.8090
N28080 X27.3933 Y-11.8610
N28090 X27.5483 Y-11.9450
N28100 X27.6839 Y-12.0576
N28110 X27.7950 Y-12.1944
N28120 X27.8773 Y-12.3504
N28130 X27.9276 Y-12.5193
N28140 X27.9439 Y-12.6949
N28150 X27.9257 Y-12.8702
N28160 X27.8736 Y-13.0386
N28170 X27.7896 Y-13.1937
N28180 X27.6770 Y-13.3293
N28190 X27.5402 Y-13.4404
N28200 X27.3842 Y-13.5227
N28210 X27.2153 Y-13.5729
N28220 X25.8495 Y-13.5900
N28230 X25.6644 Y-13.5710
N28240 X25.4960 Y-13.5190
N28250 X25.3409 Y-13.4350
N28260 X25.2053 Y-13.3224
N28270 X25.0942 Y-13.1856
N28280 X25.0119 Y-13.0296
N28290 X24.9617 Y-12.8607
N28300 X24.9453 Y-12.6851
N28310 X24.9636 Y-12.5098
N28320 X25.0156 Y-12.3414
N28330 X25.0996 Y-12.1863
N28340 X25.2122 Y-12.0507
N28350 X25.3491 Y-11.9396
N28360 X25.5050 Y-11.8573
N28370 X25.6739 Y-11.8071
N28380 G00 Z5.0000
N28390 X25.3615 Y-13.1966
N28400 Z1.0000
N28410 G01 Z-0.1000 F1000
N28420 G03 X25.8446 Y-13.3900 I0.4831 J0.5065 F2000.0
N28430 G01 X27.1108 Y-13.3868 F2000
N28440 G03 X27.0446 Y-11.9900 I-0.0663 J0.6968 F2000.0
N28450 G01 X25.7784 Y-11.9932 F2000
N28460 G03 X25.3615 Y-13.1966 I0.0662 J-0.6968 F2000.0
N28470 G00 Z5.0000
N28480 X31.4596 Y-19.9900
N28490 Z1.0000
N28500 G01 Z-0.1000 F1000
N28510 Y-20.4900 F2000
N28520 X30.1596
N28530 G03 X30.1106 Y-20.5302 I0.0001 J-0.0501 F2000.0
N28540 G01 X30.1096 Y-21.8400 F2000
N28550 X29.6096
N28560 Y-20.5456
N28570 X29.6231 Y-20.4232
N28580 X29.6625 Y-20.3068
N28590 X29.7269 Y-20.2020
N28600 X29.8129 Y-20.1142
N28610 X29.9164 Y-20.0477
N28620 X30.0320 Y-20.0059
N28630 X31.4596 Y-19.9900
N28640 G00 Z5.0000
N28650 X31.8596
N28660 Z1.0000
N28670 G01 Z-0.1000 F1000
N28680 X33.1540 F2000
N28690 X33.2764 Y-20.0035
N28700 X33.3928 Y-20.0429
N28710 X33.4976 Y-20.1073
N28720 X33.5854 Y-20.1933
N28730 X33.6519 Y-20.2968
N28740 X33.6937 Y-20.4124
N28750 X33.7096 Y-21.8400
N28760 X33.2096
N28770 Y-20.5400
N28780 G03 X33.1694 Y-20.4910 I-0.0500 J-0.0000 F2000.0
N28790 G01 X31.8596 Y-20.4900 F2000
N28800 Y-19.9900
N28810 G00 Z5.0000
N28820 X33.2096 Y-22.2400
N28830 Z1.0000
N28840 G01 Z-0.1000 F1000
N28850 X33.7096 F2000
N28860 Y-23.5344
N28870 X33.6961 Y-23.6568
N28880 X33.6567 Y-23.7732
N28890 X33.5923 Y-23.8780
N28900 X33.5063 Y-23.9658
N28910 X33.4028 Y-24.0323
N28920 X33.2872 Y-24.0741
N28930 X31.8596 Y-24.0900
N28940 Y-23.5900
N28950 X33.1596
N28960 G03 X33.2092 Y-23.5461 I-0.0000 J0.0500 F2000.0
N28970 G01 X33.2096 Y-22.2400 F2000
N28980 G00 Z5.0000
N28990 X31.4596 Y-23.5900
N29000 Z1.0000
N29010 G01 Z-0.1000 F1000
N29020 Y-24.0900 F2000
N29030 X30.1652
N29040 X30.0429 Y-24.0765
N29050 X29.9264 Y-24.0371
N29060 X29.8216 Y-23.9727
N29070 X29.7338 Y-23.8867
N29080 X29.6673 Y-23.7832
N29090 X29.6256 Y-23.6676
N29100 X29.6096 Y-22.2400
N29110 X30.1096
N29120 Y-23.5400
N29130 G03 X30.1499 Y-23.5890 I0.0499 J0.0000 F2000.0
N29140 G01 X31.4596 Y-23.5900 F2000
N29150 G00 Z5.0000
N29160 Y14.9100
N29170 Z1.0000
N29180 G01 Z-0.1000 F1000
N29190 X30.1652 F2000
N29200 X30.0429 Y14.9235
N29210 X29.9264 Y14.9629
N29220 X29.8216 Y15.0273
N29230 X29.7338 Y15.1133
N29240 X29.6673 Y15.2168
N29250 X29.6256 Y15.3324
N29260 X29.6096 Y16.7600
N29270 X30.1096
N29280 Y15.4600
N29290 G03 X30.1499 Y15.4110 I0.0499 J0.0000 F2000.0
N29300 G01 X31.4596 Y15.4100 F2000
N29310 Y14.9100
N29320 G00 Z5.0000
N29330 X31.8596
N29340 Z1.0000
N29350 G01 Z-0.1000 F1000
N29360 Y15.4100 F2000
N29370 X33.1596
N29380 G03 X33.2092 Y15.4539 I-0.0000 J0.0500 F2000.0
N29390 G01 X33.2096 Y16.7600 F2000
N29400 X33.7096
N29410 Y15.4656
N29420 X33.6961 Y15.3432
N29430 X33.6567 Y15.2268
N29440 X33.5923 Y15.1220
N29450 X33.5063 Y15.0342
N29460 X33.4028 Y14.9677
N29470 X33.2872 Y14.9259
N29480 X31.8596 Y14.9100
N29490 G00 Z5.0000
N29500 X33.2096 Y17.1600
N29510 Z1.0000
N29520 G01 Z-0.1000 F1000
N29530 Y18.4600 F2000
N29540 G03 X33.1694 Y18.5090 I-0.0500 J-0.0000 F2000.0
N29550 G01 X31.8596 Y18.5100 F2000
N29560 Y19.0100
N29570 X33.1540
N29580 X33.2764 Y18.9965
N29590 X33.3928 Y18.9571
N29600 X33.4976 Y18.8927
N29610 X33.5854 Y18.8067
N29620 X33.6519 Y18.7032
N29630 X33.6937 Y18.5876
N29640 X33.7096 Y17.1600
N29650 X33.2096
N29660 G00 Z5.0000
N29670 X31.4596 Y18.5100
N29680 Z1.0000
N29690 G01 Z-0.1000 F1000
N29700 X30.1596 F2000
N29710 G03 X30.1106 Y18.4698 I0.0001 J-0.0501 F2000.0
N29720 G01 X30.1096 Y17.1600 F2000
N29730 X29.6096
N29740 Y18.4544
N29750 X29.6231 Y18.5768
N29760 X29.6625 Y18.6932
N29770 X29.7269 Y18.7980
N29780 X29.8129 Y18.8858
N29790 X29.9164 Y18.9523
N29800 X30.0320 Y18.9941
N29810 X31.4596 Y19.0100
N29820 Y18.5100
N29830 G00 Z5.0000
N29840 X38.6339 Y25.7642
N29850 Z1.0000
N29860 G01 Z-0.1000 F1000
N29870 X38.4455 Y25.9913 F2000
N29880 X38.2871 Y26.2403
N29890 X38.1611 Y26.5071
N29900 X38.0695 Y26.7876
N29910 X38.0138 Y27.0774
N29920 X37.9949 Y27.3719
N29930 X38.0130 Y27.6664
N29940 X38.0679 Y27.9563
N29950 X38.1588 Y28.2371
N29960 X38.2840 Y28.5042
N29970 X38.4418 Y28.7536
N29980 X38.6296 Y28.9812
N29990 X38.8444 Y29.1835
N30000 X39.0829 Y29.3572
N30010 X39.3413 Y29.4997
N30020 X39.6155 Y29.6087
N30030 X39.9012 Y29.6825
N30040 X40.1939 Y29.7199
N30050 X40.4890 Y29.7203
N30060 X40.7818 Y29.6837
N30070 X41.0677 Y29.6107
N30080 X41.3422 Y29.5024
N30090 X41.6010 Y29.3606
N30100 X41.8399 Y29.1875
N30110 X42.0553 Y28.9858
N30120 X42.2437 Y28.7587
N30130 X42.4022 Y28.5097
N30140 X42.5282 Y28.2429
N30150 X42.6197 Y27.9624
N30160 X42.6754 Y27.6726
N30170 X42.6943 Y27.3781
N30180 X42.6762 Y27.0836
N30190 X42.6213 Y26.7937
N30200 X42.5305 Y26.5129
N30210 X42.4052 Y26.2458
N30220 X42.2474 Y25.9964
N30230 X42.0596 Y25.7688
N30240 X41.8448 Y25.5665
N30250 X41.6063 Y25.3928
N30260 X41.3479 Y25.2503
N30270 X41.0737 Y25.1413
N30280 X40.7880 Y25.0675
N30290 X40.4953 Y25.0301
N30300 X40.2002 Y25.0297
N30310 X39.9074 Y25.0663
N30320 X39.6215 Y25.1393
N30330 X39.3470 Y25.2476
N30340 X39.0882 Y25.3894
N30350 X38.8493 Y25.5625
N30360 X38.6339 Y25.7642
N30370 G00 Z5.0000
N30380 X40.1939 Y-28.2801
N30390 Z1.0000
N30400 G01 Z-0.1000 F1000
N30410 X40.4890 Y-28.2797 F2000
N30420 X40.7818 Y-28.3163
N30430 X41.0677 Y-28.3893
N30440 X41.3422 Y-28.4976
N30450 X41.6010 Y-28.6394
N30460 X41.8399 Y-28.8125
N30470 X42.0553 Y-29.0142
N30480 X42.2437 Y-29.2413
N30490 X42.4022 Y-29.4903
N30500 X42.5282 Y-29.7571
N30510 X42.6197 Y-30.0376
N30520 X42.6754 Y-30.3274
N30530 X42.6943 Y-30.6219
N30540 X42.6762 Y-30.9164
N30550 X42.6213 Y-31.2063
N30560 X42.5305 Y-31.4871
N30570 X42.4052 Y-31.7542
N30580 X42.2474 Y-32.0036
N30590 X42.0596 Y-32.2312
N30600 X41.8448 Y-32.4335
N30610 X41.6063 Y-32.6072
N30620 X41.3479 Y-32.7497
N30630 X41.0737 Y-32.8587
N30640 X40.7880 Y-32.9325
N30650 X40.4953 Y-32.9699
N30660 X40.2002 Y-32.9703
N30670 X39.9074 Y-32.9337
N30680 X39.6215 Y-32.8607
N30690 X39.3470 Y-32.7524
N30700 X39.0882 Y-32.6106
N30710 X38.8493 Y-32.4375
N30720 X38.6339 Y-32.2358
N30730 X38.4455 Y-32.0087
N30740 X38.2871 Y-31.7597
N30750 X38.1611 Y-31.4929
N30760 X38.0695 Y-31.2124
N30770 X38.0138 Y-30.9226
N30780 X37.9949 Y-30.6281
N30790 X38.0130 Y-30.3336
N30800 X38.0679 Y-30.0437
N30810 X38.1588 Y-29.7629
N30820 X38.2840 Y-29.4958
N30830 X38.4418 Y-29.2464
N30840 X38.6296 Y-29.0188
N30850 X38.8444 Y-28.8165
N30860 X39.0829 Y-28.6428
N30870 X39.3413 Y-28.5003
N30880 X39.6155 Y-28.3913
N30890 X39.9012 Y-28.3175
N30900 X40.1939 Y-28.2801
N30910 G00 Z5.0000
N30920 M05
N30930 M05 M30
