N0010 (Filename: encoder_diff_driver_board 01.ngc)
N0020 (Post processor: LinuxCNC.scpost)
N0030 (Date: 30/10/2024)
N0040 G21 (Units: Metric)
N0050 G64 P0.001 G40 G90
N0060 F1
N0070 (Part: encoder_diff_driver_board_COPPER-BOTTOM)
N0080 (Operation: No Offset, Tool 1 -2.000000 deep, T3: chamfer mill - V cutter, 2 mm diameter, 0.1 mm Deep)
N0090 M6 T3  (chamfer mill - V cutter, 2 mm diameter)
N0100 G43 H3
N0110 G00 Z5.0000
N0120 M03 S12000
N0130 X-31.4643 Y28.8674
N0140 Z1.0000
N0150 G01 Z-0.1000 F1000
N0160 X-31.5582 Y28.7536 F2000
N0170 X-31.7160 Y28.5042
N0180 X-31.8412 Y28.2371
N0190 X-31.9321 Y27.9563
N0200 X-31.9870 Y27.6664
N0210 X-32.0051 Y27.3719
N0220 X-31.9862 Y27.0774
N0230 X-31.9305 Y26.7876
N0240 X-31.8389 Y26.5071
N0250 X-31.7129 Y26.2403
N0260 X-31.5545 Y25.9913
N0270 X-31.3661 Y25.7642
N0280 X-31.1507 Y25.5625
N0290 X-30.9118 Y25.3894
N0300 X-30.6530 Y25.2476
N0310 X-30.3785 Y25.1393
N0320 X-30.0926 Y25.0663
N0330 X-29.7998 Y25.0297
N0340 X-29.5047 Y25.0301
N0350 X-29.2120 Y25.0675
N0360 X-28.9263 Y25.1413
N0370 X-28.6521 Y25.2503
N0380 X-28.3937 Y25.3928
N0390 X-28.1552 Y25.5665
N0400 X-27.9404 Y25.7688
N0410 X-27.7526 Y25.9964
N0420 X-27.5948 Y26.2458
N0430 X-27.4695 Y26.5129
N0440 X-27.3787 Y26.7937
N0450 X-27.3238 Y27.0836
N0460 X-27.3057 Y27.3781
N0470 X-27.3246 Y27.6726
N0480 X-27.3803 Y27.9624
N0490 X-27.4718 Y28.2429
N0500 X-27.5978 Y28.5097
N0510 X-27.7563 Y28.7587
N0520 X-27.9447 Y28.9858
N0530 X-28.1601 Y29.1875
N0540 X-28.3990 Y29.3606
N0550 X-28.6578 Y29.5024
N0560 X-28.9323 Y29.6107
N0570 X-29.2182 Y29.6837
N0580 X-29.5110 Y29.7203
N0590 X-29.8061 Y29.7199
N0600 X-30.0988 Y29.6825
N0610 X-30.3845 Y29.6087
N0620 X-30.6587 Y29.4997
N0630 X-30.9171 Y29.3572
N0640 X-31.1556 Y29.1835
N0650 X-31.3704 Y28.9812
N0660 X-31.4643 Y28.8674
N0670 G00 Z5.0000
N0680 X-29.3904 Y-14.1465
N0690 Z1.0000
N0700 G01 Z-0.1000 F1000
N0710 Y-13.8965 F2000
N0720 X-29.7089 Y-13.9147
N0730 X-29.9241 Y-13.9684
N0740 X-30.1275 Y-14.0569
N0750 X-30.3135 Y-14.1777
N0760 X-30.4772 Y-14.3274
N0770 X-30.6139 Y-14.5020
N0780 X-30.7201 Y-14.6968
N0790 X-30.7928 Y-14.9063
N0800 X-30.8158 Y-15.0400
N0810 X-30.3104
N0820 X-30.2521 Y-14.8746
N0830 X-30.1439 Y-14.7049
N0840 X-30.0097 Y-14.5751
N0850 X-29.8573 Y-14.4798
N0860 X-29.5733 Y-14.4005
N0870 X-29.3904 Y-14.3965
N0880 Y-14.1465
N0890 G00 Z5.0000
N0900 X-30.5631 Y-15.4400
N0910 Z1.0000
N0920 G01 Z-0.1000 F1000
N0930 X-30.8158 F2000
N0940 X-30.7928 Y-15.5737
N0950 X-30.7201 Y-15.7832
N0960 X-30.6139 Y-15.9780
N0970 X-30.4772 Y-16.1526
N0980 X-30.1555 Y-16.4207
N0990 X-30.1179 Y-16.5135
N1000 X-30.1358 Y-16.6236
N1010 X-30.2011 Y-16.7018
N1020 X-30.4375 Y-16.7903
N1030 X-30.4907 Y-16.8469
N1040 X-30.5238 Y-16.9172
N1050 X-30.5354 Y-16.9944
N1060 X-30.5190 Y-18.6575
N1070 X-30.4816 Y-18.7256
N1080 X-30.4250 Y-18.7788
N1090 X-30.3547 Y-18.8119
N1100 X-30.2775 Y-18.8235
N1110 X-29.0828 Y-18.8402
N1120 X-28.9997 Y-18.9073
N1130 X-23.1624 Y-27.0509
N1140 X-23.0410 Y-27.1266
N1150 X-22.8338 Y-27.1700
N1160 X35.7149 Y-27.1500
N1170 X35.8346 Y-27.0987
N1180 X35.9368 Y-27.0181
N1190 X36.0147 Y-26.9138
N1200 X36.0630 Y-26.7928
N1210 X36.0796 Y-26.6635
N1220 X36.0814 Y-24.8168
N1230 X36.1146 Y-24.7187
N1240 X36.1867 Y-24.6533
N1250 X36.2796 Y-24.6300
N1260 X47.7799 Y-24.6100
N1270 X47.9739 Y-24.5063
N1280 X48.7492 Y-23.8383
N1290 X48.8795 Y-23.7900
N1300 X51.2436 Y-23.7736
N1310 X51.3117 Y-23.7362
N1320 X51.3649 Y-23.6796
N1330 X51.3980 Y-23.6093
N1340 X51.4096 Y-23.5321
N1350 X51.4104 Y-20.9125
N1360 X51.4572 Y-20.7918
N1370 X53.8131 Y-17.9877
N1380 X53.8596 Y-17.7735
N1390 X53.8397 Y21.0903
N1400 X53.7883 Y21.2100
N1410 X53.7055 Y21.3162
N1420 X52.3446 Y22.6537
N1430 X52.2249 Y22.7051
N1440 X52.0831 Y22.7250
N1450 X32.0205 Y22.7353
N1460 X31.9345 Y22.7921
N1470 X27.0385 Y28.2982
N1480 X25.0396 Y30.2737
N1490 X24.9199 Y30.3251
N1500 X24.7781 Y30.3450
N1510 X12.5843 Y30.3250
N1520 X12.4646 Y30.2737
N1530 X12.3624 Y30.1931
N1540 X12.2845 Y30.0888
N1550 X12.2362 Y29.9678
N1560 X12.2196 Y29.8385
N1570 X12.2192 Y28.2089
N1580 X12.1908 Y28.1116
N1590 X12.1202 Y28.0422
N1600 X12.0196 Y28.0150
N1610 X11.9340
N1620 G03 X11.6767 Y27.7649 I0.0117 J-0.2695 F2000.0
N1630 G01 X11.6761 Y27.7571 F2000
N1640 Y25.5829
N1650 G03 X11.9262 Y25.3256 I0.2695 J0.0117 F2000.0
N1660 G01 X11.9340 Y25.3250 F2000
N1670 X13.5053
N1680 G03 X13.7625 Y25.5751 I-0.0122 J0.2698 F2000.0
N1690 G01 X13.7631 Y25.5829 F2000
N1700 Y27.7571
N1710 G03 X13.5130 Y28.0144 I-0.2695 J-0.0117 F2000.0
N1720 G01 X13.4064 Y28.0168 F2000
N1730 X13.3093 Y28.0492
N1740 X13.2434 Y28.1210
N1750 X13.2196 Y28.2138
N1760 X13.2214 Y29.1582
N1770 X13.2513 Y29.2525
N1780 X13.3279 Y29.3222
N1790 X13.4196 Y29.3450
N1800 X24.5505 Y29.3370
N1810 X24.6361 Y29.2864
N1820 X26.3286 Y27.5935
N1830 X31.5258 Y21.7899
N1840 X31.7762 Y21.7250
N1850 X51.8590 Y21.7156
N1860 X51.9394 Y21.6680
N1870 X52.8354 Y20.7602
N1880 X52.8596 Y20.6651
N1890 X52.8565 Y-17.5401
N1900 X52.8120 Y-17.6523
N1910 X50.5780 Y-20.2636
N1920 X50.4788 Y-20.2900
N1930 X48.0756 Y-20.3064
N1940 X48.0075 Y-20.3438
N1950 X47.9543 Y-20.4004
N1960 X47.9212 Y-20.4707
N1970 X47.9096 Y-20.5479
N1980 X47.8982 Y-23.2215
N1990 X47.8436 Y-23.3030
N2000 X47.5037 Y-23.5901
N2010 X47.3868 Y-23.6300
N2020 X35.4443 Y-23.6500
N2030 X35.3246 Y-23.7013
N2040 X35.2224 Y-23.7819
N2050 X35.1445 Y-23.8862
N2060 X35.0962 Y-24.0072
N2070 X35.0796 Y-24.1365
N2080 X35.0778 Y-25.9832
N2090 X35.0437 Y-26.0821
N2100 X34.9725 Y-26.1467
N2110 X34.8820 Y-26.1699
N2120 X-22.4909 Y-26.1688
N2130 X-22.5750 Y-26.1447
N2140 X-22.6429 Y-26.0862
N2150 X-27.8637 Y-18.7473
N2160 X-27.8454 Y-18.5656
N2170 Y-16.9944
N2180 G03 X-28.0959 Y-16.7370 I-0.2696 J-0.0118 F2000.0
N2190 G01 X-28.1626 Y-16.7137 F2000
N2200 X-28.2349 Y-16.6444
N2210 X-28.2643 Y-16.5415
N2220 X-28.2463 Y-16.4579
N2230 X-28.1740 Y-16.3721
N2240 X-28.0608 Y-16.2973
N2250 X-27.8980 Y-16.1466
N2260 X-27.7623 Y-15.9711
N2270 X-27.6574 Y-15.7757
N2280 X-27.5860 Y-15.5657
N2290 X-27.5650 Y-15.4400
N2300 X-28.0704
N2310 X-28.1287 Y-15.6054
N2320 X-28.2369 Y-15.7751
N2330 X-28.3711 Y-15.9049
N2340 X-28.5235 Y-16.0002
N2350 X-28.8889 Y-16.0835
N2360 X-29.6715 Y-16.0636
N2370 X-29.8906 Y-15.9833
N2380 X-30.0270 Y-15.8920
N2390 X-30.1568 Y-15.7578
N2400 X-30.2521 Y-15.6054
N2410 X-30.3104 Y-15.4400
N2420 X-30.5631
N2430 G00 Z5.0000
N2440 X-29.6211 Y-18.6235
N2450 Z1.0000
N2460 G01 Z-0.1000 F1000
N2470 X-30.2854 F2000
N2480 G02 X-30.3342 Y-18.5845 I0.0002 J0.0502 F2000.0
N2490 G01 X-30.3354 Y-16.9853 F2000
N2500 G02 X-30.2939 Y-16.9372 I0.0505 J-0.0016 F2000.0
N2510 G01 X-28.0954 Y-16.9365 F2000
N2520 G02 X-28.0464 Y-16.9767 I-0.0000 J-0.0500 F2000.0
N2530 G01 X-28.0456 Y-18.5784 F2000
N2540 G02 X-28.0893 Y-18.6231 I-0.0500 J0.0052 F2000.0
N2550 G01 X-28.2191 Y-18.6235 F2000
N2560 X-22.6859 Y-26.3699
N2570 X35.2795
N2580 Y-24.1300
N2590 G02 X35.5502 Y-23.8313 I0.3002 J-0.0000 F2000.0
N2600 G01 X47.5341 Y-23.8299 F2000
N2610 X48.1096 Y-23.3393
N2620 Y-20.5400
N2630 G02 X48.1499 Y-20.4910 I0.0500 J-0.0001 F2000.0
N2640 G01 X50.6637 Y-20.4900 F2000
N2650 X53.0595 Y-17.6697
N2660 Y20.8307
N2670 X51.9653 Y21.9249
N2680 X31.7696
N2690 G02 X31.5453 Y22.0256 I0.0011 J0.3025 F2000.0
N2700 G01 X26.4711 Y27.7340 F2000
N2710 X24.6603 Y29.5449
N2720 X13.0197
N2730 Y27.8150
N2740 X13.5168 Y27.8149
N2750 G02 X13.5627 Y27.7711 I-0.0036 J-0.0498 F2000.0
N2760 G01 X13.5631 Y25.5738 F2000
N2770 G02 X13.5204 Y25.5255 I-0.0502 J0.0014 F2000.0
N2780 G01 X11.9261 Y25.5250 F2000
N2790 G02 X11.8766 Y25.5677 I0.0002 J0.0503 F2000.0
N2800 G01 X11.8761 Y27.7650 F2000
N2810 G02 X11.9140 Y27.8135 I0.0498 J0.0001 F2000.0
N2820 G01 X12.4195 Y27.8150 F2000
N2830 Y29.8450
N2840 G02 X12.6902 Y30.1437 I0.3003 J-0.0001 F2000.0
N2850 G01 X24.7846 Y30.1451 F2000
N2860 G02 X24.9750 Y30.0770 I-0.0001 J-0.3004 F2000.0
N2870 G01 X26.9018 Y28.1522 F2000
N2880 X31.9044 Y22.5251
N2890 X52.0896
N2900 G02 X52.2800 Y22.4570 I-0.0002 J-0.3007 F2000.0
N2910 G01 X53.5718 Y21.1672 F2000
N2920 G02 X53.6583 Y20.9844 I-0.2132 J-0.2128 F2000.0
N2930 G01 X53.6596 Y-17.7875 F2000
N2940 G02 X53.6063 Y-17.9510 I-0.3042 J0.0087 F2000.0
N2950 G01 X51.2096 Y-20.7745 F2000
N2960 Y-23.5400
N2970 G02 X51.1657 Y-23.5896 I-0.0499 J-0.0001 F2000.0
N2980 G01 X48.7051 Y-23.5900 F2000
N2990 X47.8340 Y-24.3628
N3000 G02 X47.6740 Y-24.4287 I-0.1916 J0.2381 F2000.0
N3010 G01 X35.8797 Y-24.4301 F2000
N3020 Y-26.6700
N3030 G02 X35.6090 Y-26.9687 I-0.3000 J-0.0001 F2000.0
N3040 G01 X-22.8404 Y-26.9701 F2000
N3050 G02 X-23.0732 Y-26.8594 I0.0019 J0.3042 F2000.0
N3060 G01 X-28.9567 Y-18.6235 F2000
N3070 X-29.6211
N3080 G00 Z5.0000
N3090 X-27.8177 Y-15.0400
N3100 Z1.0000
N3110 G01 Z-0.1000 F1000
N3120 X-27.5650 F2000
N3130 X-27.5880 Y-14.9063
N3140 X-27.6607 Y-14.6968
N3150 X-27.7668 Y-14.5020
N3160 X-27.9036 Y-14.3274
N3170 X-28.0673 Y-14.1777
N3180 X-28.2533 Y-14.0569
N3190 X-28.4567 Y-13.9684
N3200 G03 X-28.9904 Y-13.8965 I-0.4732 J-1.4954 F2000.0
N3210 G01 Y-14.3965 F2000
N3220 X-28.7092 Y-14.4164
N3230 X-28.4913 Y-14.4961
N3240 X-28.3538 Y-14.5880
N3250 X-28.2240 Y-14.7222
N3260 X-28.1287 Y-14.8746
N3270 X-28.0704 Y-15.0400
N3280 X-27.8177
N3290 G00 Z5.0000
N3300 X-29.3646 Y-28.2980
N3310 Z1.0000
N3320 G01 Z-0.1000 F1000
N3330 X-29.5110 Y-28.2797 F2000
N3340 X-29.8061 Y-28.2801
N3350 X-30.0988 Y-28.3175
N3360 X-30.3845 Y-28.3913
N3370 X-30.6587 Y-28.5003
N3380 X-30.9171 Y-28.6428
N3390 X-31.1556 Y-28.8165
N3400 X-31.3704 Y-29.0188
N3410 X-31.5582 Y-29.2464
N3420 X-31.7160 Y-29.4958
N3430 X-31.8412 Y-29.7629
N3440 X-31.9321 Y-30.0437
N3450 X-31.9870 Y-30.3336
N3460 X-32.0051 Y-30.6281
N3470 X-31.9862 Y-30.9226
N3480 X-31.9305 Y-31.2124
N3490 X-31.8389 Y-31.4929
N3500 X-31.7129 Y-31.7597
N3510 X-31.5545 Y-32.0087
N3520 X-31.3661 Y-32.2358
N3530 X-31.1507 Y-32.4375
N3540 X-30.9118 Y-32.6106
N3550 X-30.6530 Y-32.7524
N3560 X-30.3785 Y-32.8607
N3570 X-30.0926 Y-32.9337
N3580 X-29.7998 Y-32.9703
N3590 X-29.5047 Y-32.9699
N3600 X-29.2120 Y-32.9325
N3610 X-28.9263 Y-32.8587
N3620 X-28.6521 Y-32.7497
N3630 X-28.3937 Y-32.6072
N3640 X-28.1552 Y-32.4335
N3650 X-27.9404 Y-32.2312
N3660 X-27.7526 Y-32.0036
N3670 X-27.5948 Y-31.7542
N3680 X-27.4695 Y-31.4871
N3690 X-27.3787 Y-31.2063
N3700 X-27.3238 Y-30.9164
N3710 X-27.3057 Y-30.6219
N3720 X-27.3246 Y-30.3274
N3730 X-27.3803 Y-30.0376
N3740 X-27.4718 Y-29.7571
N3750 X-27.5978 Y-29.4903
N3760 X-27.7563 Y-29.2413
N3770 X-27.9447 Y-29.0142
N3780 X-28.1601 Y-28.8125
N3790 X-28.3990 Y-28.6394
N3800 X-28.6578 Y-28.4976
N3810 X-28.9323 Y-28.3893
N3820 X-29.2182 Y-28.3163
N3830 X-29.3646 Y-28.2980
N3840 G00 Z5.0000
N3850 X-21.2557 Y-14.6662
N3860 Z1.0000
N3870 G01 Z-0.1000 F1000
N3880 X-18.0355 Y-18.1961 F2000
N3890 X-17.9184 Y-18.2531
N3900 X-17.7538 Y-18.2800
N3910 X-16.3529 Y-18.2939
N3920 X-16.2773 Y-18.3472
N3930 X-16.2147 Y-18.4224
N3940 X-16.0791 Y-18.5350
N3950 X-15.9240 Y-18.6190
N3960 X-15.7556 Y-18.6710
N3970 X-15.5705 Y-18.6900
N3980 X-14.2047 Y-18.6729
N3990 X-14.0358 Y-18.6227
N4000 X-13.8798 Y-18.5404
N4010 X-13.7430 Y-18.4293
N4020 X-13.6304 Y-18.2937
N4030 X-13.5464 Y-18.1386
N4040 X-13.4943 Y-17.9702
N4050 X-13.4761 Y-17.7949
N4060 X-13.4924 Y-17.6193
N4070 X-13.5427 Y-17.4504
N4080 X-13.6250 Y-17.2944
N4090 X-13.7361 Y-17.1576
N4100 X-13.8717 Y-17.0450
N4110 X-14.0267 Y-16.9610
N4120 X-14.1952 Y-16.9090
N4130 X-14.3803 Y-16.8900
N4140 X-15.7461 Y-16.9071
N4150 X-15.9150 Y-16.9573
N4160 X-16.0709 Y-17.0396
N4170 X-16.3216 Y-17.2583
N4180 X-16.4051 Y-17.2798
N4190 X-17.5122 Y-17.2703
N4200 X-17.5987 Y-17.2145
N4210 X-23.5636 Y-10.6521
N4220 X-23.6104 Y-10.5244
N4230 X-23.6095 Y1.2147
N4240 X-23.5873 Y1.2959
N4250 X-23.5745 Y1.3171
N4260 X-23.5033 Y1.3817
N4270 X-23.4116 Y1.4050
N4280 X-22.8832 Y1.4035
N4290 X-22.8002 Y1.3808
N4300 X-22.5779 Y1.1374
N4310 X-22.4248 Y1.0208
N4320 X-22.2529 Y0.9342
N4330 X-22.0680 Y0.8807
N4340 X-21.8673 Y0.8615
N4350 X-21.0818 Y0.8791
N4360 X-20.8964 Y0.9309
N4370 X-20.7238 Y1.0159
N4380 X-20.5697 Y1.1312
N4390 X-20.4394 Y1.2729
N4400 X-20.3374 Y1.4360
N4410 X-20.2671 Y1.6152
N4420 X-20.2309 Y1.8042
N4430 X-20.2301 Y1.9967
N4440 X-20.2646 Y2.1860
N4450 X-20.3333 Y2.3657
N4460 X-20.4339 Y2.5298
N4470 X-20.5629 Y2.6726
N4480 X-20.7160 Y2.7892
N4490 X-20.8879 Y2.8758
N4500 X-21.0728 Y2.9293
N4510 X-21.2735 Y2.9485
N4520 X-22.0590 Y2.9309
N4530 X-22.2443 Y2.8791
N4540 X-22.4170 Y2.7941
N4550 X-22.5711 Y2.6788
N4560 X-22.8062 Y2.4270
N4570 X-22.8956 Y2.4050
N4580 X-24.2457 Y2.3850
N4590 X-24.3654 Y2.3337
N4600 X-24.4676 Y2.2531
N4610 X-24.5455 Y2.1488
N4620 X-24.5938 Y2.0278
N4630 X-24.6104 Y1.8985
N4640 X-24.6036 Y-10.8433
N4650 X-24.5391 Y-11.0500
N4660 X-24.4760 Y-11.1362
N4670 X-21.2557 Y-14.6662
N4680 G00 Z5.0000
N4690 X-15.9830 Y-14.6597
N4700 Z1.0000
N4710 G01 Z-0.1000 F1000
N4720 G02 X-15.6440 Y-14.5334 I0.4024 J-0.5619 F2000.0
N4730 G01 X-14.3742 Y-14.5300 F2000
N4740 G02 X-14.3092 Y-15.9268 I-0.0014 J-0.7000 F2000.0
N4750 G01 X-15.5754 Y-15.9300 F2000
N4760 G02 X-16.2022 Y-15.5401 I-0.0084 J0.6853 F2000.0
N4770 G01 X-17.7616 F2000
N4780 G02 X-17.9726 Y-15.4522 I0.0027 J0.3036 F2000.0
N4790 G01 X-21.7983 Y-10.9903 F2000
N4800 X-21.8579 Y-10.8809
N4810 X-21.8705 Y-1.4785
N4820 G02 X-22.7142 Y-0.6770 I-0.0005 J0.8442 F2000.0
N4830 X-21.9558 Y0.2043 I0.8425 J0.0420
N4840 G01 X-21.2689 Y0.2085 F2000
N4850 G02 X-21.2703 Y-1.4785 I-0.0001 J-0.8435 F2000.0
N4860 G01 Y-10.6840 F2000
N4870 X-17.6224 Y-14.9399
N4880 X-16.2117
N4890 G02 X-15.9830 Y-14.6597 I0.6311 J-0.2817 F2000.0
N4900 G00 Z5.0000
N4910 X-16.2045 Y-14.5989
N4920 Z1.0000
N4930 G01 Z-0.1000 F1000
N4940 X-16.3380 Y-14.7183 F2000
N4950 X-16.4262 Y-14.7400
N4960 X-17.5057 Y-14.7283
N4970 X-17.5903 Y-14.6702
N4980 X-21.0274 Y-10.6590
N4990 X-21.0704 Y-10.5361
N5000 X-21.0692 Y-1.7988
N5010 X-21.0233 Y-1.6845
N5020 X-21.0030 Y-1.6616
N5030 X-20.7160 Y-1.5192
N5040 X-20.5629 Y-1.4026
N5050 X-20.4339 Y-1.2598
N5060 X-20.3333 Y-1.0957
N5070 X-20.2646 Y-0.9160
N5080 X-20.2301 Y-0.7267
N5090 X-20.2309 Y-0.5342
N5100 X-20.2671 Y-0.3452
N5110 X-20.3374 Y-0.1660
N5120 X-20.4394 Y-0.0029
N5130 X-20.5697 Y0.1388
N5140 X-20.7238 Y0.2541
N5150 X-20.8964 Y0.3391
N5160 X-21.0818 Y0.3909
N5170 X-21.2735 Y0.4085
N5180 X-22.0590 Y0.3909
N5190 X-22.2443 Y0.3391
N5200 X-22.4170 Y0.2541
N5210 X-22.5711 Y0.1388
N5220 X-22.7013 Y-0.0029
N5230 X-22.8034 Y-0.1660
N5240 X-22.8737 Y-0.3452
N5250 X-22.9099 Y-0.5342
N5260 X-22.9107 Y-0.7267
N5270 X-22.8762 Y-0.9160
N5280 X-22.8075 Y-1.0957
N5290 X-22.7069 Y-1.2598
N5300 X-22.5779 Y-1.4026
N5310 X-22.4248 Y-1.5192
N5320 X-22.1995 Y-1.6253
N5330 X-22.0952 Y-1.7133
N5340 X-22.0704 Y-1.8084
N5350 X-22.0636 Y-10.8475
N5360 X-21.9991 Y-11.0500
N5370 X-21.9458 Y-11.1254
N5380 X-18.1085 Y-15.5972
N5390 X-18.0227 Y-15.6644
N5400 X-17.9321 Y-15.7083
N5410 X-17.7538 Y-15.7400
N5420 X-16.3376 Y-15.7535
N5430 X-16.0791 Y-15.9750
N5440 X-15.9240 Y-16.0590
N5450 X-15.7556 Y-16.1110
N5460 X-15.5754 Y-16.1298
N5470 X-14.2047 Y-16.1129
N5480 X-14.0358 Y-16.0627
N5490 X-13.8798 Y-15.9804
N5500 X-13.7430 Y-15.8693
N5510 X-13.6304 Y-15.7337
N5520 X-13.5464 Y-15.5786
N5530 X-13.4943 Y-15.4102
N5540 X-13.4761 Y-15.2349
N5550 X-13.4924 Y-15.0593
N5560 X-13.5427 Y-14.8904
N5570 X-13.6250 Y-14.7344
N5580 X-13.7361 Y-14.5976
N5590 X-13.8717 Y-14.4850
N5600 X-14.0267 Y-14.4010
N5610 X-14.1952 Y-14.3490
N5620 X-14.3754 Y-14.3302
N5630 X-15.7461 Y-14.3471
N5640 X-15.9150 Y-14.3973
N5650 X-16.0709 Y-14.4796
N5660 X-16.2045 Y-14.5989
N5670 G00 Z5.0000
N5680 X-14.8876 Y-13.5815
N5690 Z1.0000
N5700 G01 Z-0.1000 F1000
N5710 X-14.2047 Y-13.5729 F2000
N5720 X-14.0358 Y-13.5227
N5730 X-13.8798 Y-13.4404
N5740 X-13.6210 Y-13.2117
N5750 X-13.5351 Y-13.1901
N5760 X-10.8081 Y-13.1957
N5770 X-10.7282 Y-13.2287
N5780 X-10.6617 Y-13.3057
N5790 X-10.6404 Y-13.3927
N5800 X-10.6204 Y-22.9953
N5810 X-10.5691 Y-23.1150
N5820 X-10.4885 Y-23.2172
N5830 X-10.3841 Y-23.2951
N5840 X-10.2632 Y-23.3434
N5850 X-10.1338 Y-23.3600
N5860 X28.7299 Y-23.3400
N5870 X28.8496 Y-23.2887
N5880 X28.9518 Y-23.2081
N5890 X29.0297 Y-23.1038
N5900 X29.0780 Y-22.9828
N5910 X29.0946 Y-22.8535
N5920 X29.0951 Y-16.5677
N5930 X29.1221 Y-16.4737
N5940 X29.1940 Y-16.4022
N5950 X29.2946 Y-16.3750
N5960 X40.1599 Y-16.3550
N5970 X40.2796 Y-16.3037
N5980 X40.3818 Y-16.2231
N5990 X40.4597 Y-16.1188
N6000 X40.5080 Y-15.9978
N6010 X40.5246 Y-15.8685
N6020 X40.5251 Y16.2673
N6030 X40.5477 Y16.3509
N6040 X40.6251 Y16.4335
N6050 X40.7234 Y16.4600
N6060 X47.7228 Y16.4582
N6070 X47.8171 Y16.4283
N6080 X47.8773 Y16.3675
N6090 X47.9096 Y16.2612
N6100 Y15.4679
N6110 G03 X48.1597 Y15.2106 I0.2695 J0.0117 F2000.0
N6120 G01 X48.1675 Y15.2100 F2000
N6130 X51.1518
N6140 G03 X51.4090 Y15.4601 I-0.0122 J0.2698 F2000.0
N6150 G01 X51.4096 Y15.4679 F2000
N6160 Y18.4521
N6170 G03 X51.1595 Y18.7094 I-0.2695 J-0.0117 F2000.0
N6180 G01 X51.1518 Y18.7100 F2000
N6190 X48.1675
N6200 G03 X47.9102 Y18.4599 I0.0117 J-0.2695 F2000.0
N6210 G01 X47.9096 Y18.4521 F2000
N6220 X47.9092 Y17.6539
N6230 X47.8821 Y17.5587
N6240 X47.8102 Y17.4872
N6250 X47.7131 Y17.4601
N6260 X40.4868 Y17.4608
N6270 X40.3780 Y17.4985
N6280 X40.2796 Y17.5737
N6290 X40.1599 Y17.6250
N6300 X40.0311 Y17.6437
N6310 X39.9018 Y17.6284
N6320 X39.7809 Y17.5801
N6330 X39.6765 Y17.5022
N6340 X39.5959 Y17.4000
N6350 X39.5446 Y17.2803
N6360 X39.5246 Y17.1385
N6370 X39.5242 Y10.8539
N6380 X39.4896 Y10.7487
N6390 X39.4186 Y10.6837
N6400 X39.3246 Y10.6600
N6410 X27.8210 Y10.6744
N6420 X27.7466 Y10.7272
N6430 X27.6839 Y10.8024
N6440 X27.5483 Y10.9150
N6450 X27.3933 Y10.9990
N6460 X27.0514 Y11.0847
N6470 X26.9711 Y11.1613
N6480 X26.9447 Y11.2573
N6490 X26.9451 Y11.6064
N6500 X26.9695 Y11.6937
N6510 X27.0327 Y11.7647
N6520 X27.1158 Y11.7964
N6530 X27.2153 Y11.8071
N6540 X27.3842 Y11.8573
N6550 X27.5402 Y11.9396
N6560 X27.6770 Y12.0507
N6570 X27.7896 Y12.1863
N6580 X27.8736 Y12.3414
N6590 X27.9257 Y12.5098
N6600 X27.9439 Y12.6851
N6610 X27.9276 Y12.8607
N6620 X27.8773 Y13.0296
N6630 X27.7950 Y13.1856
N6640 X27.6839 Y13.3224
N6650 X27.5483 Y13.4350
N6660 X27.3933 Y13.5190
N6670 X27.2248 Y13.5710
N6680 X27.0397 Y13.5900
N6690 X25.6739 Y13.5729
N6700 X25.5050 Y13.5227
N6710 X25.3491 Y13.4404
N6720 X25.2122 Y13.3293
N6730 X25.0996 Y13.1937
N6740 X25.0156 Y13.0386
N6750 X24.9636 Y12.8702
N6760 X24.9453 Y12.6949
N6770 X24.9617 Y12.5193
N6780 X25.0119 Y12.3504
N6790 X25.0942 Y12.1944
N6800 X25.2053 Y12.0576
N6810 X25.3409 Y11.9450
N6820 X25.4960 Y11.8610
N6830 X25.8379 Y11.7753
N6840 X25.9181 Y11.6987
N6850 X25.9446 Y11.5991
N6860 X25.9434 Y11.2500
N6870 X25.9197 Y11.1663
N6880 X25.8544 Y11.0941
N6890 X25.7723 Y11.0633
N6900 X25.6739 Y11.0529
N6910 X25.5050 Y11.0027
N6920 X25.3491 Y10.9204
N6930 X25.2122 Y10.8093
N6940 X25.0996 Y10.6737
N6950 X25.0156 Y10.5186
N6960 X24.9636 Y10.3502
N6970 X24.9453 Y10.1749
N6980 X24.9617 Y9.9993
N6990 X25.0119 Y9.8304
N7000 X25.0942 Y9.6744
N7010 X25.2053 Y9.5376
N7020 X25.3409 Y9.4250
N7030 X25.4960 Y9.3410
N7040 X25.6644 Y9.2890
N7050 X25.8495 Y9.2700
N7060 X27.2153 Y9.2871
N7070 X27.3842 Y9.3373
N7080 X27.5402 Y9.4196
N7090 X27.7908 Y9.6383
N7100 X27.8778 Y9.6600
N7110 X39.3307 Y9.6596
N7120 X39.4269 Y9.6318
N7130 X39.4954 Y9.5637
N7140 X39.5246 Y9.4600
N7150 X39.5241 Y-2.4823
N7160 X39.4896 Y-2.5863
N7170 X39.4128 Y-2.6533
N7180 X39.3246 Y-2.6750
N7190 X27.1314 Y-2.6732
N7200 X27.0333 Y-2.6400
N7210 X26.9659 Y-2.5621
N7220 X26.9450 Y-2.4809
N7230 X26.9666 Y-2.2804
N7240 X27.0393 Y-2.2020
N7250 X27.1250 Y-2.1718
N7260 X27.2248 Y-2.1610
N7270 X27.3933 Y-2.1090
N7280 X27.5483 Y-2.0250
N7290 X27.6839 Y-1.9124
N7300 X27.7950 Y-1.7756
N7310 X27.8773 Y-1.6196
N7320 X27.9276 Y-1.4507
N7330 X27.9439 Y-1.2751
N7340 X27.9257 Y-1.0998
N7350 X27.8736 Y-0.9314
N7360 X27.7896 Y-0.7763
N7370 X27.6770 Y-0.6407
N7380 X27.5402 Y-0.5296
N7390 X27.3842 Y-0.4473
N7400 X27.2153 Y-0.3971
N7410 X27.0446 Y-0.3802
N7420 X25.6739 Y-0.3971
N7430 X25.5050 Y-0.4473
N7440 X25.3491 Y-0.5296
N7450 X25.2122 Y-0.6407
N7460 X25.0996 Y-0.7763
N7470 X25.0156 Y-0.9314
N7480 X24.9636 Y-1.0998
N7490 X24.9453 Y-1.2751
N7500 X24.9617 Y-1.4507
N7510 X25.0119 Y-1.6196
N7520 X25.0942 Y-1.7756
N7530 X25.2053 Y-1.9124
N7540 X25.3409 Y-2.0250
N7550 X25.4960 Y-2.1090
N7560 X25.8469 Y-2.1990
N7570 X25.9229 Y-2.2826
N7580 X25.9443 Y-2.3650
N7590 X25.9287 Y-2.7859
N7600 X25.8597 Y-2.8727
N7610 X25.7642 Y-2.9082
N7620 X25.6644 Y-2.9190
N7630 X25.4960 Y-2.9710
N7640 X25.3409 Y-3.0550
N7650 X25.2053 Y-3.1676
N7660 X25.0942 Y-3.3044
N7670 X25.0119 Y-3.4604
N7680 X24.9617 Y-3.6293
N7690 X24.9453 Y-3.8049
N7700 X24.9636 Y-3.9802
N7710 X25.0156 Y-4.1486
N7720 X25.0996 Y-4.3037
N7730 X25.2122 Y-4.4393
N7740 X25.3491 Y-4.5504
N7750 X25.5050 Y-4.6327
N7760 X25.6739 Y-4.6829
N7770 X25.8495 Y-4.7000
N7780 X27.2153 Y-4.6829
N7790 X27.3842 Y-4.6327
N7800 X27.5402 Y-4.5504
N7810 X27.6770 Y-4.4393
N7820 X27.7896 Y-4.3037
N7830 X27.8736 Y-4.1486
N7840 X27.9257 Y-3.9802
N7850 X27.9689 Y-3.7685
N7860 X28.0295 Y-3.7082
N7870 X28.1344 Y-3.6751
N7880 X39.3307 Y-3.6754
N7890 X39.4359 Y-3.7100
N7900 X39.5009 Y-3.7810
N7910 X39.5246 Y-3.8750
N7920 X39.5241 Y-15.1823
N7930 X39.4896 Y-15.2863
N7940 X39.4128 Y-15.3533
N7950 X39.3246 Y-15.3750
N7960 X28.1271 Y-15.3738
N7970 X28.0424 Y-15.3493
N7980 X27.9687 Y-15.2791
N7990 X27.9401 Y-15.2016
N8000 X27.9276 Y-15.0793
N8010 X27.8773 Y-14.9104
N8020 X27.7950 Y-14.7544
N8030 X27.6839 Y-14.6176
N8040 X27.5483 Y-14.5050
N8050 X27.3933 Y-14.4210
N8060 X27.2248 Y-14.3690
N8070 X27.0397 Y-14.3500
N8080 X25.6739 Y-14.3671
N8090 X25.5050 Y-14.4173
N8100 X25.3491 Y-14.4996
N8110 X25.2122 Y-14.6107
N8120 X25.0996 Y-14.7463
N8130 X25.0156 Y-14.9014
N8140 X24.9636 Y-15.0698
N8150 X24.9453 Y-15.2451
N8160 X24.9617 Y-15.4207
N8170 X25.0119 Y-15.5896
N8180 X25.0942 Y-15.7456
N8190 X25.2053 Y-15.8824
N8200 X25.3409 Y-15.9950
N8210 X25.4960 Y-16.0790
N8220 X25.8511 Y-16.1718
N8230 X25.9193 Y-16.2435
N8240 X25.9445 Y-16.3373
N8250 X25.9442 Y-16.6852
N8260 X25.9189 Y-16.7746
N8270 X25.8544 Y-16.8459
N8280 X25.7723 Y-16.8767
N8290 X25.6739 Y-16.8871
N8300 X25.5050 Y-16.9373
N8310 X25.3491 Y-17.0196
N8320 X25.2122 Y-17.1307
N8330 X25.0996 Y-17.2663
N8340 X25.0156 Y-17.4214
N8350 X24.9636 Y-17.5898
N8360 X24.9453 Y-17.7651
N8370 X24.9617 Y-17.9407
N8380 X25.0119 Y-18.1096
N8390 X25.0942 Y-18.2656
N8400 X25.2053 Y-18.4024
N8410 X25.3409 Y-18.5150
N8420 X25.4960 Y-18.5990
N8430 X25.6644 Y-18.6510
N8440 X25.8446 Y-18.6698
N8450 X27.2153 Y-18.6529
N8460 X27.3842 Y-18.6027
N8470 X27.5402 Y-18.5204
N8480 X27.8059 Y-18.2823
N8490 X27.8852 Y-18.2625
N8500 X27.9108 Y-18.2629
N8510 X28.0022 Y-18.2928
N8520 X28.0615 Y-18.3526
N8530 X28.0945 Y-18.4575
N8540 X28.0813 Y-19.7106
N8550 X28.0132 Y-19.7996
N8560 X27.9231 Y-19.8369
N8570 X27.8191 Y-19.8241
N8580 X27.7457 Y-19.7718
N8590 X27.6839 Y-19.6976
N8600 X27.5483 Y-19.5850
N8610 X27.3933 Y-19.5010
N8620 X27.2248 Y-19.4490
N8630 X27.0397 Y-19.4300
N8640 X25.6739 Y-19.4471
N8650 X25.5050 Y-19.4973
N8660 X25.3491 Y-19.5796
N8670 X25.0902 Y-19.8083
N8680 X25.0032 Y-19.8300
N8690 X1.9811 Y-19.8293
N8700 X1.8783 Y-19.7950
N8710 X1.8139 Y-19.7252
N8720 X1.7896 Y-19.6300
N8730 X1.7909 Y25.3560
N8740 X1.8191 Y25.4482
N8750 X2.2022 Y25.8125
N8760 X2.2877 Y25.8324
N8770 X2.3774 Y25.8092
N8780 X2.4619 Y25.7275
N8790 X2.4861 Y25.6336
N8800 X2.5021 Y25.4474
N8810 X2.5438 Y25.3318
N8820 X2.6103 Y25.2283
N8830 X2.6981 Y25.1423
N8840 X2.8029 Y25.0779
N8850 X2.9194 Y25.0385
N8860 X3.0417 Y25.0250
N8870 X3.6296
N8880 Y25.5250
N8890 X3.0228 Y25.5268
N8900 G02 X2.9861 Y25.5750 I0.0132 J0.0481 F2000.0
N8910 G01 X2.9865 Y27.7711 F2000
N8920 G02 X3.0337 Y27.8149 I0.0494 J-0.0059 F2000.0
N8930 G01 X3.6296 Y27.8150 F2000
N8940 Y28.3150
N8950 X2.9085 Y28.2991
N8960 X2.7929 Y28.2573
N8970 X2.6894 Y28.1908
N8980 X2.6034 Y28.1030
N8990 X2.5390 Y27.9982
N9000 X2.4996 Y27.8818
N9010 X2.4624 Y27.6154
N9020 X2.3992 Y27.5429
N9030 X2.3066 Y27.5087
N9040 X2.1980 Y27.5290
N9050 X2.1311 Y27.5818
N9060 X2.0634 Y27.6707
N9070 X1.9217 Y27.8009
N9080 X1.7586 Y27.9030
N9090 X1.5794 Y27.9733
N9100 X1.3904 Y28.0095
N9110 X1.1980 Y28.0103
N9120 X1.0086 Y27.9758
N9130 X0.8289 Y27.9071
N9140 X0.6648 Y27.8065
N9150 X0.5220 Y27.6775
N9160 X0.4054 Y27.5244
N9170 X0.3188 Y27.3525
N9180 X0.2653 Y27.1676
N9190 X0.2461 Y26.9669
N9200 X0.2637 Y26.1814
N9210 X0.3155 Y25.9961
N9220 X0.4005 Y25.8234
N9230 X0.5158 Y25.6693
N9240 X0.7659 Y25.4388
N9250 X0.7896 Y25.3448
N9260 X0.8096 Y-20.4653
N9270 X0.8609 Y-20.5850
N9280 X0.9415 Y-20.6872
N9290 X1.0459 Y-20.7651
N9300 X1.1668 Y-20.8134
N9310 X1.2962 Y-20.8300
N9320 X25.0764 Y-20.8444
N9330 X25.1509 Y-20.8972
N9340 X25.2053 Y-20.9624
N9350 X25.3409 Y-21.0750
N9360 X25.4960 Y-21.1590
N9370 X25.6644 Y-21.2110
N9380 X25.8495 Y-21.2300
N9390 X27.2153 Y-21.2129
N9400 X27.3842 Y-21.1627
N9410 X27.5402 Y-21.0804
N9420 X27.8059 Y-20.8423
N9430 X27.8999 Y-20.8211
N9440 X28.0059 Y-20.8560
N9450 X28.0704 Y-20.9258
N9460 X28.0946 Y-21.0210
N9470 X28.0941 Y-22.1673
N9480 X28.0596 Y-22.2713
N9490 X27.9886 Y-22.3363
N9500 X27.8946 Y-22.3600
N9510 X-9.4465 Y-22.3596
N9520 X-9.5313 Y-22.3369
N9530 X-9.6139 Y-22.2595
N9540 X-9.6404 Y-22.1600
N9550 X-9.6397 Y25.9785
N9560 X-9.6094 Y26.0765
N9570 X-9.5298 Y26.1480
N9580 X-9.4416 Y26.1700
N9590 X-2.4142 Y26.1688
N9600 X-2.2944 Y26.1200
N9610 X-2.2770 Y26.1026
N9620 X-2.1346 Y25.8156
N9630 X-2.0180 Y25.6625
N9640 X-1.8752 Y25.5335
N9650 X-1.7111 Y25.4329
N9660 X-1.5314 Y25.3642
N9670 X-1.3420 Y25.3297
N9680 X-1.1496 Y25.3305
N9690 X-0.9606 Y25.3667
N9700 X-0.7814 Y25.4370
N9710 X-0.6183 Y25.5391
N9720 X-0.4766 Y25.6693
N9730 X-0.3613 Y25.8234
N9740 X-0.2763 Y25.9961
N9750 X-0.2244 Y26.1814
N9760 X-0.2071 Y26.3685
N9770 X-0.2244 Y27.1586
N9780 X-0.2763 Y27.3439
N9790 X-0.3613 Y27.5166
N9800 X-0.4766 Y27.6707
N9810 X-0.6183 Y27.8009
N9820 X-0.7814 Y27.9030
N9830 X-0.9606 Y27.9733
N9840 X-1.1496 Y28.0095
N9850 X-1.3420 Y28.0103
N9860 X-1.5314 Y27.9758
N9870 X-1.7111 Y27.9071
N9880 X-1.8752 Y27.8065
N9890 X-2.0180 Y27.6775
N9900 X-2.1346 Y27.5244
N9910 X-2.2334 Y27.3130
N9920 X-2.3114 Y27.2088
N9930 X-2.3344 Y27.1924
N9940 X-2.4203 Y27.1702
N9950 X-10.2757 Y27.1500
N9960 X-10.3954 Y27.0987
N9970 X-10.4976 Y27.0181
N9980 X-10.5755 Y26.9138
N9990 X-10.6238 Y26.7928
N10000 X-10.6404 Y26.6635
N10010 X-10.6409 Y15.9427
N10020 X-10.6631 Y15.8603
N10030 X-10.6763 Y15.8379
N10040 X-10.7475 Y15.7733
N10050 X-10.8392 Y15.7500
N10060 X-13.6015 Y15.7622
N10070 X-13.6825 Y15.8180
N10080 X-13.7361 Y15.8824
N10090 X-13.8717 Y15.9950
N10100 X-14.0267 Y16.0790
N10110 X-14.1952 Y16.1310
N10120 X-14.3803 Y16.1500
N10130 X-15.7461 Y16.1329
N10140 X-15.9150 Y16.0827
N10150 X-16.0709 Y16.0004
N10160 X-16.2078 Y15.8893
N10170 X-16.3204 Y15.7537
N10180 X-16.4044 Y15.5986
N10190 X-16.4564 Y15.4302
N10200 X-16.4747 Y15.2549
N10210 X-16.4583 Y15.0793
N10220 X-16.4081 Y14.9104
N10230 X-16.3258 Y14.7544
N10240 X-16.2147 Y14.6176
N10250 X-16.0791 Y14.5050
N10260 X-15.9240 Y14.4210
N10270 X-15.7556 Y14.3690
N10280 X-15.5705 Y14.3500
N10290 X-14.2047 Y14.3671
N10300 X-14.0358 Y14.4173
N10310 X-13.8798 Y14.4996
N10320 X-13.6210 Y14.7283
N10330 X-13.5351 Y14.7499
N10340 X-10.8284 Y14.7485
N10350 X-10.7339 Y14.7190
N10360 X-10.6641 Y14.6440
N10370 X-10.6404 Y14.5500
N10380 X-10.6413 Y1.9703
N10390 X-10.6714 Y1.8735
N10400 X-10.7510 Y1.8020
N10410 X-10.8369 Y1.7801
N10420 X-13.6026 Y1.7926
N10430 X-13.6825 Y1.8480
N10440 X-13.7361 Y1.9124
N10450 X-13.8717 Y2.0250
N10460 X-14.0267 Y2.1090
N10470 X-14.1952 Y2.1610
N10480 X-14.3803 Y2.1800
N10490 X-15.7556 Y2.1610
N10500 X-15.9240 Y2.1090
N10510 X-16.0791 Y2.0250
N10520 X-16.2147 Y1.9124
N10530 X-16.3258 Y1.7756
N10540 X-16.4081 Y1.6196
N10550 X-16.4583 Y1.4507
N10560 X-16.4747 Y1.2751
N10570 X-16.4564 Y1.0998
N10580 X-16.4044 Y0.9314
N10590 X-16.3204 Y0.7763
N10600 X-16.2078 Y0.6407
N10610 X-16.0709 Y0.5296
N10620 X-15.9150 Y0.4473
N10630 X-15.7461 Y0.3971
N10640 X-15.5705 Y0.3800
N10650 X-14.2047 Y0.3971
N10660 X-14.0358 Y0.4473
N10670 X-13.8798 Y0.5296
N10680 X-13.6210 Y0.7583
N10690 X-13.5340 Y0.7800
N10700 X-10.8272 Y0.7782
N10710 X-10.7329 Y0.7483
N10720 X-10.6621 Y0.6682
N10730 X-10.6404 Y0.5800
N10740 X-10.6409 Y-11.9973
N10750 X-10.6699 Y-12.0945
N10760 X-10.7409 Y-12.1635
N10770 X-10.8380 Y-12.1899
N10780 X-13.6015 Y-12.1778
N10790 X-13.6825 Y-12.1220
N10800 X-13.7361 Y-12.0576
N10810 X-13.8717 Y-11.9450
N10820 X-14.0267 Y-11.8610
N10830 X-14.1952 Y-11.8090
N10840 X-14.3803 Y-11.7900
N10850 X-15.7461 Y-11.8071
N10860 X-15.9150 Y-11.8573
N10870 X-16.0709 Y-11.9396
N10880 X-16.2078 Y-12.0507
N10890 X-16.3204 Y-12.1863
N10900 X-16.4044 Y-12.3414
N10910 X-16.4564 Y-12.5098
N10920 X-16.4747 Y-12.6851
N10930 X-16.4583 Y-12.8607
N10940 X-16.4081 Y-13.0296
N10950 X-16.3258 Y-13.1856
N10960 X-16.2147 Y-13.3224
N10970 X-16.0791 Y-13.4350
N10980 X-15.9240 Y-13.5190
N10990 X-15.7556 Y-13.5710
N11000 X-15.5705 Y-13.5900
N11010 X-14.8876 Y-13.5815
N11020 G00 Z5.0000
N11030 X-13.9719 Y-13.2642
N11040 Z1.0000
N11050 G01 Z-0.1000 F1000
N11060 G02 X-14.3068 Y-13.3866 I-0.3945 J0.5601 F2000.0
N11070 G01 X-15.5754 Y-13.3900 F2000
N11080 G02 X-15.6440 Y-11.9934 I0.0001 J0.7000 F2000.0
N11090 G01 X-14.3754 Y-11.9900 F2000
N11100 G02 X-13.7439 Y-12.3899 I0.0069 J-0.6876 F2000.0
N11110 G01 X-10.7754 F2000
N11120 X-10.4405 Y-12.3999
N11130 Y0.9799
N11140 X-13.7439
N11150 G02 X-14.3068 Y0.5834 I-0.6229 J0.2864 F2000.0
N11160 G01 X-15.5754 Y0.5800 F2000
N11170 G02 X-15.6416 Y1.9768 I0.0000 J0.7000 F2000.0
N11180 G01 X-14.3754 Y1.9800 F2000
N11190 G02 X-13.7439 Y1.5801 I0.0069 J-0.6876 F2000.0
N11200 G01 X-10.4405 F2000
N11210 Y14.9499
N11220 X-13.7439
N11230 G02 X-14.3068 Y14.5534 I-0.6229 J0.2864 F2000.0
N11240 G01 X-15.5754 Y14.5500 F2000
N11250 G02 X-15.6416 Y15.9468 I0.0000 J0.7000 F2000.0
N11260 G01 X-14.3754 Y15.9500 F2000
N11270 G02 X-13.7439 Y15.5501 I0.0069 J-0.6876 F2000.0
N11280 G01 X-10.4405 F2000
N11290 Y26.6712
N11300 G02 X-10.1698 Y26.9687 I0.3005 J-0.0015 F2000.0
N11310 G01 X-2.0939 Y26.9701 F2000
N11320 G02 X-0.4110 Y27.0542 I0.8435 J0.0014 F2000.0
N11330 G01 X-0.4069 Y26.3685 F2000
N11340 G02 X-2.0939 Y26.3699 I-0.8435 J0.0001 F2000.0
N11350 G01 X-9.8403 F2000
N11360 Y-22.5599
N11370 X28.2945
N11380 Y-16.1751
N11390 X26.7447
N11400 Y-17.0700
N11410 X27.0446
N11420 G02 X27.1132 Y-18.4666 I-0.0001 J-0.7000 F2000.0
N11430 G01 X25.8446 Y-18.4700 F2000
N11440 G02 X25.7748 Y-17.0735 I0.0000 J0.7000 F2000.0
N11450 G01 X26.1445 Y-17.0700 F2000
N11460 Y-15.9500
N11470 X25.8446
N11480 G02 X25.7760 Y-14.5534 I0.0001 J0.7000 F2000.0
N11490 G01 X27.0458 Y-14.5500 F2000
N11500 G02 X27.6644 Y-15.5749 I-0.0008 J-0.6996 F2000.0
N11510 G01 X39.7245 F2000
N11520 Y-3.4751
N11530 X27.6644
N11540 G02 X27.1132 Y-4.4966 I-0.6191 J-0.3254 F2000.0
N11550 G01 X25.8446 Y-4.5000 F2000
N11560 G02 X25.7748 Y-3.1035 I0.0000 J0.7000 F2000.0
N11570 G01 X26.1445 Y-3.1000 F2000
N11580 Y-1.9800
N11590 X25.8434
N11600 G02 X25.7760 Y-0.5834 I0.0013 J0.7000 F2000.0
N11610 G01 X27.0446 Y-0.5800 F2000
N11620 G02 X27.1132 Y-1.9766 I-0.0001 J-0.7000 F2000.0
N11630 G01 X26.7447 Y-1.9800 F2000
N11640 Y-2.8749
N11650 X39.7245
N11660 Y9.8599
N11670 X27.6714
N11680 G02 X27.1132 Y9.4734 I-0.6157 J0.2929 F2000.0
N11690 G01 X25.8446 Y9.4700 F2000
N11700 G02 X25.7748 Y10.8665 I0.0000 J0.7000 F2000.0
N11710 G01 X26.1445 Y10.8700 F2000
N11720 Y11.9900
N11730 X25.8446
N11740 G02 X25.7748 Y13.3865 I0.0002 J0.7000 F2000.0
N11750 G01 X27.0446 Y13.3900 F2000
N11760 G02 X27.1144 Y11.9935 I-0.0001 J-0.7000 F2000.0
N11770 G01 X26.7447 Y11.9900 F2000
N11780 Y10.8700
N11790 X27.0446
N11800 G02 X27.6809 Y10.4601 I0.0043 J-0.6921 F2000.0
N11810 G01 X39.7245 F2000
N11820 Y17.1462
N11830 G02 X40.3018 Y17.2601 I0.3002 J-0.0014 F2000.0
N11840 G01 X48.1096 F2000
N11850 Y18.4612
N11860 G02 X48.1499 Y18.5090 I0.0499 J-0.0012 F2000.0
N11870 G01 X51.1596 Y18.5100 F2000
N11880 G02 X51.2092 Y18.4661 I0.0001 J-0.0498 F2000.0
N11890 G01 X51.2096 Y15.4600 F2000
N11900 G02 X51.1682 Y15.4107 I-0.0502 J0.0001 F2000.0
N11910 G01 X48.1596 Y15.4100 F2000
N11920 G02 X48.1103 Y15.4515 I0.0001 J0.0502 F2000.0
N11930 G01 X48.1096 Y16.6599 F2000
N11940 X40.3247
N11950 Y-15.8750
N11960 G02 X40.0540 Y-16.1737 I-0.3005 J0.0003 F2000.0
N11970 G01 X28.8947 Y-16.1751 F2000
N11980 Y-22.8612
N11990 G02 X28.6240 Y-23.1587 I-0.3004 J0.0014 F2000.0
N12000 G01 X-10.1404 Y-23.1601 F2000
N12010 G02 X-10.4391 Y-22.8894 I-0.0002 J0.3000 F2000.0
N12020 G01 X-10.4405 Y-13.0001 F2000
N12030 X-13.7439 Y-12.9901
N12040 G02 X-13.9719 Y-13.2642 I-0.6226 J0.2860 F2000.0
N12050 G00 Z5.0000
N12060 X-13.8918 Y-17.2841
N12070 Z1.0000
N12080 G01 Z-0.1000 F1000
N12090 G02 X-14.3092 Y-18.4868 I-0.4838 J-0.5059 F2000.0
N12100 G01 X-15.5754 Y-18.4900 F2000
N12110 G02 X-16.2117 Y-18.0801 I-0.0042 J0.6923 F2000.0
N12120 G01 X-17.7604 F2000
N12130 G02 X-17.9726 Y-17.9922 I0.0006 J0.3016 F2000.0
N12140 G01 X-24.3325 Y-10.9969 F2000
N12150 G02 X-24.4101 Y-10.8102 I0.2256 J0.2032 F2000.0
N12160 G01 X-24.4105 Y1.9050 F2000
N12170 G02 X-24.1398 Y2.2037 I0.3002 J-0.0000 F2000.0
N12180 G01 X-22.6594 Y2.2051 F2000
N12190 X-22.6507 Y2.2289
N12200 G02 X-21.9570 Y2.7441 I0.7781 J-0.3231 F2000.0
N12210 G01 X-21.2689 Y2.7485 F2000
N12220 G02 X-21.1862 Y1.0656 I-0.0001 J-0.8435 F2000.0
N12230 G01 X-21.8719 Y1.0615 F2000
N12240 G02 X-22.6594 Y1.6049 I-0.0099 J0.8279 F2000.0
N12250 G01 X-23.8103 F2000
N12260 Y-10.6790
N12270 X-17.6276 Y-17.4799
N12280 X-16.2022
N12290 G02 X-15.6440 Y-17.0934 I0.6165 J-0.2940 F2000.0
N12300 G01 X-14.3742 Y-17.0900 F2000
N12310 G02 X-13.8918 Y-17.2841 I-0.0014 J-0.7000 F2000.0
N12320 G00 Z5.0000
N12330 X-14.4962 Y-19.6395
N12340 Z1.0000
N12350 G01 Z-0.1000 F1000
N12360 X-14.2169 Y-19.6489 F2000
N12370 X-14.1053 Y-19.6843
N12380 X-13.8796 Y-19.8359
N12390 X-13.7934 Y-19.9411
N12400 X-13.7047 Y-20.1300
N12410 X-13.1949 Y-20.1174
N12420 X-13.2498 Y-19.9157
N12430 X-13.3388 Y-19.7265
N12440 X-13.4594 Y-19.5557
N12450 X-13.6077 Y-19.4084
N12460 X-13.7794 Y-19.2891
N12470 X-13.9692 Y-19.2014
N12480 X-14.1714 Y-19.1480
N12490 X-14.3798 Y-19.1300
N12500 X-14.7754
N12510 Y-19.6300
N12520 X-14.4962 Y-19.6395
N12530 G00 Z5.0000
N12540 X-13.4497 Y-20.5328
N12550 Z1.0000
N12560 G01 Z-0.1000 F1000
N12570 X-13.7063 Y-20.5355 F2000
N12580 X-13.7287 Y-20.5979
N12590 X-13.8047 Y-20.7343
N12600 X-13.9845 Y-20.9106
N12610 X-14.2400 Y-21.0168
N12620 X-14.3754 Y-21.0300
N12630 X-14.7754
N12640 Y-21.5300
N12650 X-14.1714 Y-21.5120
N12660 X-13.9692 Y-21.4586
N12670 X-13.7794 Y-21.3709
N12680 X-13.6077 Y-21.2516
N12690 X-13.4594 Y-21.1043
N12700 X-13.3388 Y-20.9335
N12710 X-13.2498 Y-20.7443
N12720 X-13.1931 Y-20.5300
N12730 X-13.4497 Y-20.5328
N12740 G00 Z5.0000
N12750 X-15.4547 Y-21.0206
N12760 Z1.0000
N12770 G01 Z-0.1000 F1000
N12780 X-15.7339 Y-21.0111 F2000
N12790 X-15.8455 Y-20.9757
N12800 X-16.0712 Y-20.8241
N12810 X-16.1574 Y-20.7189
N12820 X-16.2461 Y-20.5300
N12830 X-16.7558 Y-20.5426
N12840 X-16.7010 Y-20.7443
N12850 X-16.6120 Y-20.9335
N12860 X-16.4914 Y-21.1043
N12870 X-16.3430 Y-21.2516
N12880 X-16.1714 Y-21.3709
N12890 X-15.9815 Y-21.4586
N12900 X-15.7794 Y-21.5120
N12910 X-15.5710 Y-21.5300
N12920 X-15.1754
N12930 Y-21.0300
N12940 X-15.4547 Y-21.0206
N12950 G00 Z5.0000
N12960 X-16.5011 Y-20.1273
N12970 Z1.0000
N12980 G01 Z-0.1000 F1000
N12990 X-16.2445 Y-20.1245 F2000
N13000 X-16.2221 Y-20.0621
N13010 X-16.1461 Y-19.9257
N13020 X-15.9663 Y-19.7494
N13030 X-15.7108 Y-19.6432
N13040 X-15.5754 Y-19.6300
N13050 X-15.1754
N13060 Y-19.1300
N13070 X-15.7794 Y-19.1480
N13080 X-15.9815 Y-19.2014
N13090 X-16.1714 Y-19.2891
N13100 X-16.3430 Y-19.4084
N13110 X-16.4914 Y-19.5557
N13120 X-16.6120 Y-19.7265
N13130 X-16.7010 Y-19.9157
N13140 X-16.7577 Y-20.1300
N13150 X-16.5011 Y-20.1273
N13160 G00 Z5.0000
N13170 X-15.4547 Y-7.0505
N13180 Z1.0000
N13190 G01 Z-0.1000 F1000
N13200 X-15.7339 Y-7.0411 F2000
N13210 X-15.8455 Y-7.0057
N13220 X-16.0712 Y-6.8541
N13230 X-16.1574 Y-6.7489
N13240 X-16.2461 Y-6.5600
N13250 X-16.7558 Y-6.5726
N13260 X-16.7010 Y-6.7743
N13270 X-16.6120 Y-6.9635
N13280 X-16.4914 Y-7.1343
N13290 X-16.3430 Y-7.2816
N13300 X-16.1714 Y-7.4009
N13310 X-15.9815 Y-7.4886
N13320 X-15.7794 Y-7.5420
N13330 X-15.5710 Y-7.5600
N13340 X-15.1754
N13350 Y-7.0600
N13360 X-15.4547 Y-7.0505
N13370 G00 Z5.0000
N13380 X-16.5011 Y-6.1573
N13390 Z1.0000
N13400 G01 Z-0.1000 F1000
N13410 X-16.2445 Y-6.1545 F2000
N13420 X-16.2221 Y-6.0921
N13430 X-16.1461 Y-5.9557
N13440 X-15.9663 Y-5.7794
N13450 X-15.7108 Y-5.6732
N13460 X-15.5754 Y-5.6600
N13470 X-15.1754
N13480 Y-5.1600
N13490 X-15.7794 Y-5.1780
N13500 X-15.9815 Y-5.2314
N13510 X-16.1714 Y-5.3191
N13520 X-16.3430 Y-5.4384
N13530 X-16.4914 Y-5.5857
N13540 X-16.6120 Y-5.7565
N13550 X-16.7010 Y-5.9457
N13560 X-16.7577 Y-6.1600
N13570 X-16.5011 Y-6.1573
N13580 G00 Z5.0000
N13590 X-17.3662 Y-4.3272
N13600 Z1.0000
N13610 G01 Z-0.1000 F1000
N13620 X-16.3436 Y-4.3344 F2000
N13630 X-16.2691 Y-4.3872
N13640 X-16.2147 Y-4.4524
N13650 X-16.0791 Y-4.5650
N13660 X-15.9240 Y-4.6490
N13670 X-15.7556 Y-4.7010
N13680 X-15.5754 Y-4.7198
N13690 X-14.2047 Y-4.7029
N13700 X-14.0358 Y-4.6527
N13710 X-13.8798 Y-4.5704
N13720 X-13.7430 Y-4.4593
N13730 X-13.6304 Y-4.3237
N13740 X-13.5464 Y-4.1686
N13750 X-13.4943 Y-4.0002
N13760 X-13.4761 Y-3.8249
N13770 X-13.4924 Y-3.6493
N13780 X-13.5427 Y-3.4804
N13790 X-13.6250 Y-3.3244
N13800 X-13.7361 Y-3.1876
N13810 X-13.8717 Y-3.0750
N13820 X-14.0267 Y-2.9910
N13830 X-14.1952 Y-2.9390
N13840 X-14.3803 Y-2.9200
N13850 X-15.7461 Y-2.9371
N13860 X-15.9150 Y-2.9873
N13870 X-16.0709 Y-3.0696
N13880 X-16.3298 Y-3.2983
N13890 X-16.4157 Y-3.3199
N13900 X-17.8582 Y-3.3050
N13910 X-17.9413 Y-3.2416
N13920 X-17.9807 Y-3.1464
N13930 X-19.1983 Y5.8853
N13940 X-19.2583 Y6.0004
N13950 X-19.4383 Y6.1908
N13960 X-19.4603 Y6.3000
N13970 X-19.4268 Y6.3963
N13980 X-19.3489 Y6.4637
N13990 X-19.2631 Y6.4850
N14000 X-18.9197 Y6.4699
N14010 X-18.8367 Y6.4058
N14020 X-18.7989 Y6.3189
N14030 X-17.5911 Y-1.4424
N14040 X-17.5306 Y-1.5571
N14050 X-17.4425 Y-1.6522
N14060 X-17.3316 Y-1.7219
N14070 X-17.2089 Y-1.7595
N14080 X-16.3493 Y-1.7722
N14090 X-16.2634 Y-1.8331
N14100 X-16.2078 Y-1.8993
N14110 X-16.0709 Y-2.0104
N14120 X-15.9150 Y-2.0927
N14130 X-15.7461 Y-2.1429
N14140 X-15.5705 Y-2.1600
N14150 X-14.2047 Y-2.1429
N14160 X-14.0358 Y-2.0927
N14170 X-13.8798 Y-2.0104
N14180 X-13.7430 Y-1.8993
N14190 X-13.6304 Y-1.7637
N14200 X-13.5464 Y-1.6086
N14210 X-13.4943 Y-1.4402
N14220 X-13.4761 Y-1.2649
N14230 X-13.4924 Y-1.0893
N14240 X-13.5427 Y-0.9204
N14250 X-13.6250 Y-0.7644
N14260 X-13.7361 Y-0.6276
N14270 X-13.8717 Y-0.5150
N14280 X-14.0267 Y-0.4310
N14290 X-14.1952 Y-0.3790
N14300 X-14.3803 Y-0.3600
N14310 X-15.7461 Y-0.3771
N14320 X-15.9150 Y-0.4273
N14330 X-16.0709 Y-0.5096
N14340 X-16.3286 Y-0.7380
N14350 X-16.4133 Y-0.7598
N14360 X-16.5991 Y-0.7463
N14370 X-16.6827 Y-0.6848
N14380 X-16.7241 Y-0.5904
N14390 X-17.9301 Y7.1587
N14400 X-17.9902 Y7.2721
N14410 X-18.0793 Y7.3681
N14420 X-18.1892 Y7.4369
N14430 X-18.4019 Y7.4850
N14440 X-20.2539 Y7.4858
N14450 X-20.3405 Y7.5092
N14460 X-20.5629 Y7.7526
N14470 X-20.7160 Y7.8692
N14480 X-20.8879 Y7.9558
N14490 X-21.0728 Y8.0093
N14500 X-21.2735 Y8.0285
N14510 X-22.0590 Y8.0109
N14520 X-22.2443 Y7.9591
N14530 X-22.4170 Y7.8741
N14540 X-22.5711 Y7.7588
N14550 X-22.7013 Y7.6171
N14560 X-22.8034 Y7.4540
N14570 X-22.8737 Y7.2748
N14580 X-22.9099 Y7.0858
N14590 X-22.9107 Y6.8933
N14600 X-22.8762 Y6.7040
N14610 X-22.7764 Y6.4184
N14620 X-22.8071 Y6.3084
N14630 X-22.8676 Y6.2482
N14640 X-22.9760 Y6.2150
N14650 X-23.4165 Y6.2154
N14660 X-23.5217 Y6.2500
N14670 X-23.5887 Y6.3268
N14680 X-23.6104 Y6.4150
N14690 X-23.6100 Y8.8311
N14700 X-23.5876 Y8.9147
N14710 X-23.5745 Y8.9371
N14720 X-23.5033 Y9.0017
N14730 X-23.4151 Y9.0248
N14740 X-22.8844 Y9.0237
N14750 X-22.7913 Y8.9947
N14760 X-22.5711 Y8.7512
N14770 X-22.4170 Y8.6359
N14780 X-22.2443 Y8.5509
N14790 X-22.0590 Y8.4991
N14800 X-21.8719 Y8.4817
N14810 X-21.0818 Y8.4991
N14820 X-20.8964 Y8.5509
N14830 X-20.7238 Y8.6359
N14840 X-20.5697 Y8.7512
N14850 X-20.4394 Y8.8929
N14860 X-20.3374 Y9.0560
N14870 X-20.2671 Y9.2352
N14880 X-20.2309 Y9.4242
N14890 X-20.2301 Y9.6167
N14900 X-20.2646 Y9.8060
N14910 X-20.3333 Y9.9857
N14920 X-20.4339 Y10.1498
N14930 X-20.5629 Y10.2926
N14940 X-20.7994 Y10.4517
N14950 X-20.8841 Y10.5382
N14960 X-20.8967 Y10.5631
N14970 X-20.9045 Y10.6670
N14980 X-20.8661 Y10.7539
N14990 X-20.7906 Y10.8129
N15000 X-20.6261 Y10.8858
N15010 X-20.4408 Y11.0077
N15020 X-20.2780 Y11.1584
N15030 X-20.1423 Y11.3339
N15040 X-20.0374 Y11.5293
N15050 X-19.9660 Y11.7393
N15060 X-19.9450 Y11.8650
N15070 X-20.4504
N15080 X-20.5087 Y11.6996
N15090 X-20.6169 Y11.5299
N15100 X-20.7511 Y11.4001
N15110 X-20.9035 Y11.3048
N15120 X-21.2689 Y11.2215
N15130 X-22.0515 Y11.2414
N15140 X-22.2706 Y11.3217
N15150 X-22.4070 Y11.4130
N15160 X-22.5368 Y11.5472
N15170 X-22.6321 Y11.6996
N15180 X-22.6904 Y11.8650
N15190 X-23.1958
N15200 X-23.1728 Y11.7313
N15210 X-23.1001 Y11.5218
N15220 X-22.9939 Y11.3270
N15230 X-22.8572 Y11.1524
N15240 X-22.6935 Y11.0027
N15250 X-22.5075 Y10.8819
N15260 X-22.3439 Y10.8094
N15270 X-22.2605 Y10.7298
N15280 X-22.2473 Y10.7052
N15290 X-22.2347 Y10.6030
N15300 X-22.2722 Y10.5108
N15310 X-22.3424 Y10.4512
N15320 X-22.4248 Y10.4092
N15330 X-22.5779 Y10.2926
N15340 X-22.7952 Y10.0520
N15350 X-22.8944 Y10.0250
N15360 X-24.2457 Y10.0050
N15370 X-24.3654 Y9.9537
N15380 X-24.4676 Y9.8731
N15390 X-24.5455 Y9.7688
N15400 X-24.5938 Y9.6478
N15410 X-24.6104 Y9.5185
N15420 X-24.5904 Y5.5797
N15430 X-24.5391 Y5.4600
N15440 X-24.4585 Y5.3578
N15450 X-24.3541 Y5.2799
N15460 X-24.2332 Y5.2316
N15470 X-24.1038 Y5.2150
N15480 X-22.9677 Y5.2143
N15490 X-22.8653 Y5.1815
N15500 X-22.8053 Y5.1172
N15510 X-22.7765 Y5.0034
N15520 X-22.7969 Y4.9279
N15530 X-22.8762 Y4.7260
N15540 X-22.9107 Y4.5367
N15550 X-22.9099 Y4.3442
N15560 X-22.8737 Y4.1552
N15570 X-22.8034 Y3.9760
N15580 X-22.7013 Y3.8129
N15590 X-22.5711 Y3.6712
N15600 X-22.4170 Y3.5559
N15610 X-22.2443 Y3.4709
N15620 X-22.0590 Y3.4191
N15630 X-21.8673 Y3.4015
N15640 X-21.0818 Y3.4191
N15650 X-20.8964 Y3.4709
N15660 X-20.7238 Y3.5559
N15670 X-20.5697 Y3.6712
N15680 X-20.4394 Y3.8129
N15690 X-20.2490 Y4.1059
N15700 X-20.1709 Y4.1371
N15710 X-20.1467 Y4.1402
N15720 X-20.0520 Y4.1231
N15730 X-19.9731 Y4.0581
N15740 X-19.9371 Y3.9680
N15750 X-18.8628 Y-3.9893
N15760 X-18.8025 Y-4.1054
N15770 X-18.7147 Y-4.2011
N15780 X-18.6052 Y-4.2707
N15790 X-18.3888 Y-4.3200
N15800 X-17.3662 Y-4.3272
N15810 G00 Z5.0000
N15820 X-15.9502 Y-1.8532
N15830 Z1.0000
N15840 G01 Z-0.1000 F1000
N15850 G02 X-16.2069 Y-1.5601 I0.3682 J0.5815 F2000.0
N15860 G01 X-17.0487 F2000
N15870 G02 X-17.4198 Y-1.3286 I-0.0753 J0.2924 F2000.0
N15880 G01 X-18.6529 Y6.6849 F2000
N15890 X-20.4814
N15900 X-20.4901 Y6.6611
N15910 G02 X-21.1874 Y6.1455 I-0.7784 J0.3233 F2000.0
N15920 G01 X-21.8719 Y6.1415 F2000
N15930 G02 X-21.9546 Y7.8244 I0.0001 J0.8435 F2000.0
N15940 G01 X-21.2689 Y7.8285 F2000
N15950 G02 X-20.4814 Y7.2851 I0.0099 J-0.8280 F2000.0
N15960 G01 X-18.3954 F2000
N15970 G02 X-18.1010 Y7.0436 I-0.0029 J-0.3037 F2000.0
N15980 G01 X-16.8694 Y-0.9599 F2000
N15990 X-16.2069
N16000 G02 X-15.6464 Y-0.5637 I0.6230 J-0.2868 F2000.0
N16010 G01 X-14.3742 Y-0.5600 F2000
N16020 G02 X-14.3056 Y-1.9565 I-0.0016 J-0.7000 F2000.0
N16030 G01 X-15.5754 Y-1.9600 F2000
N16040 G02 X-15.9502 Y-1.8532 I-0.0065 J0.6882 F2000.0
N16050 G00 Z5.0000
N16060 X-15.9788 Y-3.2460
N16070 Z1.0000
N16080 G01 Z-0.1000 F1000
N16090 G02 X-15.6440 Y-3.1234 I0.3953 J-0.5612 F2000.0
N16100 G01 X-14.3754 Y-3.1200 F2000
N16110 G02 X-14.3056 Y-4.5165 I-0.0003 J-0.7000 F2000.0
N16120 G01 X-15.5754 Y-4.5200 F2000
N16130 G02 X-16.2069 Y-4.1201 I-0.0064 J0.6885 F2000.0
N16140 G01 X-18.3954 F2000
N16150 G02 X-18.6900 Y-3.8773 I0.0034 J0.3042 F2000.0
N16160 G01 X-19.9282 Y5.4149 F2000
N16170 X-24.1104
N16180 G02 X-24.4105 Y5.7125 I0.0000 J0.3001 F2000.0
N16190 G01 Y9.5262 F2000
N16200 G02 X-24.1386 Y9.8238 I0.3000 J-0.0011 F2000.0
N16210 G01 X-22.6594 Y9.8251 F2000
N16220 X-22.6507 Y9.8489
N16230 G02 X-21.9558 Y10.3643 I0.7786 J-0.3236 F2000.0
N16240 G01 X-21.2677 Y10.3685 F2000
N16250 G02 X-21.1838 Y8.6859 I-0.0013 J-0.8435 F2000.0
N16260 G01 X-21.8743 Y8.6816 F2000
N16270 G02 X-22.6594 Y9.2249 I-0.0082 J0.8270 F2000.0
N16280 G01 X-23.8103 F2000
N16290 Y6.0151
N16300 X-19.6642
N16310 G02 X-19.3713 Y5.7748 I-0.0022 J-0.3013 F2000.0
N16320 G01 X-18.1326 Y-3.5199 F2000
N16330 X-16.2069
N16340 G02 X-15.9788 Y-3.2460 I0.6234 J-0.2873 F2000.0
N16350 G00 Z5.0000
N16360 X-14.7754 Y-5.4100
N16370 Z1.0000
N16380 G01 Z-0.1000 F1000
N16390 Y-5.6600 F2000
N16400 X-14.2169 Y-5.6789
N16410 X-14.1053 Y-5.7143
N16420 X-13.8796 Y-5.8659
N16430 X-13.7934 Y-5.9711
N16440 X-13.7047 Y-6.1600
N16450 X-13.1949 Y-6.1474
N16460 X-13.2498 Y-5.9457
N16470 X-13.3388 Y-5.7565
N16480 X-13.4594 Y-5.5857
N16490 X-13.6077 Y-5.4384
N16500 X-13.7794 Y-5.3191
N16510 X-13.9692 Y-5.2314
N16520 X-14.1714 Y-5.1780
N16530 X-14.3798 Y-5.1600
N16540 X-14.7754
N16550 Y-5.4100
N16560 G00 Z5.0000
N16570 X-13.4497 Y-6.5627
N16580 Z1.0000
N16590 G01 Z-0.1000 F1000
N16600 X-13.7063 Y-6.5655 F2000
N16610 X-13.7287 Y-6.6279
N16620 X-13.8047 Y-6.7643
N16630 X-13.9845 Y-6.9406
N16640 X-14.2400 Y-7.0468
N16650 X-14.3754 Y-7.0600
N16660 X-14.7754
N16670 Y-7.5600
N16680 X-14.1714 Y-7.5420
N16690 X-13.9692 Y-7.4886
N16700 X-13.7794 Y-7.4009
N16710 X-13.6077 Y-7.2816
N16720 X-13.4594 Y-7.1343
N16730 X-13.3388 Y-6.9635
N16740 X-13.2498 Y-6.7743
N16750 X-13.1931 Y-6.5600
N16760 X-13.4497 Y-6.5627
N16770 G00 Z5.0000
N16780 X-14.4734 Y6.4190
N16790 Z1.0000
N16800 G01 Z-0.1000 F1000
N16810 X-14.1714 Y6.4280 F2000
N16820 X-13.9692 Y6.4814
N16830 X-13.7794 Y6.5691
N16840 X-13.6077 Y6.6884
N16850 X-13.4594 Y6.8357
N16860 X-13.3388 Y7.0065
N16870 X-13.2498 Y7.1957
N16880 X-13.1931 Y7.4100
N16890 X-13.7063 Y7.4045
N16900 X-13.7287 Y7.3421
N16910 X-13.8047 Y7.2057
N16920 X-13.9845 Y7.0294
N16930 X-14.2400 Y6.9232
N16940 X-14.3754 Y6.9100
N16950 X-14.7754
N16960 Y6.4100
N16970 X-14.4734 Y6.4190
N16980 G00 Z5.0000
N16990 X-14.4962 Y8.3006
N17000 Z1.0000
N17010 G01 Z-0.1000 F1000
N17020 X-14.2169 Y8.2911 F2000
N17030 X-14.1053 Y8.2557
N17040 X-13.8796 Y8.1041
N17050 X-13.7934 Y7.9989
N17060 X-13.7047 Y7.8100
N17070 X-13.1949 Y7.8226
N17080 X-13.2498 Y8.0243
N17090 X-13.3388 Y8.2135
N17100 X-13.4594 Y8.3843
N17110 X-13.6077 Y8.5316
N17120 X-13.7794 Y8.6509
N17130 X-13.9692 Y8.7386
N17140 X-14.1714 Y8.7920
N17150 X-14.3798 Y8.8100
N17160 X-14.7754
N17170 Y8.3100
N17180 X-14.4962 Y8.3006
N17190 G00 Z5.0000
N17200 X-13.8454 Y9.6928
N17210 Z1.0000
N17220 G01 Z-0.1000 F1000
N17230 G02 X-14.3068 Y9.4534 I-0.5301 J0.4572 F2000.0
N17240 G01 X-15.5766 Y9.4500 F2000
N17250 G02 X-16.2069 Y9.8499 I-0.0052 J0.6884 F2000.0
N17260 G01 X-17.7616 F2000
N17270 G02 X-18.0377 Y10.0351 I0.0015 J0.3007 F2000.0
N17280 G01 X-19.8782 Y13.7246 F2000
N17290 X-20.6879 Y13.9945
N17300 G02 X-21.1862 Y13.7656 I-0.5750 J0.5950 F2000.0
N17310 G01 X-21.8719 Y13.7615 F2000
N17320 G02 X-21.9546 Y15.4444 I0.0002 J0.8435 F2000.0
N17330 G01 X-21.2689 Y15.4485 F2000
N17340 G02 X-20.4285 Y14.5407 I0.0025 J-0.8406 F2000.0
N17350 G01 X-19.5705 Y14.2547 F2000
N17360 G02 X-19.4121 Y14.1309 I-0.0948 J-0.2846 F2000.0
N17370 G01 X-17.5699 Y10.4501 F2000
N17380 X-16.2069
N17390 G02 X-15.6452 Y10.8465 I0.6235 J-0.2874 F2000.0
N17400 G01 X-14.3754 Y10.8500 F2000
N17410 G02 X-13.8454 Y9.6928 I-0.0001 J-0.7000 F2000.0
N17420 G00 Z5.0000
N17430 X-13.6867 Y9.5785
N17440 Z1.0000
N17450 G01 Z-0.1000 F1000
N17460 X-13.6304 Y9.6463 F2000
N17470 X-13.5464 Y9.8014
N17480 X-13.4943 Y9.9698
N17490 X-13.4761 Y10.1451
N17500 X-13.4924 Y10.3207
N17510 X-13.5427 Y10.4896
N17520 X-13.6250 Y10.6456
N17530 X-13.7361 Y10.7824
N17540 X-13.8717 Y10.8950
N17550 X-14.0267 Y10.9790
N17560 X-14.1952 Y11.0310
N17570 X-14.3803 Y11.0500
N17580 X-15.7461 Y11.0329
N17590 X-15.9150 Y10.9827
N17600 X-16.0709 Y10.9004
N17610 X-16.3298 Y10.6717
N17620 X-16.4180 Y10.6500
N17630 X-17.3301 Y10.6505
N17640 X-17.4357 Y10.6849
N17650 X-17.5017 Y10.7606
N17660 X-19.2880 Y14.2960
N17670 X-19.3852 Y14.3826
N17680 X-19.5135 Y14.4464
N17690 X-20.1209 Y14.6493
N17700 X-20.2043 Y14.7072
N17710 X-20.2485 Y14.8000
N17720 X-20.2671 Y14.8948
N17730 X-20.3374 Y15.0740
N17740 X-20.4394 Y15.2371
N17750 X-20.5697 Y15.3788
N17760 X-20.7238 Y15.4941
N17770 X-20.8964 Y15.5791
N17780 X-21.0818 Y15.6309
N17790 X-21.2735 Y15.6485
N17800 X-22.0590 Y15.6309
N17810 X-22.2443 Y15.5791
N17820 X-22.4170 Y15.4941
N17830 X-22.5711 Y15.3788
N17840 X-22.7013 Y15.2371
N17850 X-22.8034 Y15.0740
N17860 X-22.8737 Y14.8948
N17870 X-22.9099 Y14.7058
N17880 X-22.9107 Y14.5133
N17890 X-22.8762 Y14.3240
N17900 X-22.8075 Y14.1443
N17910 X-22.7069 Y13.9802
N17920 X-22.5779 Y13.8374
N17930 X-22.3403 Y13.6777
N17940 X-22.2452 Y13.5717
N17950 X-22.2333 Y13.4736
N17960 X-22.2658 Y13.3894
N17970 X-22.3512 Y13.3166
N17980 X-22.5147 Y13.2442
N17990 X-22.7000 Y13.1223
N18000 X-22.8627 Y12.9716
N18010 X-22.9985 Y12.7961
N18020 X-23.1034 Y12.6007
N18030 X-23.1748 Y12.3907
N18040 X-23.1958 Y12.2650
N18050 X-22.6904
N18060 X-22.6321 Y12.4304
N18070 X-22.5239 Y12.6001
N18080 X-22.3897 Y12.7299
N18090 X-22.2373 Y12.8252
N18100 X-21.8719 Y12.9085
N18110 X-21.0892 Y12.8886
N18120 X-20.8702 Y12.8083
N18130 X-20.7338 Y12.7170
N18140 X-20.6040 Y12.5828
N18150 X-20.5087 Y12.4304
N18160 X-20.4504 Y12.2650
N18170 X-19.9450
N18180 X-19.9680 Y12.3987
N18190 X-20.0407 Y12.6082
N18200 X-20.1468 Y12.8030
N18210 X-20.2836 Y12.9776
N18220 X-20.4473 Y13.1273
N18230 X-20.6333 Y13.2481
N18240 X-20.7969 Y13.3206
N18250 X-20.8910 Y13.4166
N18260 X-20.9085 Y13.5162
N18270 X-20.8720 Y13.6156
N18280 X-20.8091 Y13.6716
N18290 X-20.6429 Y13.7456
N18300 X-20.5556 Y13.7395
N18310 X-20.0462 Y13.5605
N18320 X-19.9852 Y13.4912
N18330 X-18.1891 Y9.8950
N18340 X-18.1085 Y9.7928
N18350 X-18.0041 Y9.7149
N18360 X-17.8832 Y9.6666
N18370 X-17.7538 Y9.6500
N18380 X-16.3459 Y9.6365
N18390 X-16.2700 Y9.5836
N18400 X-16.2147 Y9.5176
N18410 X-16.0791 Y9.4050
N18420 X-15.9240 Y9.3210
N18430 X-15.7556 Y9.2690
N18440 X-15.5705 Y9.2500
N18450 X-14.2047 Y9.2671
N18460 X-14.0358 Y9.3173
N18470 X-13.8798 Y9.3996
N18480 X-13.7430 Y9.5107
N18490 X-13.6867 Y9.5785
N18500 G00 Z5.0000
N18510 X-14.8876 Y11.8186
N18520 Z1.0000
N18530 G01 Z-0.1000 F1000
N18540 X-14.2047 Y11.8271 F2000
N18550 X-14.0358 Y11.8773
N18560 X-13.8798 Y11.9596
N18570 X-13.7430 Y12.0707
N18580 X-13.6304 Y12.2063
N18590 X-13.5464 Y12.3614
N18600 X-13.4943 Y12.5298
N18610 X-13.4761 Y12.7051
N18620 X-13.4924 Y12.8807
N18630 X-13.5427 Y13.0496
N18640 X-13.6250 Y13.2056
N18650 X-13.7361 Y13.3424
N18660 X-13.8717 Y13.4550
N18670 X-14.0267 Y13.5390
N18680 X-14.1952 Y13.5910
N18690 X-14.3803 Y13.6100
N18700 X-15.7461 Y13.5929
N18710 X-15.9150 Y13.5427
N18720 X-16.0709 Y13.4604
N18730 X-16.3286 Y13.2320
N18740 X-16.4145 Y13.2101
N18750 X-16.6729 Y13.2108
N18760 X-16.7909 Y13.2558
N18770 X-16.8480 Y13.3311
N18780 X-18.6249 Y17.4322
N18790 X-18.7131 Y17.5274
N18800 X-18.8228 Y17.5965
N18810 X-19.0369 Y17.6450
N18820 X-20.0327 Y17.6455
N18830 X-20.1288 Y17.6738
N18840 X-20.1982 Y17.7444
N18850 X-20.2254 Y17.8450
N18860 Y17.9306
N18870 G03 X-20.4755 Y18.1879 I-0.2695 J-0.0117 F2000.0
N18880 G01 X-20.4832 Y18.1885 F2000
N18890 X-22.6575
N18900 G03 X-22.9148 Y17.9384 I0.0117 J-0.2695 F2000.0
N18910 G01 X-22.9154 Y17.9306 F2000
N18920 Y16.3594
N18930 G03 X-22.6653 Y16.1021 I0.2695 J0.0117 F2000.0
N18940 G01 X-22.6575 Y16.1015 F2000
N18950 X-20.4832
N18960 G03 X-20.2260 Y16.3516 I-0.0122 J0.2698 F2000.0
N18970 G01 X-20.2254 Y16.4450 F2000
N18980 X-20.1944 Y16.5515
N18990 X-20.1338 Y16.6118
N19000 X-20.0301 Y16.6448
N19010 X-19.4841 Y16.6444
N19020 X-19.3852 Y16.6121
N19030 X-19.3625 Y16.5964
N19040 X-19.3078 Y16.5239
N19050 X-17.5309 Y12.4228
N19060 X-17.4427 Y12.3276
N19070 X-17.3329 Y12.2585
N19080 X-17.1189 Y12.2100
N19090 X-16.3436 Y12.1956
N19100 X-16.2691 Y12.1428
N19110 X-16.2147 Y12.0776
N19120 X-16.0791 Y11.9650
N19130 X-15.9240 Y11.8810
N19140 X-15.7556 Y11.8290
N19150 X-15.5705 Y11.8100
N19160 X-14.8876 Y11.8186
N19170 G00 Z5.0000
N19180 X-15.4774 Y8.8010
N19190 Z1.0000
N19200 G01 Z-0.1000 F1000
N19210 X-15.7794 Y8.7920 F2000
N19220 X-15.9815 Y8.7386
N19230 X-16.1714 Y8.6509
N19240 X-16.3430 Y8.5316
N19250 X-16.4914 Y8.3843
N19260 X-16.6120 Y8.2135
N19270 X-16.7010 Y8.0243
N19280 X-16.7577 Y7.8100
N19290 X-16.2445 Y7.8155
N19300 X-16.2221 Y7.8779
N19310 X-16.1461 Y8.0143
N19320 X-15.9663 Y8.1906
N19330 X-15.7108 Y8.2968
N19340 X-15.5754 Y8.3100
N19350 X-15.1754
N19360 Y8.8100
N19370 X-15.4774 Y8.8010
N19380 G00 Z5.0000
N19390 X-15.4547 Y6.9195
N19400 Z1.0000
N19410 G01 Z-0.1000 F1000
N19420 X-15.7339 Y6.9289 F2000
N19430 X-15.8455 Y6.9643
N19440 X-16.0712 Y7.1159
N19450 X-16.1574 Y7.2211
N19460 X-16.2461 Y7.4100
N19470 X-16.7558 Y7.3974
N19480 X-16.7010 Y7.1957
N19490 X-16.6120 Y7.0065
N19500 X-16.4914 Y6.8357
N19510 X-16.3430 Y6.6884
N19520 X-16.1714 Y6.5691
N19530 X-15.9815 Y6.4814
N19540 X-15.7794 Y6.4280
N19550 X-15.5710 Y6.4100
N19560 X-15.1754
N19570 Y6.9100
N19580 X-15.4547 Y6.9195
N19590 G00 Z5.0000
N19600 X-15.9501 Y12.1168
N19610 Z1.0000
N19620 G01 Z-0.1000 F1000
N19630 G02 X-16.2069 Y12.4099 I0.3683 J0.5816 F2000.0
N19640 G01 X-17.1254 F2000
N19650 X-17.2679 Y12.4459
N19660 X-17.3727 Y12.5400
N19670 X-19.2281 Y16.8449
N19680 X-20.4254
N19690 X-20.4255 Y16.3478
N19700 G02 X-20.4681 Y16.3020 I-0.0501 J0.0039 F2000.0
N19710 G01 X-22.6654 Y16.3015 F2000
N19720 G02 X-22.7144 Y16.3417 I0.0001 J0.0501 F2000.0
N19730 G01 X-22.7154 Y17.9397 F2000
N19740 G02 X-22.6727 Y17.9880 I0.0504 J-0.0015 F2000.0
N19750 G01 X-20.4754 Y17.9885 F2000
N19760 G02 X-20.4269 Y17.9506 I0.0002 J-0.0498 F2000.0
N19770 G01 X-20.4254 Y17.4451 F2000
N19780 X-19.0292
N19790 X-18.9144 Y17.4218
N19800 G02 X-18.7676 Y17.2899 I-0.1151 J-0.2757 F2000.0
N19810 G01 X-16.9277 Y13.0101 F2000
N19820 X-16.2069
N19830 G02 X-15.6464 Y13.4063 I0.6230 J-0.2868 F2000.0
N19840 G01 X-14.3754 Y13.4100 F2000
N19850 G02 X-14.3068 Y12.0134 I-0.0001 J-0.7000 F2000.0
N19860 G01 X-15.5754 Y12.0100 F2000
N19870 G02 X-15.9501 Y12.1168 I-0.0064 J0.6884 F2000.0
N19880 G00 Z5.0000
N19890 X-20.6873 Y5.0559
N19900 Z1.0000
N19910 G01 Z-0.1000 F1000
N19920 G02 X-21.1862 Y3.6056 I-0.5816 J-0.6109 F2000.0
N19930 G01 X-21.8719 Y3.6015 F2000
N19940 G02 X-21.9558 Y5.2843 I0.0002 J0.8435 F2000.0
N19950 G01 X-21.2689 Y5.2885 F2000
N19960 G02 X-20.6873 Y5.0559 I-0.0000 J-0.8435 F2000.0
N19970 G00 Z5.0000
N19980 X1.0778 Y-20.5427
N19990 Z1.0000
N20000 G01 Z-0.1000 F1000
N20010 G02 X0.9895 Y-20.3325 I0.2117 J0.2126 F2000.0
N20020 G01 Y25.5810 F2000
N20030 X0.9657 Y25.5897
N20040 G02 X0.4501 Y26.2870 I0.3240 J0.7789 F2000.0
N20050 G01 X0.4461 Y26.9715 F2000
N20060 G02 X2.1290 Y27.0542 I0.8435 J-0.0000 F2000.0
N20070 G01 X2.1331 Y26.3685 F2000
N20080 G02 X1.5897 Y25.5810 I-0.8277 J-0.0101 F2000.0
N20090 G01 Y-20.0299 F2000
N20100 X25.2131
N20110 G02 X25.7760 Y-19.6334 I0.6232 J-0.2869 F2000.0
N20120 G01 X27.0446 Y-19.6300 F2000
N20130 G02 X27.1132 Y-21.0266 I-0.0000 J-0.7000 F2000.0
N20140 G01 X25.8446 Y-21.0300 F2000
N20150 G02 X25.2131 Y-20.6301 I-0.0065 J0.6883 F2000.0
N20160 G01 X1.2884 F2000
N20170 G02 X1.0778 Y-20.5427 I0.0011 J0.3000 F2000.0
N20180 G00 Z5.0000
N20190 X4.3902 Y25.0329
N20200 Z1.0000
N20210 G01 Z-0.1000 F1000
N20220 X4.7507 Y25.0409 F2000
N20230 X4.8663 Y25.0827
N20240 X4.9698 Y25.1492
N20250 X5.0558 Y25.2370
N20260 X5.1202 Y25.3418
N20270 X5.1596 Y25.4582
N20280 X5.1731 Y25.5806
N20290 Y26.4700
N20300 X4.6731
N20310 X4.6726 Y25.5677
N20320 G02 X4.6243 Y25.5250 I-0.0501 J0.0080 F2000.0
N20330 G01 X4.0296 F2000
N20340 Y25.0250
N20350 X4.3902 Y25.0329
N20360 G00 Z5.0000
N20370 X4.9231 Y26.8700
N20380 Z1.0000
N20390 G01 Z-0.1000 F1000
N20400 X5.1731 F2000
N20410 X5.1572 Y27.8926
N20420 X5.1154 Y28.0082
N20430 X5.0489 Y28.1117
N20440 X4.9611 Y28.1977
N20450 X4.8563 Y28.2621
N20460 X4.7399 Y28.3015
N20470 X4.6175 Y28.3150
N20480 X4.0296
N20490 Y27.8150
N20500 X4.6329 Y27.8140
N20510 G02 X4.6731 Y27.7650 I-0.0099 J-0.0491 F2000.0
N20520 G01 Y26.8700 F2000
N20530 X4.9231
N20540 G00 Z5.0000
N20550 X15.7915 Y25.4509
N20560 Z1.0000
N20570 G01 Z-0.1000 F1000
N20580 X16.0334 Y25.6693 F2000
N20590 X16.1487 Y25.8234
N20600 X16.2337 Y25.9961
N20610 X16.2856 Y26.1814
N20620 X16.3029 Y26.3685
N20630 X16.2856 Y27.1586
N20640 X16.2337 Y27.3439
N20650 X16.1487 Y27.5166
N20660 X16.0334 Y27.6707
N20670 X15.8917 Y27.8009
N20680 X15.7286 Y27.9030
N20690 X15.5494 Y27.9733
N20700 X15.3604 Y28.0095
N20710 X15.1680 Y28.0103
N20720 X14.9786 Y27.9758
N20730 X14.7989 Y27.9071
N20740 X14.6348 Y27.8065
N20750 X14.4920 Y27.6775
N20760 X14.3754 Y27.5244
N20770 X14.2888 Y27.3525
N20780 X14.2353 Y27.1676
N20790 X14.2161 Y26.9669
N20800 X14.2337 Y26.1814
N20810 X14.2855 Y25.9961
N20820 X14.3705 Y25.8234
N20830 X14.4858 Y25.6693
N20840 X14.7364 Y25.4376
N20850 X14.7596 Y25.3448
N20860 X14.7796 Y-6.4953
N20870 X14.8309 Y-6.6150
N20880 X14.9115 Y-6.7172
N20890 X15.0159 Y-6.7951
N20900 X15.1368 Y-6.8434
N20910 X15.2662 Y-6.8600
N20920 X25.0707 Y-6.8722
N20930 X25.1517 Y-6.9280
N20940 X25.2053 Y-6.9924
N20950 X25.3409 Y-7.1050
N20960 X25.4960 Y-7.1890
N20970 X25.6644 Y-7.2410
N20980 X25.8495 Y-7.2600
N20990 X27.2153 Y-7.2429
N21000 X27.3842 Y-7.1927
N21010 X27.5402 Y-7.1104
N21020 X27.6770 Y-6.9993
N21030 X27.7896 Y-6.8637
N21040 X27.8736 Y-6.7086
N21050 X27.9257 Y-6.5402
N21060 X27.9439 Y-6.3649
N21070 X27.9276 Y-6.1893
N21080 X27.8773 Y-6.0204
N21090 X27.7950 Y-5.8644
N21100 X27.6839 Y-5.7276
N21110 X27.5483 Y-5.6150
N21120 X27.3933 Y-5.5310
N21130 X27.2248 Y-5.4790
N21140 X27.0397 Y-5.4600
N21150 X25.6739 Y-5.4771
N21160 X25.5050 Y-5.5273
N21170 X25.3491 Y-5.6096
N21180 X25.0902 Y-5.8383
N21190 X25.0032 Y-5.8600
N21200 X15.9535 Y-5.8596
N21210 X15.8573 Y-5.8318
N21220 X15.7874 Y-5.7616
N21230 X15.7596 Y-5.6600
N21240 X15.7609 Y25.3560
N21250 X15.7915 Y25.4509
N21260 G00 Z5.0000
N21270 X15.9567 Y25.8883
N21280 Z1.0000
N21290 G01 Z-0.1000 F1000
N21300 G02 X15.5597 Y25.5810 I-0.6813 J0.4701 F2000.0
N21310 G01 Y-6.0599 F2000
N21320 X25.2131
N21330 G02 X25.7760 Y-5.6634 I0.6232 J-0.2869 F2000.0
N21340 G01 X27.0458 Y-5.6600 F2000
N21350 G02 X27.1132 Y-7.0566 I-0.0012 J-0.7000 F2000.0
N21360 G01 X25.8446 Y-7.0600 F2000
N21370 G02 X25.2131 Y-6.6601 I-0.0065 J0.6883 F2000.0
N21380 G01 X15.2584 F2000
N21390 G02 X14.9595 Y-6.3625 I0.0011 J0.3000 F2000.0
N21400 G01 Y25.5810 F2000
N21410 X14.9357 Y25.5897
N21420 G02 X14.4201 Y26.2870 I0.3240 J0.7789 F2000.0
N21430 G01 X14.4161 Y26.9715 F2000
N21440 G02 X16.0990 Y27.0542 I0.8435 J-0.0000 F2000.0
N21450 G01 X16.1031 Y26.3685 F2000
N21460 G02 X15.9567 Y25.8883 I-0.8277 J-0.0101 F2000.0
N21470 G00 Z5.0000
N21480 X16.7649 Y26.5741
N21490 Z1.0000
N21500 G01 Z-0.1000 F1000
N21510 X16.7737 Y26.1814 F2000
N21520 X16.8255 Y25.9961
N21530 X16.9105 Y25.8234
N21540 X17.0258 Y25.6693
N21550 X17.2706 Y25.4482
N21560 X17.2996 Y25.3448
N21570 X17.3196 Y7.4747
N21580 X17.3709 Y7.3550
N21590 X17.4515 Y7.2528
N21600 X17.5559 Y7.1749
N21610 X17.6768 Y7.1266
N21620 X17.8062 Y7.1100
N21630 X25.0753 Y7.0961
N21640 X25.1509 Y7.0428
N21650 X25.2053 Y6.9776
N21660 X25.3409 Y6.8650
N21670 X25.4960 Y6.7810
N21680 X25.6644 Y6.7290
N21690 X25.8495 Y6.7100
N21700 X27.2153 Y6.7271
N21710 X27.3842 Y6.7773
N21720 X27.5402 Y6.8596
N21730 X27.6770 Y6.9707
N21740 X27.7896 Y7.1063
N21750 X27.8736 Y7.2614
N21760 X27.9257 Y7.4298
N21770 X27.9439 Y7.6051
N21780 X27.9276 Y7.7807
N21790 X27.8773 Y7.9496
N21800 X27.7950 Y8.1056
N21810 X27.6839 Y8.2424
N21820 X27.5483 Y8.3550
N21830 X27.3933 Y8.4390
N21840 X27.2248 Y8.4910
N21850 X27.0397 Y8.5100
N21860 X25.6739 Y8.4929
N21870 X25.5050 Y8.4427
N21880 X25.3491 Y8.3604
N21890 X25.0902 Y8.1317
N21900 X25.0032 Y8.1100
N21910 X18.4923 Y8.1105
N21920 X18.3883 Y8.1450
N21930 X18.3213 Y8.2218
N21940 X18.2996 Y8.3100
N21950 X18.3012 Y25.3572
N21960 X18.3232 Y25.4391
N21970 X18.5672 Y25.6625
N21980 X18.7347 Y25.9105
N21990 X18.8137 Y25.9845
N22000 X18.8401 Y25.9967
N22010 X18.9405 Y26.0046
N22020 X19.0294 Y25.9649
N22030 X19.0880 Y25.8892
N22040 X19.1604 Y25.7257
N22050 X19.2823 Y25.5404
N22060 X19.4331 Y25.3776
N22070 X19.6085 Y25.2419
N22080 X19.8039 Y25.1370
N22090 X20.0139 Y25.0656
N22100 X20.1396 Y25.0446
N22110 Y25.5500
N22120 X19.9742 Y25.6083
N22130 X19.8045 Y25.7165
N22140 X19.6747 Y25.8507
N22150 X19.5794 Y26.0031
N22160 X19.4961 Y26.3685
N22170 X19.5160 Y27.1511
N22180 X19.5963 Y27.3702
N22190 X19.6876 Y27.5066
N22200 X19.8218 Y27.6364
N22210 X19.9742 Y27.7317
N22220 X20.1396 Y27.7900
N22230 Y28.2954
N22240 X20.0059 Y28.2724
N22250 X19.7964 Y28.1997
N22260 X19.6016 Y28.0935
N22270 X19.4270 Y27.9568
N22280 X19.2773 Y27.7931
N22290 X19.1565 Y27.6071
N22300 X19.0781 Y27.4361
N22310 X18.9857 Y27.3485
N22320 X18.8884 Y27.3319
N22330 X18.7909 Y27.3669
N22340 X18.7301 Y27.4350
N22350 X18.6887 Y27.5166
N22360 X18.5734 Y27.6707
N22370 X18.4317 Y27.8009
N22380 X18.2686 Y27.9030
N22390 X18.0894 Y27.9733
N22400 X17.9004 Y28.0095
N22410 X17.7080 Y28.0103
N22420 X17.5186 Y27.9758
N22430 X17.3389 Y27.9071
N22440 X17.1748 Y27.8065
N22450 X17.0320 Y27.6775
N22460 X16.9154 Y27.5244
N22470 X16.8288 Y27.3525
N22480 X16.7753 Y27.1676
N22490 X16.7561 Y26.9669
N22500 X16.7649 Y26.5741
N22510 G00 Z5.0000
N22520 X17.1214 Y25.8670
N22530 Z1.0000
N22540 G01 Z-0.1000 F1000
N22550 G02 X16.9601 Y26.2870 I0.6783 J0.5016 F2000.0
N22560 G01 X16.9561 Y26.9727 F2000
N22570 G02 X18.6390 Y27.0542 I0.8435 J-0.0012 F2000.0
N22580 G01 X18.6431 Y26.3685 F2000
N22590 G02 X18.0997 Y25.5810 I-0.8277 J-0.0101 F2000.0
N22600 G01 Y7.9101 F2000
N22610 X25.2131
N22620 G02 X25.7760 Y8.3066 I0.6232 J-0.2869 F2000.0
N22630 G01 X27.0458 Y8.3100 F2000
N22640 G02 X27.1132 Y6.9134 I-0.0012 J-0.7000 F2000.0
N22650 G01 X25.8446 Y6.9100 F2000
N22660 G02 X25.2131 Y7.3099 I-0.0065 J0.6883 F2000.0
N22670 G01 X17.7996 F2000
N22680 G02 X17.4995 Y7.6075 I0.0000 J0.3001 F2000.0
N22690 G01 Y25.5810 F2000
N22700 X17.4757 Y25.5897
N22710 G02 X17.1214 Y25.8670 I0.3240 J0.7789 F2000.0
N22720 G00 Z5.0000
N22730 X20.5396 Y25.2973
N22740 Z1.0000
N22750 G01 Z-0.1000 F1000
N22760 Y25.0446 F2000
N22770 X20.6733 Y25.0676
N22780 X20.8828 Y25.1403
N22790 X21.0776 Y25.2465
N22800 X21.2522 Y25.3832
N22810 X21.4019 Y25.5469
N22820 X21.5227 Y25.7329
N22830 X21.6112 Y25.9363
N22840 G03 X21.6831 Y26.4700 I-1.4948 J0.4731 F2000.0
N22850 G01 X21.1831 F2000
N22860 X21.1632 Y26.1889
N22870 X21.0835 Y25.9709
N22880 X20.9916 Y25.8334
N22890 X20.8574 Y25.7036
N22900 X20.7050 Y25.6083
N22910 X20.5396 Y25.5500
N22920 Y25.2973
N22930 G00 Z5.0000
N22940 X21.4331 Y26.8700
N22950 Z1.0000
N22960 G01 Z-0.1000 F1000
N22970 X21.6831 F2000
N22980 X21.6650 Y27.1885
N22990 X21.6112 Y27.4037
N23000 X21.5227 Y27.6071
N23010 X21.4019 Y27.7931
N23020 X21.2522 Y27.9568
N23030 X21.0776 Y28.0935
N23040 X20.8828 Y28.1997
N23050 X20.6733 Y28.2724
N23060 X20.5396 Y28.2954
N23070 Y27.7900
N23080 X20.7050 Y27.7317
N23090 X20.8747 Y27.6235
N23100 X21.0045 Y27.4893
N23110 X21.0998 Y27.3369
N23120 X21.1791 Y27.0530
N23130 X21.1831 Y26.8700
N23140 X21.4331
N23150 G00 Z5.0000
N23160 X26.3568 Y16.1414
N23170 Z1.0000
N23180 G01 Z-0.1000 F1000
N23190 X25.6739 Y16.1329 F2000
N23200 X25.5050 Y16.0827
N23210 X25.3491 Y16.0004
N23220 X25.2122 Y15.8893
N23230 X25.0996 Y15.7537
N23240 X25.0156 Y15.5986
N23250 X24.9636 Y15.4302
N23260 X24.9453 Y15.2549
N23270 X24.9617 Y15.0793
N23280 X25.0119 Y14.9104
N23290 X25.0942 Y14.7544
N23300 X25.2053 Y14.6176
N23310 X25.3409 Y14.5050
N23320 X25.4960 Y14.4210
N23330 X25.6644 Y14.3690
N23340 X25.8495 Y14.3500
N23350 X27.2153 Y14.3671
N23360 X27.3842 Y14.4173
N23370 X27.5402 Y14.4996
N23380 X27.6770 Y14.6107
N23390 X27.7896 Y14.7463
N23400 X27.8736 Y14.9014
N23410 X27.9257 Y15.0698
N23420 X27.9439 Y15.2451
N23430 X27.9276 Y15.4207
N23440 X27.8773 Y15.5896
N23450 X27.7950 Y15.7456
N23460 X27.6839 Y15.8824
N23470 X27.5483 Y15.9950
N23480 X27.3933 Y16.0790
N23490 X27.2248 Y16.1310
N23500 X27.0397 Y16.1500
N23510 X26.3568 Y16.1414
N23520 G00 Z5.0000
N23530 X25.3158 Y15.7085
N23540 Z1.0000
N23550 G01 Z-0.1000 F1000
N23560 G02 X25.7784 Y15.9468 I0.5288 J-0.4586 F2000.0
N23570 G01 X27.0446 Y15.9500 F2000
N23580 G02 X27.1108 Y14.5532 I-0.0001 J-0.7000 F2000.0
N23590 G01 X25.8446 Y14.5500 F2000
N23600 G02 X25.3158 Y15.7085 I-0.0000 J0.7000 F2000.0
N23610 G00 Z5.0000
N23620 X26.3568 Y2.1715
N23630 Z1.0000
N23640 G01 Z-0.1000 F1000
N23650 X25.6739 Y2.1629 F2000
N23660 X25.5050 Y2.1127
N23670 X25.3491 Y2.0304
N23680 X25.2122 Y1.9193
N23690 X25.0996 Y1.7837
N23700 X25.0156 Y1.6286
N23710 X24.9636 Y1.4602
N23720 X24.9453 Y1.2849
N23730 X24.9617 Y1.1093
N23740 X25.0119 Y0.9404
N23750 X25.0942 Y0.7844
N23760 X25.2053 Y0.6476
N23770 X25.3409 Y0.5350
N23780 X25.4960 Y0.4510
N23790 X25.6644 Y0.3990
N23800 X25.8495 Y0.3800
N23810 X27.2153 Y0.3971
N23820 X27.3842 Y0.4473
N23830 X27.5402 Y0.5296
N23840 X27.6770 Y0.6407
N23850 X27.7896 Y0.7763
N23860 X27.8736 Y0.9314
N23870 X27.9257 Y1.0998
N23880 X27.9439 Y1.2751
N23890 X27.9276 Y1.4507
N23900 X27.8773 Y1.6196
N23910 X27.7950 Y1.7756
N23920 X27.6839 Y1.9124
N23930 X27.5483 Y2.0250
N23940 X27.3933 Y2.1090
N23950 X27.2248 Y2.1610
N23960 X27.0397 Y2.1800
N23970 X26.3568 Y2.1715
N23980 G00 Z5.0000
N23990 X25.3158 Y1.7385
N24000 Z1.0000
N24010 G01 Z-0.1000 F1000
N24020 G02 X25.7784 Y1.9768 I0.5288 J-0.4586 F2000.0
N24030 G01 X27.0446 Y1.9800 F2000
N24040 G02 X27.1108 Y0.5832 I-0.0001 J-0.7000 F2000.0
N24050 G01 X25.8446 Y0.5800 F2000
N24060 G02 X25.3158 Y1.7385 I-0.0000 J0.7000 F2000.0
N24070 G00 Z5.0000
N24080 X26.3568 Y-11.7985
N24090 Z1.0000
N24100 G01 Z-0.1000 F1000
N24110 X25.6739 Y-11.8071 F2000
N24120 X25.5050 Y-11.8573
N24130 X25.3491 Y-11.9396
N24140 X25.2122 Y-12.0507
N24150 X25.0996 Y-12.1863
N24160 X25.0156 Y-12.3414
N24170 X24.9636 Y-12.5098
N24180 X24.9453 Y-12.6851
N24190 X24.9617 Y-12.8607
N24200 X25.0119 Y-13.0296
N24210 X25.0942 Y-13.1856
N24220 X25.2053 Y-13.3224
N24230 X25.3409 Y-13.4350
N24240 X25.4960 Y-13.5190
N24250 X25.6644 Y-13.5710
N24260 X25.8495 Y-13.5900
N24270 X27.2153 Y-13.5729
N24280 X27.3842 Y-13.5227
N24290 X27.5402 Y-13.4404
N24300 X27.6770 Y-13.3293
N24310 X27.7896 Y-13.1937
N24320 X27.8736 Y-13.0386
N24330 X27.9257 Y-12.8702
N24340 X27.9439 Y-12.6949
N24350 X27.9276 Y-12.5193
N24360 X27.8773 Y-12.3504
N24370 X27.7950 Y-12.1944
N24380 X27.6839 Y-12.0576
N24390 X27.5483 Y-11.9450
N24400 X27.3933 Y-11.8610
N24410 X27.2248 Y-11.8090
N24420 X27.0397 Y-11.7900
N24430 X26.3568 Y-11.7985
N24440 G00 Z5.0000
N24450 X25.3158 Y-12.2315
N24460 Z1.0000
N24470 G01 Z-0.1000 F1000
N24480 G02 X25.7784 Y-11.9932 I0.5288 J-0.4586 F2000.0
N24490 G01 X27.0446 Y-11.9900 F2000
N24500 G02 X27.1108 Y-13.3868 I-0.0001 J-0.7000 F2000.0
N24510 G01 X25.8446 Y-13.3900 F2000
N24520 G02 X25.3158 Y-12.2315 I-0.0000 J0.7000 F2000.0
N24530 G00 Z5.0000
N24540 X30.7458 Y-19.9979
N24550 Z1.0000
N24560 G01 Z-0.1000 F1000
N24570 X30.0320 Y-20.0059 F2000
N24580 X29.9164 Y-20.0477
N24590 X29.8129 Y-20.1142
N24600 X29.7269 Y-20.2020
N24610 X29.6625 Y-20.3068
N24620 X29.6231 Y-20.4232
N24630 X29.6096 Y-20.5456
N24640 Y-21.8400
N24650 X30.1096
N24660 X30.1106 Y-20.5302
N24670 G02 X30.1596 Y-20.4900 I0.0491 J-0.0099 F2000.0
N24680 G01 X31.4596 F2000
N24690 Y-19.9900
N24700 X30.7458 Y-19.9979
N24710 G00 Z5.0000
N24720 X29.8596 Y-22.2400
N24730 Z1.0000
N24740 G01 Z-0.1000 F1000
N24750 X29.6096 F2000
N24760 X29.6256 Y-23.6676
N24770 X29.6673 Y-23.7832
N24780 X29.7338 Y-23.8867
N24790 X29.8216 Y-23.9727
N24800 X29.9264 Y-24.0371
N24810 X30.0429 Y-24.0765
N24820 X30.1652 Y-24.0900
N24830 X31.4596
N24840 Y-23.5900
N24850 X30.1499 Y-23.5890
N24860 G02 X30.1096 Y-23.5400 I0.0096 J0.0490 F2000.0
N24870 G01 Y-22.2400 F2000
N24880 X29.8596
N24890 G00 Z5.0000
N24900 X31.8596 Y-23.8400
N24910 Z1.0000
N24920 G01 Z-0.1000 F1000
N24930 Y-24.0900 F2000
N24940 X33.2872 Y-24.0741
N24950 X33.4028 Y-24.0323
N24960 X33.5063 Y-23.9658
N24970 X33.5923 Y-23.8780
N24980 X33.6567 Y-23.7732
N24990 X33.6961 Y-23.6568
N25000 X33.7096 Y-23.5344
N25010 Y-22.2400
N25020 X33.2096
N25030 X33.2092 Y-23.5461
N25040 G02 X33.1596 Y-23.5900 I-0.0496 J0.0061 F2000.0
N25050 G01 X31.8596 F2000
N25060 Y-23.8400
N25070 G00 Z5.0000
N25080 X33.4596 Y-21.8400
N25090 Z1.0000
N25100 G01 Z-0.1000 F1000
N25110 X33.7096 F2000
N25120 X33.6937 Y-20.4124
N25130 X33.6519 Y-20.2968
N25140 X33.5854 Y-20.1933
N25150 X33.4976 Y-20.1073
N25160 X33.3928 Y-20.0429
N25170 X33.2764 Y-20.0035
N25180 X33.1540 Y-19.9900
N25190 X31.8596
N25200 Y-20.4900
N25210 X33.1694 Y-20.4910
N25220 G02 X33.2096 Y-20.5400 I-0.0098 J-0.0490 F2000.0
N25230 G01 Y-21.8400 F2000
N25240 X33.4596
N25250 G00 Z5.0000
N25260 X38.9637 Y-28.7296
N25270 Z1.0000
N25280 G01 Z-0.1000 F1000
N25290 X38.8444 Y-28.8165 F2000
N25300 X38.6296 Y-29.0188
N25310 X38.4418 Y-29.2464
N25320 X38.2840 Y-29.4958
N25330 X38.1588 Y-29.7629
N25340 X38.0679 Y-30.0437
N25350 X38.0130 Y-30.3336
N25360 X37.9949 Y-30.6281
N25370 X38.0138 Y-30.9226
N25380 X38.0695 Y-31.2124
N25390 X38.1611 Y-31.4929
N25400 X38.2871 Y-31.7597
N25410 X38.4455 Y-32.0087
N25420 X38.6339 Y-32.2358
N25430 X38.8493 Y-32.4375
N25440 X39.0882 Y-32.6106
N25450 X39.3470 Y-32.7524
N25460 X39.6215 Y-32.8607
N25470 X39.9074 Y-32.9337
N25480 X40.2002 Y-32.9703
N25490 X40.4953 Y-32.9699
N25500 X40.7880 Y-32.9325
N25510 X41.0737 Y-32.8587
N25520 X41.3479 Y-32.7497
N25530 X41.6063 Y-32.6072
N25540 X41.8448 Y-32.4335
N25550 X42.0596 Y-32.2312
N25560 X42.2474 Y-32.0036
N25570 X42.4052 Y-31.7542
N25580 X42.5305 Y-31.4871
N25590 X42.6213 Y-31.2063
N25600 X42.6762 Y-30.9164
N25610 X42.6943 Y-30.6219
N25620 X42.6754 Y-30.3274
N25630 X42.6197 Y-30.0376
N25640 X42.5282 Y-29.7571
N25650 X42.4022 Y-29.4903
N25660 X42.2437 Y-29.2413
N25670 X42.0553 Y-29.0142
N25680 X41.8399 Y-28.8125
N25690 X41.6010 Y-28.6394
N25700 X41.3422 Y-28.4976
N25710 X41.0677 Y-28.3893
N25720 X40.7818 Y-28.3163
N25730 X40.4890 Y-28.2797
N25740 X40.1939 Y-28.2801
N25750 X39.9012 Y-28.3175
N25760 X39.6155 Y-28.3913
N25770 X39.3413 Y-28.5003
N25780 X39.0829 Y-28.6428
N25790 X38.9637 Y-28.7296
N25800 G00 Z5.0000
N25810 X40.3478 Y25.0299
N25820 Z1.0000
N25830 G01 Z-0.1000 F1000
N25840 X40.4953 Y25.0301 F2000
N25850 X40.7880 Y25.0675
N25860 X41.0737 Y25.1413
N25870 X41.3479 Y25.2503
N25880 X41.6063 Y25.3928
N25890 X41.8448 Y25.5665
N25900 X42.0596 Y25.7688
N25910 X42.2474 Y25.9964
N25920 X42.4052 Y26.2458
N25930 X42.5305 Y26.5129
N25940 X42.6213 Y26.7937
N25950 X42.6762 Y27.0836
N25960 X42.6943 Y27.3781
N25970 X42.6754 Y27.6726
N25980 X42.6197 Y27.9624
N25990 X42.5282 Y28.2429
N26000 X42.4022 Y28.5097
N26010 X42.2437 Y28.7587
N26020 X42.0553 Y28.9858
N26030 X41.8399 Y29.1875
N26040 X41.6010 Y29.3606
N26050 X41.3422 Y29.5024
N26060 X41.0677 Y29.6107
N26070 X40.7818 Y29.6837
N26080 X40.4890 Y29.7203
N26090 X40.1939 Y29.7199
N26100 X39.9012 Y29.6825
N26110 X39.6155 Y29.6087
N26120 X39.3413 Y29.4997
N26130 X39.0829 Y29.3572
N26140 X38.8444 Y29.1835
N26150 X38.6296 Y28.9812
N26160 X38.4418 Y28.7536
N26170 X38.2840 Y28.5042
N26180 X38.1588 Y28.2371
N26190 X38.0679 Y27.9563
N26200 X38.0130 Y27.6664
N26210 X37.9949 Y27.3719
N26220 X38.0138 Y27.0774
N26230 X38.0695 Y26.7876
N26240 X38.1611 Y26.5071
N26250 X38.2871 Y26.2403
N26260 X38.4455 Y25.9913
N26270 X38.6339 Y25.7642
N26280 X38.8493 Y25.5625
N26290 X39.0882 Y25.3894
N26300 X39.3470 Y25.2476
N26310 X39.6215 Y25.1393
N26320 X39.9074 Y25.0663
N26330 X40.2002 Y25.0297
N26340 X40.3478 Y25.0299
N26350 G00 Z5.0000
N26360 X33.7017 Y17.8738
N26370 Z1.0000
N26380 G01 Z-0.1000 F1000
N26390 X33.6937 Y18.5876 F2000
N26400 X33.6519 Y18.7032
N26410 X33.5854 Y18.8067
N26420 X33.4976 Y18.8927
N26430 X33.3928 Y18.9571
N26440 X33.2764 Y18.9965
N26450 X33.1540 Y19.0100
N26460 X31.8596
N26470 Y18.5100
N26480 X33.1694 Y18.5090
N26490 G02 X33.2096 Y18.4600 I-0.0098 J-0.0490 F2000.0
N26500 G01 Y17.1600 F2000
N26510 X33.7096
N26520 X33.7017 Y17.8738
N26530 G00 Z5.0000
N26540 X33.4596 Y16.7600
N26550 Z1.0000
N26560 G01 Z-0.1000 F1000
N26570 X33.2096 F2000
N26580 X33.2092 Y15.4539
N26590 G02 X33.1596 Y15.4100 I-0.0496 J0.0061 F2000.0
N26600 G01 X31.8596 F2000
N26610 Y14.9100
N26620 X33.2872 Y14.9259
N26630 X33.4028 Y14.9677
N26640 X33.5063 Y15.0342
N26650 X33.5923 Y15.1220
N26660 X33.6567 Y15.2268
N26670 X33.6961 Y15.3432
N26680 X33.7096 Y15.4656
N26690 Y16.7600
N26700 X33.4596
N26710 G00 Z5.0000
N26720 X30.8047 Y15.4105
N26730 Z1.0000
N26740 G01 Z-0.1000 F1000
N26750 X30.1499 Y15.4110 F2000
N26760 G02 X30.1096 Y15.4600 I0.0096 J0.0490 F2000.0
N26770 G01 Y16.7600 F2000
N26780 X29.6096
N26790 X29.6256 Y15.3324
N26800 X29.6673 Y15.2168
N26810 X29.7338 Y15.1133
N26820 X29.8216 Y15.0273
N26830 X29.9264 Y14.9629
N26840 X30.0429 Y14.9235
N26850 X30.1652 Y14.9100
N26860 X31.4596
N26870 Y15.4100
N26880 X30.8047 Y15.4105
N26890 G00 Z5.0000
N26900 X29.8596 Y17.1600
N26910 Z1.0000
N26920 G01 Z-0.1000 F1000
N26930 X30.1096 F2000
N26940 X30.1106 Y18.4698
N26950 G02 X30.1596 Y18.5100 I0.0491 J-0.0099 F2000.0
N26960 G01 X31.4596 F2000
N26970 Y19.0100
N26980 X30.0320 Y18.9941
N26990 X29.9164 Y18.9523
N27000 X29.8129 Y18.8858
N27010 X29.7269 Y18.7980
N27020 X29.6625 Y18.6932
N27030 X29.6231 Y18.5768
N27040 X29.6096 Y18.4544
N27050 Y17.1600
N27060 X29.8596
N27070 (Part: encoder_diff_driver_board_DRILLS)
N27080 (Operation: Drill, Tool 1, T18: Centre drill, 4 mm diameter, 0.1 mm Deep)
N27090 G00 Z5.0000
N27100 M05
N27110 M6 T18  (Centre drill, 4 mm diameter)
N27120 G43 H18
N27130 G00 X29.8596 Y17.1600 Z5.0000
N27140 M03 S3000
N27150 M08 (Flood coolant on)
N27160 X49.6596 Y-22.0400
N27170 Z1.0000
N27180 G01 Z-0.1000 F400
N27190 G00 Z5.0000
N27200 Y16.9600
N27210 Z1.0000
N27220 G01 Z-0.1000
N27230 G00 Z5.0000
N27240 X40.3446 Y27.3750
N27250 Z1.0000
N27260 G01 Z-0.1000
N27270 G00 Z5.0000
N27280 Y-30.6250
N27290 Z1.0000
N27300 G01 Z-0.1000
N27310 G00 Z5.0000
N27320 X31.6596 Y-22.0400
N27330 Z1.0000
N27340 G01 Z-0.1000
N27350 G00 Z5.0000
N27360 X26.4446 Y-20.3300
N27370 Z1.0000
N27380 G01 Z-0.1000
N27390 G00 Z5.0000
N27400 Y-17.7700
N27410 Z1.0000
N27420 G01 Z-0.1000
N27430 G00 Z5.0000
N27440 Y-15.2500
N27450 Z1.0000
N27460 G01 Z-0.1000
N27470 G00 Z5.0000
N27480 Y-12.6900
N27490 Z1.0000
N27500 G01 Z-0.1000
N27510 G00 Z5.0000
N27520 Y-6.3600
N27530 Z1.0000
N27540 G01 Z-0.1000
N27550 G00 Z5.0000
N27560 Y-3.8000
N27570 Z1.0000
N27580 G01 Z-0.1000
N27590 G00 Z5.0000
N27600 Y-1.2800
N27610 Z1.0000
N27620 G01 Z-0.1000
N27630 G00 Z5.0000
N27640 Y1.2800
N27650 Z1.0000
N27660 G01 Z-0.1000
N27670 G00 Z5.0000
N27680 Y7.6100
N27690 Z1.0000
N27700 G01 Z-0.1000
N27710 G00 Z5.0000
N27720 Y10.1700
N27730 Z1.0000
N27740 G01 Z-0.1000
N27750 G00 Z5.0000
N27760 Y12.6900
N27770 Z1.0000
N27780 G01 Z-0.1000
N27790 G00 Z5.0000
N27800 Y15.2500
N27810 Z1.0000
N27820 G01 Z-0.1000
N27830 G00 Z5.0000
N27840 X31.6596 Y16.9600
N27850 Z1.0000
N27860 G01 Z-0.1000
N27870 G00 Z5.0000
N27880 X20.3396 Y26.6700
N27890 Z1.0000
N27900 G01 Z-0.1000
N27910 G00 Z5.0000
N27920 X17.7996
N27930 Z1.0000
N27940 G01 Z-0.1000
N27950 G00 Z5.0000
N27960 X15.2596
N27970 Z1.0000
N27980 G01 Z-0.1000
N27990 G00 Z5.0000
N28000 X12.7196
N28010 Z1.0000
N28020 G01 Z-0.1000
N28030 G00 Z5.0000
N28040 X3.8296
N28050 Z1.0000
N28060 G01 Z-0.1000
N28070 G00 Z5.0000
N28080 X1.2896
N28090 Z1.0000
N28100 G01 Z-0.1000
N28110 G00 Z5.0000
N28120 X-1.2504
N28130 Z1.0000
N28140 G01 Z-0.1000
N28150 G00 Z5.0000
N28160 X-14.9754 Y15.2500
N28170 Z1.0000
N28180 G01 Z-0.1000
N28190 G00 Z5.0000
N28200 Y12.7100
N28210 Z1.0000
N28220 G01 Z-0.1000
N28230 G00 Z5.0000
N28240 Y10.1500
N28250 Z1.0000
N28260 G01 Z-0.1000
N28270 G00 Z5.0000
N28280 Y7.6100
N28290 Z1.0000
N28300 G01 Z-0.1000
N28310 G00 Z5.0000
N28320 Y1.2800
N28330 Z1.0000
N28340 G01 Z-0.1000
N28350 G00 Z5.0000
N28360 Y-1.2600
N28370 Z1.0000
N28380 G01 Z-0.1000
N28390 G00 Z5.0000
N28400 Y-3.8200
N28410 Z1.0000
N28420 G01 Z-0.1000
N28430 G00 Z5.0000
N28440 Y-6.3600
N28450 Z1.0000
N28460 G01 Z-0.1000
N28470 G00 Z5.0000
N28480 Y-12.6900
N28490 Z1.0000
N28500 G01 Z-0.1000
N28510 G00 Z5.0000
N28520 Y-15.2300
N28530 Z1.0000
N28540 G01 Z-0.1000
N28550 G00 Z5.0000
N28560 Y-17.7900
N28570 Z1.0000
N28580 G01 Z-0.1000
N28590 G00 Z5.0000
N28600 Y-20.3300
N28610 Z1.0000
N28620 G01 Z-0.1000
N28630 G00 Z5.0000
N28640 X-21.5704 Y-0.6350
N28650 Z1.0000
N28660 G01 Z-0.1000
N28670 G00 Z5.0000
N28680 Y1.9050
N28690 Z1.0000
N28700 G01 Z-0.1000
N28710 G00 Z5.0000
N28720 Y4.4450
N28730 Z1.0000
N28740 G01 Z-0.1000
N28750 G00 Z5.0000
N28760 Y6.9850
N28770 Z1.0000
N28780 G01 Z-0.1000
N28790 G00 Z5.0000
N28800 Y9.5250
N28810 Z1.0000
N28820 G01 Z-0.1000
N28830 G00 Z5.0000
N28840 Y12.0650
N28850 Z1.0000
N28860 G01 Z-0.1000
N28870 G00 Z5.0000
N28880 Y14.6050
N28890 Z1.0000
N28900 G01 Z-0.1000
N28910 G00 Z5.0000
N28920 Y17.1450
N28930 Z1.0000
N28940 G01 Z-0.1000
N28950 G00 Z5.0000
N28960 X-29.6554 Y27.3750
N28970 Z1.0000
N28980 G01 Z-0.1000
N28990 G00 Z5.0000
N29000 X-29.1904 Y-15.2400
N29010 Z1.0000
N29020 G01 Z-0.1000
N29030 G00 Z5.0000
N29040 Y-17.7800
N29050 Z1.0000
N29060 G01 Z-0.1000
N29070 G00 Z5.0000
N29080 X-29.6554 Y-30.6250
N29090 Z1.0000
N29100 G01 Z-0.1000
N29110 G00 Z5.0000
N29120 (Operation: Drill, Tool 1, T34: Drill, 1 mm diameter, 1.7 mm Deep)
N29130 M09 (Coolant off)
N29140 M05
N29150 M6 T34  (Drill, 1 mm diameter)
N29160 G43 H34
N29170 G00 X-29.6554 Y-30.6250 Z5.0000
N29180 M03 S10000
N29190 M08 (Flood coolant on)
N29200 X49.6596 Y-22.0400
N29210 Z1.0000
N29220 G01 Z-1.7000 F500
N29230 G00 Z5.0000
N29240 Y16.9600
N29250 Z1.0000
N29260 G01 Z-1.7000
N29270 G00 Z5.0000
N29280 X40.3446 Y27.3750
N29290 Z1.0000
N29300 G01 Z-1.7000
N29310 G00 Z5.0000
N29320 Y-30.6250
N29330 Z1.0000
N29340 G01 Z-1.7000
N29350 G00 Z5.0000
N29360 X31.6596 Y-22.0400
N29370 Z1.0000
N29380 G01 Z-1.7000
N29390 G00 Z5.0000
N29400 X26.4446 Y-20.3300
N29410 Z1.0000
N29420 G01 Z-1.7000
N29430 G00 Z5.0000
N29440 Y-17.7700
N29450 Z1.0000
N29460 G01 Z-1.7000
N29470 G00 Z5.0000
N29480 Y-15.2500
N29490 Z1.0000
N29500 G01 Z-1.7000
N29510 G00 Z5.0000
N29520 Y-12.6900
N29530 Z1.0000
N29540 G01 Z-1.7000
N29550 G00 Z5.0000
N29560 Y-6.3600
N29570 Z1.0000
N29580 G01 Z-1.7000
N29590 G00 Z5.0000
N29600 Y-3.8000
N29610 Z1.0000
N29620 G01 Z-1.7000
N29630 G00 Z5.0000
N29640 Y-1.2800
N29650 Z1.0000
N29660 G01 Z-1.7000
N29670 G00 Z5.0000
N29680 Y1.2800
N29690 Z1.0000
N29700 G01 Z-1.7000
N29710 G00 Z5.0000
N29720 Y7.6100
N29730 Z1.0000
N29740 G01 Z-1.7000
N29750 G00 Z5.0000
N29760 Y10.1700
N29770 Z1.0000
N29780 G01 Z-1.7000
N29790 G00 Z5.0000
N29800 Y12.6900
N29810 Z1.0000
N29820 G01 Z-1.7000
N29830 G00 Z5.0000
N29840 Y15.2500
N29850 Z1.0000
N29860 G01 Z-1.7000
N29870 G00 Z5.0000
N29880 X31.6596 Y16.9600
N29890 Z1.0000
N29900 G01 Z-1.7000
N29910 G00 Z5.0000
N29920 X20.3396 Y26.6700
N29930 Z1.0000
N29940 G01 Z-1.7000
N29950 G00 Z5.0000
N29960 X17.7996
N29970 Z1.0000
N29980 G01 Z-1.7000
N29990 G00 Z5.0000
N30000 X15.2596
N30010 Z1.0000
N30020 G01 Z-1.7000
N30030 G00 Z5.0000
N30040 X12.7196
N30050 Z1.0000
N30060 G01 Z-1.7000
N30070 G00 Z5.0000
N30080 X3.8296
N30090 Z1.0000
N30100 G01 Z-1.7000
N30110 G00 Z5.0000
N30120 X1.2896
N30130 Z1.0000
N30140 G01 Z-1.7000
N30150 G00 Z5.0000
N30160 X-1.2504
N30170 Z1.0000
N30180 G01 Z-1.7000
N30190 G00 Z5.0000
N30200 X-14.9754 Y15.2500
N30210 Z1.0000
N30220 G01 Z-1.7000
N30230 G00 Z5.0000
N30240 Y12.7100
N30250 Z1.0000
N30260 G01 Z-1.7000
N30270 G00 Z5.0000
N30280 Y10.1500
N30290 Z1.0000
N30300 G01 Z-1.7000
N30310 G00 Z5.0000
N30320 Y7.6100
N30330 Z1.0000
N30340 G01 Z-1.7000
N30350 G00 Z5.0000
N30360 Y1.2800
N30370 Z1.0000
N30380 G01 Z-1.7000
N30390 G00 Z5.0000
N30400 Y-1.2600
N30410 Z1.0000
N30420 G01 Z-1.7000
N30430 G00 Z5.0000
N30440 Y-3.8200
N30450 Z1.0000
N30460 G01 Z-1.7000
N30470 G00 Z5.0000
N30480 Y-6.3600
N30490 Z1.0000
N30500 G01 Z-1.7000
N30510 G00 Z5.0000
N30520 Y-12.6900
N30530 Z1.0000
N30540 G01 Z-1.7000
N30550 G00 Z5.0000
N30560 Y-15.2300
N30570 Z1.0000
N30580 G01 Z-1.7000
N30590 G00 Z5.0000
N30600 Y-17.7900
N30610 Z1.0000
N30620 G01 Z-1.7000
N30630 G00 Z5.0000
N30640 Y-20.3300
N30650 Z1.0000
N30660 G01 Z-1.7000
N30670 G00 Z5.0000
N30680 X-21.5704 Y-0.6350
N30690 Z1.0000
N30700 G01 Z-1.7000
N30710 G00 Z5.0000
N30720 Y1.9050
N30730 Z1.0000
N30740 G01 Z-1.7000
N30750 G00 Z5.0000
N30760 Y4.4450
N30770 Z1.0000
N30780 G01 Z-1.7000
N30790 G00 Z5.0000
N30800 Y6.9850
N30810 Z1.0000
N30820 G01 Z-1.7000
N30830 G00 Z5.0000
N30840 Y9.5250
N30850 Z1.0000
N30860 G01 Z-1.7000
N30870 G00 Z5.0000
N30880 Y12.0650
N30890 Z1.0000
N30900 G01 Z-1.7000
N30910 G00 Z5.0000
N30920 Y14.6050
N30930 Z1.0000
N30940 G01 Z-1.7000
N30950 G00 Z5.0000
N30960 Y17.1450
N30970 Z1.0000
N30980 G01 Z-1.7000
N30990 G00 Z5.0000
N31000 X-29.6554 Y27.3750
N31010 Z1.0000
N31020 G01 Z-1.7000
N31030 G00 Z5.0000
N31040 X-29.1904 Y-15.2400
N31050 Z1.0000
N31060 G01 Z-1.7000
N31070 G00 Z5.0000
N31080 Y-17.7800
N31090 Z1.0000
N31100 G01 Z-1.7000
N31110 G00 Z5.0000
N31120 X-29.6554 Y-30.6250
N31130 Z1.0000
N31140 G01 Z-1.7000
N31150 G00 Z5.0000
N31160 M09 (Coolant off)
N31170 M05
N31180 M05 M30
