N0010 (Filename: encoder_diff_driver_board 02.ngc)
N0020 (Post processor: LinuxCNC.scpost)
N0030 (Date: 30/10/2024)
N0040 G21 (Units: Metric)
N0050 G64 P0.001 G40 G90
N0060 F1
N0070 (Part: encoder_diff_driver_board_COPPER-BOTTOM)

N34090 (Operation: Drill, Tool 1, T34: Drill, 1 mm diameter, 1.7 mm Deep)
N34100 M09 (Coolant off)
N34110 M05
N34120 M6 T34  (Drill, 1 mm diameter)
N34130 G43 H34
N34140 G00 X-29.6554 Y-30.6250 Z5.0000
N34150 M03 S10000
N34160 M08 (Flood coolant on)
N34170 X49.6596 Y-22.0400
N34180 Z1.0000
N34190 G01 Z-1.7000 F500
N34200 G00 Z5.0000
N34210 Y16.9600
N34220 Z1.0000
N34230 G01 Z-1.7000
N34240 G00 Z5.0000
N34250 X40.3446 Y27.3750
N34260 Z1.0000
N34270 G01 Z-1.7000
N34280 G00 Z5.0000
N34290 Y-30.6250
N34300 Z1.0000
N34310 G01 Z-1.7000
N34320 G00 Z5.0000
N34330 X31.6596 Y-22.0400
N34340 Z1.0000
N34350 G01 Z-1.7000
N34360 G00 Z5.0000
N34370 X26.4446 Y-20.3300
N34380 Z1.0000
N34390 G01 Z-1.7000
N34400 G00 Z5.0000
N34410 Y-17.7700
N34420 Z1.0000
N34430 G01 Z-1.7000
N34440 G00 Z5.0000
N34450 Y-15.2500
N34460 Z1.0000
N34470 G01 Z-1.7000
N34480 G00 Z5.0000
N34490 Y-12.6900
N34500 Z1.0000
N34510 G01 Z-1.7000
N34520 G00 Z5.0000
N34530 Y-6.3600
N34540 Z1.0000
N34550 G01 Z-1.7000
N34560 G00 Z5.0000
N34570 Y-3.8000
N34580 Z1.0000
N34590 G01 Z-1.7000
N34600 G00 Z5.0000
N34610 Y-1.2800
N34620 Z1.0000
N34630 G01 Z-1.7000
N34640 G00 Z5.0000
N34650 Y1.2800
N34660 Z1.0000
N34670 G01 Z-1.7000
N34680 G00 Z5.0000
N34690 Y7.6100
N34700 Z1.0000
N34710 G01 Z-1.7000
N34720 G00 Z5.0000
N34730 Y10.1700
N34740 Z1.0000
N34750 G01 Z-1.7000
N34760 G00 Z5.0000
N34770 Y12.6900
N34780 Z1.0000
N34790 G01 Z-1.7000
N34800 G00 Z5.0000
N34810 Y15.2500
N34820 Z1.0000
N34830 G01 Z-1.7000
N34840 G00 Z5.0000
N34850 X31.6596 Y16.9600
N34860 Z1.0000
N34870 G01 Z-1.7000
N34880 G00 Z5.0000
N34890 X20.3396 Y26.6700
N34900 Z1.0000
N34910 G01 Z-1.7000
N34920 G00 Z5.0000
N34930 X17.7996
N34940 Z1.0000
N34950 G01 Z-1.7000
N34960 G00 Z5.0000
N34970 X15.2596
N34980 Z1.0000
N34990 G01 Z-1.7000
N35000 G00 Z5.0000
N35010 X12.7196
N35020 Z1.0000
N35030 G01 Z-1.7000
N35040 G00 Z5.0000
N35050 X3.8296
N35060 Z1.0000
N35070 G01 Z-1.7000
N35080 G00 Z5.0000
N35090 X1.2896
N35100 Z1.0000
N35110 G01 Z-1.7000
N35120 G00 Z5.0000
N35130 X-1.2504
N35140 Z1.0000
N35150 G01 Z-1.7000
N35160 G00 Z5.0000
N35170 X-14.9754 Y15.2500
N35180 Z1.0000
N35190 G01 Z-1.7000
N35200 G00 Z5.0000
N35210 Y12.7100
N35220 Z1.0000
N35230 G01 Z-1.7000
N35240 G00 Z5.0000
N35250 Y10.1500
N35260 Z1.0000
N35270 G01 Z-1.7000
N35280 G00 Z5.0000
N35290 Y7.6100
N35300 Z1.0000
N35310 G01 Z-1.7000
N35320 G00 Z5.0000
N35330 Y1.2800
N35340 Z1.0000
N35350 G01 Z-1.7000
N35360 G00 Z5.0000
N35370 Y-1.2600
N35380 Z1.0000
N35390 G01 Z-1.7000
N35400 G00 Z5.0000
N35410 Y-3.8200
N35420 Z1.0000
N35430 G01 Z-1.7000
N35440 G00 Z5.0000
N35450 Y-6.3600
N35460 Z1.0000
N35470 G01 Z-1.7000
N35480 G00 Z5.0000
N35490 Y-12.6900
N35500 Z1.0000
N35510 G01 Z-1.7000
N35520 G00 Z5.0000
N35530 Y-15.2300
N35540 Z1.0000
N35550 G01 Z-1.7000
N35560 G00 Z5.0000
N35570 Y-17.7900
N35580 Z1.0000
N35590 G01 Z-1.7000
N35600 G00 Z5.0000
N35610 Y-20.3300
N35620 Z1.0000
N35630 G01 Z-1.7000
N35640 G00 Z5.0000
N35650 X-21.5704 Y-0.6350
N35660 Z1.0000
N35670 G01 Z-1.7000
N35680 G00 Z5.0000
N35690 Y1.9050
N35700 Z1.0000
N35710 G01 Z-1.7000
N35720 G00 Z5.0000
N35730 Y4.4450
N35740 Z1.0000
N35750 G01 Z-1.7000
N35760 G00 Z5.0000
N35770 Y6.9850
N35780 Z1.0000
N35790 G01 Z-1.7000
N35800 G00 Z5.0000
N35810 Y9.5250
N35820 Z1.0000
N35830 G01 Z-1.7000
N35840 G00 Z5.0000
N35850 Y12.0650
N35860 Z1.0000
N35870 G01 Z-1.7000
N35880 G00 Z5.0000
N35890 Y14.6050
N35900 Z1.0000
N35910 G01 Z-1.7000
N35920 G00 Z5.0000
N35930 Y17.1450
N35940 Z1.0000
N35950 G01 Z-1.7000
N35960 G00 Z5.0000
N35970 X-29.6554 Y27.3750
N35980 Z1.0000
N35990 G01 Z-1.7000
N36000 G00 Z5.0000
N36010 X-29.1904 Y-15.2400
N36020 Z1.0000
N36030 G01 Z-1.7000
N36040 G00 Z5.0000
N36050 Y-17.7800
N36060 Z1.0000
N36070 G01 Z-1.7000
N36080 G00 Z5.0000
N36090 X-29.6554 Y-30.6250
N36100 Z1.0000
N36110 G01 Z-1.7000
N36120 G00 Z5.0000
N36130 M09 (Coolant off)
N36140 M05
N36150 M05 M30
